;FLAVOR:Marlin
;TIME:439
;Filament used: 3.47527m, 0m
;Layer height: 0.3
;MINX:91.201
;MINY:111.701
;MINZ:0.3
;MAXX:110.799
;MAXY:131.299
;MAXZ:7
;Generated with Cura_SteamEngine 5.0.1
T0
M140 S40
M105
M190 S40
M104 S200
M105
M109 S200
M82 ;absolute extrusion mode
M900 K0.020;
G28 ; home all axes
G1 Z5 F5000 ; lift nozzle
G1 X-45 Y70 F2500; go to glycerin roller;
G92 E0
G1 X-23 F5000; park to start
G92 E0; Extrude a small amount to clear nozzle
G1 E20 F4000
G4 P2000
G92 E0


G92 E0
G1 F1500 E-1
;LAYER_COUNT:20
;LAYER:0
M107
M204 S500
G1 F600 Z1.3
;MESH:Sajad.stl
G0 F6000 X101.565 Y130.882 Z1.3
;TYPE:WALL-INNER
G1 F600 Z0.3
G1 F1500 E0.15542
G1 F1800 X102.085 Y130.835 E0.35019
G1 X102.692 Y130.746 E0.57903
G1 X103.252 Y130.625 E0.79274
G1 X103.811 Y130.47 E1.00913
G1 X104.32 Y130.291 E1.21039
G1 X104.845 Y130.075 E1.42215
G1 X105.37 Y129.821 E1.6397
G1 X105.865 Y129.543 E1.85148
G1 X106.33 Y129.242 E2.0581
G1 X106.782 Y128.909 E2.26752
G1 X107.224 Y128.541 E2.48206
G1 X107.648 Y128.144 E2.69873
G1 X108.026 Y127.741 E2.90483
G1 X108.392 Y127.304 E3.11746
G1 X108.738 Y126.836 E3.33456
G1 X109.045 Y126.361 E3.54553
G1 X109.318 Y125.878 E3.75249
G1 X109.563 Y125.373 E3.96186
G1 X109.788 Y124.83 E4.18111
G1 X109.963 Y124.325 E4.38048
G1 X110.121 Y123.763 E4.59824
G1 X110.243 Y123.203 E4.81203
G1 X110.337 Y122.599 E5.04005
G1 X110.381 Y122.082 E5.2336
G1 X110.399 Y121.512 E5.44632
G1 X110.382 Y120.929 E5.66389
G1 X110.335 Y120.415 E5.85642
G1 X110.246 Y119.806 E6.086
G1 X110.125 Y119.248 E6.29898
G1 X109.97 Y118.689 E6.51537
G1 X109.792 Y118.18 E6.71651
G1 X109.574 Y117.653 E6.92925
G1 X109.322 Y117.13 E7.1458
G1 X109.043 Y116.635 E7.35775
G1 X108.742 Y116.17 E7.56438
G1 X108.409 Y115.718 E7.7738
G1 X108.041 Y115.276 E7.98834
G1 X107.644 Y114.852 E8.205
G1 X107.241 Y114.474 E8.41111
G1 X106.804 Y114.108 E8.62374
G1 X106.336 Y113.762 E8.84084
G1 X105.861 Y113.455 E9.05181
G1 X105.378 Y113.182 E9.25877
G1 X104.874 Y112.937 E9.46781
G1 X104.334 Y112.714 E9.68574
G1 X103.825 Y112.537 E9.88676
G1 X103.263 Y112.379 E10.10452
G1 X102.703 Y112.257 E10.31831
G1 X102.099 Y112.163 E10.54633
G1 X101.582 Y112.119 E10.73987
G1 X101.014 Y112.101 E10.95186
G1 X100.435 Y112.118 E11.16793
G1 X99.915 Y112.165 E11.36269
G1 X99.308 Y112.254 E11.59153
G1 X98.748 Y112.375 E11.80524
G1 X98.189 Y112.53 E12.02163
G1 X97.68 Y112.709 E12.22289
G1 X97.155 Y112.924 E12.43451
G1 X96.63 Y113.179 E12.65223
G1 X96.135 Y113.457 E12.864
G1 X95.67 Y113.758 E13.07062
G1 X95.218 Y114.091 E13.28004
G1 X94.776 Y114.459 E13.49458
G1 X94.352 Y114.856 E13.71125
G1 X93.974 Y115.259 E13.91736
G1 X93.608 Y115.696 E14.12998
G1 X93.262 Y116.164 E14.34709
G1 X92.955 Y116.639 E14.55806
G1 X92.682 Y117.122 E14.76501
G1 X92.437 Y117.627 E14.97439
G1 X92.212 Y118.17 E15.19364
G1 X92.037 Y118.675 E15.393
G1 X91.879 Y119.237 E15.61077
G1 X91.757 Y119.797 E15.82456
G1 X91.663 Y120.401 E16.05257
G1 X91.619 Y120.918 E16.24612
G1 X91.601 Y121.488 E16.45885
G1 X91.618 Y122.065 E16.67417
G1 X91.665 Y122.585 E16.86893
G1 X91.754 Y123.194 E17.09851
G1 X91.873 Y123.747 E17.30952
G1 X92.03 Y124.311 E17.5279
G1 X92.207 Y124.816 E17.72751
G1 X92.424 Y125.344 E17.94045
G1 X92.678 Y125.868 E18.15766
G1 X92.955 Y126.361 E18.3686
G1 X93.255 Y126.825 E18.57471
G1 X93.591 Y127.282 E18.78629
G1 X93.956 Y127.72 E18.99897
G1 X94.352 Y128.144 E19.21538
G1 X94.757 Y128.525 E19.4228
G1 X95.194 Y128.891 E19.63543
G1 X95.658 Y129.234 E19.85067
G1 X96.136 Y129.543 E20.06298
G1 X96.618 Y129.816 E20.26961
G1 X97.127 Y130.063 E20.48065
G1 X97.666 Y130.286 E20.69824
G1 X98.175 Y130.463 E20.89926
G1 X98.737 Y130.621 E21.11702
G1 X99.297 Y130.743 E21.33081
G1 X99.901 Y130.837 E21.55883
G1 X100.418 Y130.881 E21.75238
G1 X100.986 Y130.899 E21.96436
G1 X101.565 Y130.882 E22.18043
G0 F6000 X101.589 Y131.282
;TYPE:WALL-OUTER
G1 F1800 X102.132 Y131.233 E22.3838
G1 X102.764 Y131.14 E22.62209
G1 X103.348 Y131.013 E22.84502
G1 X103.931 Y130.852 E23.07064
G1 X104.462 Y130.665 E23.28063
G1 X105.008 Y130.441 E23.50077
G1 X105.556 Y130.176 E23.72784
G1 X106.072 Y129.885 E23.94881
G1 X106.558 Y129.571 E24.16465
G1 X107.029 Y129.224 E24.38287
G1 X107.489 Y128.841 E24.60615
G1 X107.931 Y128.427 E24.83205
G1 X108.326 Y128.007 E25.04712
G1 X108.706 Y127.552 E25.26825
G1 X109.067 Y127.064 E25.49468
G1 X109.387 Y126.568 E25.71486
G1 X109.672 Y126.064 E25.93084
G1 X109.928 Y125.537 E26.14939
G1 X110.162 Y124.972 E26.3775
G1 X110.345 Y124.445 E26.5856
G1 X110.509 Y123.86 E26.81223
G1 X110.637 Y123.277 E27.03488
G1 X110.735 Y122.647 E27.27271
G1 X110.781 Y122.105 E27.47561
G1 X110.799 Y121.512 E27.69691
G1 X110.782 Y120.905 E27.92342
G1 X110.733 Y120.368 E28.12457
G1 X110.64 Y119.734 E28.36359
G1 X110.513 Y119.152 E28.5858
G1 X110.352 Y118.569 E28.81141
G1 X110.166 Y118.038 E29.02128
G1 X109.94 Y117.489 E29.24274
G1 X109.676 Y116.944 E29.46863
G1 X109.385 Y116.428 E29.68961
G1 X109.071 Y115.942 E29.90544
G1 X108.724 Y115.471 E30.12367
G1 X108.341 Y115.011 E30.34695
G1 X107.927 Y114.569 E30.57285
G1 X107.507 Y114.174 E30.78792
G1 X107.052 Y113.794 E31.00905
G1 X106.564 Y113.433 E31.23548
G1 X106.068 Y113.113 E31.45566
G1 X105.564 Y112.828 E31.67164
G1 X105.038 Y112.572 E31.88985
G1 X104.476 Y112.34 E32.11665
G1 X103.945 Y112.155 E32.3264
G1 X103.36 Y111.991 E32.55303
G1 X102.777 Y111.863 E32.77568
G1 X102.147 Y111.765 E33.0135
G1 X101.605 Y111.719 E33.21641
G1 X101.014 Y111.701 E33.43696
G1 X100.411 Y111.718 E33.66198
G1 X99.868 Y111.767 E33.86536
G1 X99.236 Y111.86 E34.10364
G1 X98.652 Y111.987 E34.32658
G1 X98.069 Y112.148 E34.55219
G1 X97.538 Y112.335 E34.76219
G1 X96.992 Y112.559 E34.98233
G1 X96.444 Y112.824 E35.20939
G1 X95.928 Y113.115 E35.43037
G1 X95.442 Y113.429 E35.6462
G1 X94.971 Y113.776 E35.86442
G1 X94.511 Y114.159 E36.0877
G1 X94.069 Y114.573 E36.31361
G1 X93.674 Y114.993 E36.52868
G1 X93.294 Y115.448 E36.74981
G1 X92.933 Y115.936 E36.97623
G1 X92.613 Y116.432 E37.19641
G1 X92.328 Y116.936 E37.41239
G1 X92.072 Y117.463 E37.63094
G1 X91.838 Y118.028 E37.85906
G1 X91.655 Y118.555 E38.06715
G1 X91.491 Y119.14 E38.29378
G1 X91.363 Y119.723 E38.51643
G1 X91.265 Y120.353 E38.75426
G1 X91.219 Y120.895 E38.95716
G1 X91.201 Y121.488 E39.17847
G1 X91.218 Y122.089 E39.40274
G1 X91.267 Y122.632 E39.60611
G1 X91.36 Y123.265 E39.84477
G1 X91.485 Y123.843 E40.06536
G1 X91.648 Y124.431 E40.29297
G1 X91.833 Y124.958 E40.50131
G1 X92.059 Y125.508 E40.72311
G1 X92.323 Y126.054 E40.94934
G1 X92.613 Y126.568 E41.16948
G1 X92.925 Y127.052 E41.38429
G1 X93.276 Y127.528 E41.6049
G1 X93.656 Y127.985 E41.8266
G1 X94.069 Y128.427 E42.05225
G1 X94.491 Y128.824 E42.26837
G1 X94.946 Y129.205 E42.48974
G1 X95.43 Y129.563 E42.7143
G1 X95.928 Y129.885 E42.93552
G1 X96.432 Y130.17 E43.15149
G1 X96.963 Y130.428 E43.37171
G1 X97.524 Y130.66 E43.59816
G1 X98.055 Y130.845 E43.80791
G1 X98.64 Y131.009 E44.03454
G1 X99.223 Y131.137 E44.25719
G1 X99.853 Y131.235 E44.49502
G1 X100.395 Y131.281 E44.69792
G1 X100.986 Y131.299 E44.91848
G1 X101.589 Y131.282 E45.1435
G0 F6000 X101.788 Y131.265
G1 F1500 E44.1435
G1 F600 Z1.3
G0 F6000 X102.735 Y130.389 Z1.3
;TYPE:FILL
G1 F600 Z0.3
G1 F1500 E45.29893
G1 F2400 X101.788 Y130.536 E45.65641
G1 X101.409 Y130.547 E45.79784
G1 X101.22 Y130.352 E45.89914
G1 X100.738 Y130.395 E46.07965
G1 X100.591 Y130.546 E46.15826
G1 X100.145 Y130.532 E46.3247
G1 X99.345 Y130.406 E46.6268
G1 X99.292 Y130.352 E46.65502
G1 X99.098 Y130.369 E46.72767
G1 X98.271 Y130.136 E47.04816
G1 X97.782 Y129.966 E47.24128
G1 X97.083 Y129.677 E47.52342
G1 X97.364 Y129.388 E47.67379
G1 X97.846 Y129.431 E47.85429
G1 X98.328 Y129.927 E48.11228
G1 X98.81 Y129.884 E48.29279
G1 X99.292 Y129.388 E48.55078
G1 X99.774 Y129.431 E48.73129
G1 X100.256 Y129.927 E48.98928
G1 X100.738 Y129.884 E49.16979
G1 X101.22 Y129.388 E49.42778
G1 X101.702 Y129.431 E49.60828
G1 X102.184 Y129.927 E49.86627
G1 X102.666 Y129.884 E50.04678
G1 X103.148 Y129.388 E50.30477
G1 X103.63 Y129.431 E50.48528
G1 X104.112 Y129.927 E50.74327
G1 X104.367 Y129.904 E50.83877
G1 X104.712 Y129.763 E50.9778
G1 X105.076 Y129.388 E51.17274
G1 X105.427 Y129.42 E51.30422
G1 X106.143 Y128.958 E51.62207
G1 X106.568 Y128.645 E51.81896
G1 X106.813 Y128.441 E51.93788
G1 X106.522 Y128.467 E52.04686
G1 X106.04 Y128.963 E52.30485
G1 X105.558 Y128.92 E52.48536
G1 X105.076 Y128.424 E52.74335
G1 X104.594 Y128.467 E52.92386
G1 X104.112 Y128.963 E53.18184
G1 X103.63 Y128.92 E53.36235
G1 X103.148 Y128.424 E53.62034
G1 X102.666 Y128.467 E53.80085
G1 X102.184 Y128.963 E54.05884
G1 X101.702 Y128.92 E54.23935
G1 X101.22 Y128.424 E54.49734
G1 X100.738 Y128.467 E54.67785
G1 X100.256 Y128.963 E54.93584
G1 X99.774 Y128.92 E55.11634
G1 X99.292 Y128.424 E55.37433
G1 X98.81 Y128.467 E55.55484
G1 X98.328 Y128.963 E55.81283
G1 X97.846 Y128.92 E55.99334
G1 X97.364 Y128.424 E56.25133
G1 X96.882 Y128.467 E56.43184
G1 X96.4 Y128.963 E56.68983
G1 X95.918 Y128.92 E56.87033
G1 X95.436 Y128.424 E57.12832
G1 X95.192 Y128.446 E57.21971
G1 X94.676 Y127.981 E57.47881
G1 X94.954 Y127.956 E57.58293
G1 X95.436 Y127.46 E57.84092
G1 X95.918 Y127.503 E58.02143
G1 X96.4 Y127.999 E58.27941
G1 X96.882 Y127.956 E58.45992
G1 X97.364 Y127.46 E58.71791
G1 X97.846 Y127.503 E58.89842
G1 X98.328 Y127.999 E59.15641
G1 X98.81 Y127.956 E59.33692
G1 X99.292 Y127.46 E59.59491
G1 X99.774 Y127.503 E59.77542
G1 X100.256 Y127.999 E60.03341
G1 X100.738 Y127.956 E60.21391
G1 X101.22 Y127.46 E60.4719
G1 X101.702 Y127.503 E60.65241
G1 X102.184 Y127.999 E60.9104
G1 X102.666 Y127.956 E61.09091
G1 X103.148 Y127.46 E61.3489
G1 X103.63 Y127.503 E61.52941
G1 X104.112 Y127.999 E61.7874
G1 X104.594 Y127.956 E61.9679
G1 X105.076 Y127.46 E62.22589
G1 X105.558 Y127.503 E62.4064
G1 X106.04 Y127.999 E62.66439
G1 X106.522 Y127.956 E62.8449
G1 X107.004 Y127.46 E63.10289
G1 X107.486 Y127.503 E63.2834
G1 X107.646 Y127.667 E63.36886
G1 X108.127 Y127.09 E63.64907
G1 X108.54 Y126.531 E63.90833
G1 X108.45 Y126.539 E63.94203
G1 X107.968 Y127.035 E64.20002
G1 X107.486 Y126.992 E64.38053
G1 X107.004 Y126.496 E64.63852
G1 X106.522 Y126.539 E64.81903
G1 X106.04 Y127.035 E65.07702
G1 X105.558 Y126.992 E65.25752
G1 X105.076 Y126.496 E65.51551
G1 X104.594 Y126.539 E65.69602
G1 X104.112 Y127.035 E65.95401
G1 X103.63 Y126.992 E66.13452
G1 X103.148 Y126.496 E66.39251
G1 X102.666 Y126.539 E66.57302
G1 X102.184 Y127.035 E66.83101
G1 X101.702 Y126.992 E67.01152
G1 X101.22 Y126.496 E67.2695
G1 X100.738 Y126.539 E67.45001
G1 X100.256 Y127.035 E67.708
G1 X99.774 Y126.992 E67.88851
G1 X99.292 Y126.496 E68.1465
G1 X98.81 Y126.539 E68.32701
G1 X98.328 Y127.035 E68.585
G1 X97.846 Y126.992 E68.76551
G1 X97.364 Y126.496 E69.02349
G1 X96.882 Y126.539 E69.204
G1 X96.4 Y127.035 E69.46199
G1 X95.918 Y126.992 E69.6425
G1 X95.436 Y126.496 E69.90049
G1 X94.954 Y126.539 E70.081
G1 X94.472 Y127.035 E70.33899
G1 X93.99 Y126.992 E70.5195
G1 X93.508 Y126.496 E70.77748
G1 X93.45 Y126.501 E70.7992
G1 X93.109 Y125.942 E71.04345
G1 X93.508 Y125.532 E71.25686
G1 X93.99 Y125.575 E71.43737
G1 X94.472 Y126.071 E71.69535
G1 X94.954 Y126.028 E71.87586
G1 X95.436 Y125.532 E72.13385
G1 X95.918 Y125.575 E72.31436
G1 X96.4 Y126.071 E72.57235
G1 X96.882 Y126.028 E72.75286
G1 X97.364 Y125.532 E73.01085
G1 X97.846 Y125.575 E73.19136
G1 X98.328 Y126.071 E73.44934
G1 X98.81 Y126.028 E73.62985
G1 X99.292 Y125.532 E73.88784
G1 X99.774 Y125.575 E74.06835
G1 X100.256 Y126.071 E74.32634
G1 X100.738 Y126.028 E74.50685
G1 X101.22 Y125.532 E74.76484
G1 X101.702 Y125.575 E74.94535
G1 X102.184 Y126.071 E75.20334
G1 X102.666 Y126.028 E75.38384
G1 X103.148 Y125.532 E75.64183
G1 X103.63 Y125.575 E75.82234
G1 X104.112 Y126.071 E76.08033
G1 X104.594 Y126.028 E76.26084
G1 X105.076 Y125.532 E76.51883
G1 X105.558 Y125.575 E76.69934
G1 X106.04 Y126.071 E76.95733
G1 X106.522 Y126.028 E77.13783
G1 X107.004 Y125.532 E77.39582
G1 X107.486 Y125.575 E77.57633
G1 X107.968 Y126.071 E77.83432
G1 X108.45 Y126.028 E78.01483
G1 X108.932 Y125.532 E78.27282
G1 X109.101 Y125.547 E78.33611
G1 X109.351 Y124.999 E78.56079
G1 X108.932 Y124.568 E78.78501
G1 X108.45 Y124.611 E78.96552
G1 X107.968 Y125.107 E79.22351
G1 X107.486 Y125.064 E79.40402
G1 X107.004 Y124.568 E79.66201
G1 X106.522 Y124.611 E79.84251
G1 X106.04 Y125.107 E80.1005
G1 X105.558 Y125.064 E80.28101
G1 X105.076 Y124.568 E80.539
G1 X104.594 Y124.611 E80.71951
G1 X104.112 Y125.107 E80.9775
G1 X103.63 Y125.064 E81.15801
G1 X103.148 Y124.568 E81.416
G1 X102.666 Y124.611 E81.5965
G1 X102.184 Y125.107 E81.85449
G1 X101.702 Y125.064 E82.035
G1 X101.22 Y124.568 E82.29299
G1 X100.738 Y124.611 E82.4735
G1 X100.256 Y125.107 E82.73149
G1 X99.774 Y125.064 E82.912
G1 X99.292 Y124.568 E83.16999
G1 X98.81 Y124.611 E83.35049
G1 X98.328 Y125.107 E83.60848
G1 X97.846 Y125.064 E83.78899
G1 X97.364 Y124.568 E84.04698
G1 X96.882 Y124.611 E84.22749
G1 X96.4 Y125.107 E84.48548
G1 X95.918 Y125.064 E84.66599
G1 X95.436 Y124.568 E84.92398
G1 X94.954 Y124.611 E85.10449
G1 X94.472 Y125.107 E85.36247
G1 X93.99 Y125.064 E85.54298
G1 X93.508 Y124.568 E85.80097
G1 X93.026 Y124.611 E85.98148
G1 X92.636 Y125.013 E86.19041
G1 X92.353 Y124.203 E86.51046
G1 X92.254 Y123.845 E86.64901
G1 X92.544 Y124.143 E86.80412
G1 X93.026 Y124.1 E86.98463
G1 X93.508 Y123.604 E87.24262
G1 X93.99 Y123.647 E87.42313
G1 X94.472 Y124.143 E87.68112
G1 X94.954 Y124.1 E87.86163
G1 X95.436 Y123.604 E88.11962
G1 X95.918 Y123.647 E88.30012
G1 X96.4 Y124.143 E88.55811
G1 X96.882 Y124.1 E88.73862
G1 X97.364 Y123.604 E88.99661
G1 X97.846 Y123.647 E89.17712
G1 X98.328 Y124.143 E89.43511
G1 X98.81 Y124.1 E89.61562
G1 X99.292 Y123.604 E89.87361
G1 X99.774 Y123.647 E90.05412
G1 X100.256 Y124.143 E90.3121
G1 X100.738 Y124.1 E90.49261
G1 X101.22 Y123.604 E90.7506
G1 X101.702 Y123.647 E90.93111
G1 X102.184 Y124.143 E91.1891
G1 X102.666 Y124.1 E91.36961
G1 X103.148 Y123.604 E91.6276
G1 X103.63 Y123.647 E91.80811
G1 X104.112 Y124.143 E92.06609
G1 X104.594 Y124.1 E92.2466
G1 X105.076 Y123.604 E92.50459
G1 X105.558 Y123.647 E92.6851
G1 X106.04 Y124.143 E92.94309
G1 X106.522 Y124.1 E93.1236
G1 X107.004 Y123.604 E93.38159
G1 X107.486 Y123.647 E93.5621
G1 X107.968 Y124.143 E93.82008
G1 X108.45 Y124.1 E94.00059
G1 X108.932 Y123.604 E94.25858
G1 X109.414 Y123.647 E94.43909
G1 X109.73 Y123.972 E94.60818
G1 X109.896 Y123.179 E94.9104
G1 X109.414 Y123.136 E95.09091
G1 X108.932 Y122.64 E95.34889
G1 X108.45 Y122.683 E95.5294
G1 X107.968 Y123.179 E95.78739
G1 X107.486 Y123.136 E95.9679
G1 X107.004 Y122.64 E96.22589
G1 X106.522 Y122.683 E96.4064
G1 X106.04 Y123.179 E96.66439
G1 X105.558 Y123.136 E96.8449
G1 X105.076 Y122.64 E97.10288
G1 X104.594 Y122.683 E97.28339
G1 X104.112 Y123.179 E97.54138
G1 X103.63 Y123.136 E97.72189
G1 X103.148 Y122.64 E97.97988
G1 X102.666 Y122.683 E98.16039
G1 X102.184 Y123.179 E98.41838
G1 X101.702 Y123.136 E98.59889
G1 X101.22 Y122.64 E98.85687
G1 X100.738 Y122.683 E99.03738
G1 X100.256 Y123.179 E99.29537
G1 X99.774 Y123.136 E99.47588
G1 X99.292 Y122.64 E99.73387
G1 X98.81 Y122.683 E99.91438
G1 X98.328 Y123.179 E100.17237
G1 X97.846 Y123.136 E100.35288
G1 X97.364 Y122.64 E100.61086
G1 X96.882 Y122.683 E100.79137
G1 X96.4 Y123.179 E101.04936
G1 X95.918 Y123.136 E101.22987
G1 X95.436 Y122.64 E101.48786
G1 X94.954 Y122.683 E101.66837
G1 X94.472 Y123.179 E101.92636
G1 X93.99 Y123.136 E102.10687
G1 X93.508 Y122.64 E102.36485
G1 X93.026 Y122.683 E102.54536
G1 X92.544 Y123.179 E102.80335
G1 X92.09 Y123.138 E102.97339
G1 X91.964 Y122.288 E103.29392
G1 X91.947 Y121.709 E103.50999
G1 X92.062 Y121.719 E103.55305
G1 X92.544 Y122.215 E103.81104
G1 X93.026 Y122.172 E103.99155
G1 X93.508 Y121.676 E104.24954
G1 X93.99 Y121.719 E104.43005
G1 X94.472 Y122.215 E104.68804
G1 X94.954 Y122.172 E104.86855
G1 X95.436 Y121.676 E105.12653
G1 X95.918 Y121.719 E105.30704
G1 X96.4 Y122.215 E105.56503
G1 X96.882 Y122.172 E105.74554
G1 X97.364 Y121.676 E106.00353
G1 X97.846 Y121.719 E106.18404
G1 X98.328 Y122.215 E106.44203
G1 X98.81 Y122.172 E106.62254
G1 X99.292 Y121.676 E106.88052
G1 X99.774 Y121.719 E107.06103
G1 X100.256 Y122.215 E107.31902
G1 X100.738 Y122.172 E107.49953
G1 X101.22 Y121.676 E107.75752
G1 X101.702 Y121.719 E107.93803
G1 X102.184 Y122.215 E108.19602
