;FLAVOR:Marlin
;TIME:321
;Filament used: 3.02399m, 0m
;Layer height: 0.3
;MINX:91.201
;MINY:111.701
;MINZ:0.3
;MAXX:110.799
;MAXY:131.299
;MAXZ:7
;Generated with Cura_SteamEngine 5.0.1
T0
M140 S40
M105
M190 S40
M104 S200
M105
M109 S200
M82 ;absolute extrusion mode
M900 K0.020;
G28 ; home all axes
G1 Z5 F5000 ; lift nozzle
G1 X-45 Y70 F2500; go to glycerin roller;
G92 E0
G1 X-23 F5000; park to start
G92 E0; Extrude a small amount to clear nozzle
G1 E20 F4000
G4 P2000
G92 E0


G92 E0
G1 F1500 E-1
;LAYER_COUNT:20
;LAYER:0
M107
M204 S500
G1 F600 Z1.3
;MESH:Sajad.stl
G0 F6000 X101.565 Y130.882 Z1.3
;TYPE:WALL-INNER
G1 F600 Z0.3
G1 F1500 E0.15542
G1 F1800 X102.085 Y130.835 E0.35019
G1 X102.692 Y130.746 E0.57903
G1 X103.252 Y130.625 E0.79274
G1 X103.811 Y130.47 E1.00913
G1 X104.32 Y130.291 E1.21039
G1 X104.845 Y130.075 E1.42215
G1 X105.37 Y129.821 E1.6397
G1 X105.865 Y129.543 E1.85148
G1 X106.33 Y129.242 E2.0581
G1 X106.782 Y128.909 E2.26752
G1 X107.224 Y128.541 E2.48206
G1 X107.648 Y128.144 E2.69873
G1 X108.026 Y127.741 E2.90483
G1 X108.392 Y127.304 E3.11746
G1 X108.738 Y126.836 E3.33456
G1 X109.045 Y126.361 E3.54553
G1 X109.318 Y125.878 E3.75249
G1 X109.563 Y125.373 E3.96186
G1 X109.788 Y124.83 E4.18111
G1 X109.963 Y124.325 E4.38048
G1 X110.121 Y123.763 E4.59824
G1 X110.243 Y123.203 E4.81203
G1 X110.337 Y122.599 E5.04005
G1 X110.381 Y122.082 E5.2336
G1 X110.399 Y121.512 E5.44632
G1 X110.382 Y120.929 E5.66389
G1 X110.335 Y120.415 E5.85642
G1 X110.246 Y119.806 E6.086
G1 X110.125 Y119.248 E6.29898
G1 X109.97 Y118.689 E6.51537
G1 X109.792 Y118.18 E6.71651
G1 X109.574 Y117.653 E6.92925
G1 X109.322 Y117.13 E7.1458
G1 X109.043 Y116.635 E7.35775
G1 X108.742 Y116.17 E7.56438
G1 X108.409 Y115.718 E7.7738
G1 X108.041 Y115.276 E7.98834
G1 X107.644 Y114.852 E8.205
G1 X107.241 Y114.474 E8.41111
G1 X106.804 Y114.108 E8.62374
G1 X106.336 Y113.762 E8.84084
G1 X105.861 Y113.455 E9.05181
G1 X105.378 Y113.182 E9.25877
G1 X104.874 Y112.937 E9.46781
G1 X104.334 Y112.714 E9.68574
G1 X103.825 Y112.537 E9.88676
G1 X103.263 Y112.379 E10.10452
G1 X102.703 Y112.257 E10.31831
G1 X102.099 Y112.163 E10.54633
G1 X101.582 Y112.119 E10.73987
G1 X101.014 Y112.101 E10.95186
G1 X100.435 Y112.118 E11.16793
G1 X99.915 Y112.165 E11.36269
G1 X99.308 Y112.254 E11.59153
G1 X98.748 Y112.375 E11.80524
G1 X98.189 Y112.53 E12.02163
G1 X97.68 Y112.709 E12.22289
G1 X97.155 Y112.924 E12.43451
G1 X96.63 Y113.179 E12.65223
G1 X96.135 Y113.457 E12.864
G1 X95.67 Y113.758 E13.07062
G1 X95.218 Y114.091 E13.28004
G1 X94.776 Y114.459 E13.49458
G1 X94.352 Y114.856 E13.71125
G1 X93.974 Y115.259 E13.91736
G1 X93.608 Y115.696 E14.12998
G1 X93.262 Y116.164 E14.34709
G1 X92.955 Y116.639 E14.55806
G1 X92.682 Y117.122 E14.76501
G1 X92.437 Y117.627 E14.97439
G1 X92.212 Y118.17 E15.19364
G1 X92.037 Y118.675 E15.393
G1 X91.879 Y119.237 E15.61077
G1 X91.757 Y119.797 E15.82456
G1 X91.663 Y120.401 E16.05257
G1 X91.619 Y120.918 E16.24612
G1 X91.601 Y121.488 E16.45885
G1 X91.618 Y122.065 E16.67417
G1 X91.665 Y122.585 E16.86893
G1 X91.754 Y123.194 E17.09851
G1 X91.873 Y123.747 E17.30952
G1 X92.03 Y124.311 E17.5279
G1 X92.207 Y124.816 E17.72751
G1 X92.424 Y125.344 E17.94045
G1 X92.678 Y125.868 E18.15766
G1 X92.955 Y126.361 E18.3686
G1 X93.255 Y126.825 E18.57471
G1 X93.591 Y127.282 E18.78629
G1 X93.956 Y127.72 E18.99897
G1 X94.352 Y128.144 E19.21538
G1 X94.757 Y128.525 E19.4228
G1 X95.194 Y128.891 E19.63543
G1 X95.658 Y129.234 E19.85067
G1 X96.136 Y129.543 E20.06298
G1 X96.618 Y129.816 E20.26961
G1 X97.127 Y130.063 E20.48065
G1 X97.666 Y130.286 E20.69824
G1 X98.175 Y130.463 E20.89926
G1 X98.737 Y130.621 E21.11702
G1 X99.297 Y130.743 E21.33081
G1 X99.901 Y130.837 E21.55883
G1 X100.418 Y130.881 E21.75238
G1 X100.986 Y130.899 E21.96436
G1 X101.565 Y130.882 E22.18043
G0 F6000 X101.589 Y131.282
;TYPE:WALL-OUTER
G1 F1800 X102.132 Y131.233 E22.3838
G1 X102.764 Y131.14 E22.62209
G1 X103.348 Y131.013 E22.84502
G1 X103.931 Y130.852 E23.07064
G1 X104.462 Y130.665 E23.28063
G1 X105.008 Y130.441 E23.50077
G1 X105.556 Y130.176 E23.72784
G1 X106.072 Y129.885 E23.94881
G1 X106.558 Y129.571 E24.16465
G1 X107.029 Y129.224 E24.38287
G1 X107.489 Y128.841 E24.60615
G1 X107.931 Y128.427 E24.83205
G1 X108.326 Y128.007 E25.04712
G1 X108.706 Y127.552 E25.26825
G1 X109.067 Y127.064 E25.49468
G1 X109.387 Y126.568 E25.71486
G1 X109.672 Y126.064 E25.93084
G1 X109.928 Y125.537 E26.14939
G1 X110.162 Y124.972 E26.3775
G1 X110.345 Y124.445 E26.5856
G1 X110.509 Y123.86 E26.81223
G1 X110.637 Y123.277 E27.03488
G1 X110.735 Y122.647 E27.27271
G1 X110.781 Y122.105 E27.47561
G1 X110.799 Y121.512 E27.69691
G1 X110.782 Y120.905 E27.92342
G1 X110.733 Y120.368 E28.12457
G1 X110.64 Y119.734 E28.36359
G1 X110.513 Y119.152 E28.5858
G1 X110.352 Y118.569 E28.81141
G1 X110.166 Y118.038 E29.02128
G1 X109.94 Y117.489 E29.24274
G1 X109.676 Y116.944 E29.46863
G1 X109.385 Y116.428 E29.68961
G1 X109.071 Y115.942 E29.90544
G1 X108.724 Y115.471 E30.12367
G1 X108.341 Y115.011 E30.34695
G1 X107.927 Y114.569 E30.57285
G1 X107.507 Y114.174 E30.78792
G1 X107.052 Y113.794 E31.00905
G1 X106.564 Y113.433 E31.23548
G1 X106.068 Y113.113 E31.45566
G1 X105.564 Y112.828 E31.67164
G1 X105.038 Y112.572 E31.88985
G1 X104.476 Y112.34 E32.11665
G1 X103.945 Y112.155 E32.3264
G1 X103.36 Y111.991 E32.55303
G1 X102.777 Y111.863 E32.77568
G1 X102.147 Y111.765 E33.0135
G1 X101.605 Y111.719 E33.21641
G1 X101.014 Y111.701 E33.43696
G1 X100.411 Y111.718 E33.66198
G1 X99.868 Y111.767 E33.86536
G1 X99.236 Y111.86 E34.10364
G1 X98.652 Y111.987 E34.32658
G1 X98.069 Y112.148 E34.55219
G1 X97.538 Y112.335 E34.76219
G1 X96.992 Y112.559 E34.98233
G1 X96.444 Y112.824 E35.20939
G1 X95.928 Y113.115 E35.43037
G1 X95.442 Y113.429 E35.6462
G1 X94.971 Y113.776 E35.86442
G1 X94.511 Y114.159 E36.0877
G1 X94.069 Y114.573 E36.31361
G1 X93.674 Y114.993 E36.52868
G1 X93.294 Y115.448 E36.74981
G1 X92.933 Y115.936 E36.97623
G1 X92.613 Y116.432 E37.19641
G1 X92.328 Y116.936 E37.41239
G1 X92.072 Y117.463 E37.63094
G1 X91.838 Y118.028 E37.85906
G1 X91.655 Y118.555 E38.06715
G1 X91.491 Y119.14 E38.29378
G1 X91.363 Y119.723 E38.51643
G1 X91.265 Y120.353 E38.75426
G1 X91.219 Y120.895 E38.95716
G1 X91.201 Y121.488 E39.17847
G1 X91.218 Y122.089 E39.40274
G1 X91.267 Y122.632 E39.60611
G1 X91.36 Y123.265 E39.84477
G1 X91.485 Y123.843 E40.06536
G1 X91.648 Y124.431 E40.29297
G1 X91.833 Y124.958 E40.50131
G1 X92.059 Y125.508 E40.72311
G1 X92.323 Y126.054 E40.94934
G1 X92.613 Y126.568 E41.16948
G1 X92.925 Y127.052 E41.38429
G1 X93.276 Y127.528 E41.6049
G1 X93.656 Y127.985 E41.8266
G1 X94.069 Y128.427 E42.05225
G1 X94.491 Y128.824 E42.26837
G1 X94.946 Y129.205 E42.48974
G1 X95.43 Y129.563 E42.7143
G1 X95.928 Y129.885 E42.93552
G1 X96.432 Y130.17 E43.15149
G1 X96.963 Y130.428 E43.37171
G1 X97.524 Y130.66 E43.59816
G1 X98.055 Y130.845 E43.80791
G1 X98.64 Y131.009 E44.03454
G1 X99.223 Y131.137 E44.25719
G1 X99.853 Y131.235 E44.49502
G1 X100.395 Y131.281 E44.69792
G1 X100.986 Y131.299 E44.91848
G1 X101.589 Y131.282 E45.1435
G0 F6000 X101.788 Y131.265
G1 F1500 E44.1435
G1 F600 Z1.3
G0 F6000 X108.775 Y126.146 Z1.3
;TYPE:FILL
G1 F600 Z0.3
G1 F1500 E45.29893
G1 F2400 X96.353 Y113.724 E51.85189
G1 X96.781 Y113.483 E52.03511
G1 X97.293 Y113.235 E52.24733
G1 X97.796 Y113.029 E52.45008
G1 X98.292 Y112.855 E52.64615
G1 X98.835 Y112.705 E52.85629
G1 X99.362 Y112.59 E53.05749
G1 X100.158 Y112.471 E53.35772
G1 X110.032 Y122.346 E58.5668
G1 X109.908 Y123.146 E58.86878
G1 X109.792 Y123.675 E59.0708
G1 X109.636 Y124.229 E59.28549
G1 X109.472 Y124.704 E59.47294
G1 X109.256 Y125.228 E59.68435
G1 X109.018 Y125.717 E59.88722
G1 X108.757 Y126.179 E60.08515
G1 X108.541 Y126.512 E60.23321
G1 X95.981 Y113.952 E66.85898
G1 X95.432 Y114.355 E67.11301
G1 X94.996 Y114.718 E67.32464
G1 X94.588 Y115.102 E67.53364
G1 X94.232 Y115.479 E67.72706
G1 X93.873 Y115.91 E67.93629
G1 X93.453 Y116.48 E68.2004
G1 X106.012 Y129.04 E74.8259
G1 X105.646 Y129.273 E74.98775
G1 X93.224 Y116.851 E81.54071
G1 X92.986 Y117.275 E81.72209
G1 X92.744 Y117.772 E81.92829
G1 X92.528 Y118.296 E82.1397
G1 X92.364 Y118.771 E82.32715
G1 X92.208 Y119.325 E82.54184
G1 X92.092 Y119.854 E82.74386
G1 X91.967 Y120.651 E83.04479
G1 X101.849 Y130.534 E88.25809
G1 X101.266 Y130.55 E88.47565
G1 X91.933 Y121.217 E93.39907
G1 X91.966 Y122.347 E93.82077
G1 X101.847 Y112.466 E99.03328
G1 X102.647 Y112.592 E99.33537
G1 X103.175 Y112.708 E99.53703
G1 X103.729 Y112.864 E99.75172
G1 X104.218 Y113.034 E99.94483
G1 X104.736 Y113.248 E100.15389
G1 X105.214 Y113.48 E100.35209
G1 X105.647 Y113.723 E100.5373
G1 X93.225 Y126.145 E107.09027
G1 X93.459 Y126.512 E107.25263
G1 X106.018 Y113.952 E113.87813
G1 X106.59 Y114.373 E114.14306
G1 X107.021 Y114.732 E114.3523
G1 X107.398 Y115.088 E114.54571
G1 X107.782 Y115.496 E114.75471
G1 X108.137 Y115.923 E114.96185
G1 X108.548 Y116.479 E115.21976
G1 X95.986 Y129.041 E121.84658
G1 X96.353 Y129.274 E122.00874
G1 X108.774 Y116.852 E128.56144
G1 X109.017 Y117.281 E128.74535
G1 X109.262 Y117.785 E128.95439
G1 X109.472 Y118.296 E129.16047
G1 X109.643 Y118.785 E129.35371
G1 X109.797 Y119.336 E129.56712
G1 X109.91 Y119.86 E129.76708
G1 X110.027 Y120.657 E130.06756
G1 X100.153 Y130.531 E135.27638
G1 X100.733 Y130.551 E135.49286
G1 X110.05 Y121.234 E140.40785
G1 X110.051 Y121.765 E140.60592
G1 X100.735 Y112.449 E145.52039
G1 X101.266 Y112.448 E145.71846
G1 X91.949 Y121.765 E150.63345
G1 X91.879 Y121.835
G1 F1500 E149.63345
G1 F600 Z1.3
;MESH:NONMESH
G0 F6000 X101.565 Y130.882 Z1.3
;TIME_ELAPSED:19.179028
;LAYER:1
;MESH:Sajad.stl
G0 X101.565 Y130.882 Z1.6
;TYPE:WALL-INNER
G1 F600 Z0.6
G1 F1500 E150.78887
G1 F1800 X102.085 Y130.835 E150.98363
G1 X102.692 Y130.746 E151.21248
G1 X103.252 Y130.625 E151.42619
G1 X103.825 Y130.466 E151.648
G1 X104.333 Y130.287 E151.84892
G1 X104.861 Y130.069 E152.062
G1 X105.37 Y129.823 E152.27288
G1 X105.865 Y129.543 E152.48502
G1 X106.342 Y129.234 E152.69702
G1 X106.794 Y128.9 E152.90666
G1 X107.234 Y128.532 E153.12063
G1 X107.648 Y128.144 E153.33228
G1 X108.036 Y127.731 E153.54365
G1 X108.4 Y127.294 E153.75581
G1 X108.738 Y126.836 E153.96813
G1 X109.045 Y126.361 E154.17911
G1 X109.325 Y125.866 E154.39124
G1 X109.569 Y125.361 E154.60045
G1 X109.788 Y124.831 E154.81437
G1 X109.963 Y124.325 E155.01408
G1 X110.127 Y123.745 E155.23892
G1 X110.246 Y123.192 E155.44992
G1 X110.339 Y122.585 E155.67898
G1 X110.382 Y122.067 E155.87287
G1 X110.399 Y121.498 E156.08522
G1 X110.382 Y120.93 E156.29719
G1 X110.335 Y120.415 E156.49009
G1 X110.246 Y119.806 E156.71967
G1 X110.125 Y119.248 E156.93265
G1 X109.966 Y118.675 E157.15447
G1 X109.787 Y118.167 E157.35538
G1 X109.569 Y117.639 E157.56846
G1 X109.323 Y117.13 E157.77934
G1 X109.043 Y116.635 E157.99148
G1 X108.734 Y116.158 E158.20348
G1 X108.4 Y115.706 E158.41313
G1 X108.032 Y115.266 E158.62709
G1 X107.644 Y114.852 E158.83874
G1 X107.231 Y114.464 E159.05012
G1 X106.794 Y114.1 E159.26227
G1 X106.336 Y113.762 E159.4746
G1 X105.861 Y113.455 E159.68557
G1 X105.366 Y113.175 E159.89771
G1 X104.861 Y112.931 E160.10692
G1 X104.335 Y112.714 E160.31917
G1 X103.825 Y112.537 E160.52054
G1 X103.25 Y112.375 E160.74338
G1 X102.69 Y112.254 E160.95709
G1 X102.085 Y112.161 E161.18541
G1 X101.567 Y112.118 E161.3793
G1 X101 Y112.101 E161.5909
G1 X100.435 Y112.118 E161.80175
G1 X99.915 Y112.165 E161.99651
G1 X99.308 Y112.254 E162.22536
G1 X98.748 Y112.375 E162.43907
G1 X98.175 Y112.534 E162.66088
G1 X97.667 Y112.713 E162.8618
G1 X97.139 Y112.931 E163.07488
G1 X96.63 Y113.177 E163.28576
G1 X96.135 Y113.457 E163.4979
G1 X95.658 Y113.766 E163.7099
G1 X95.206 Y114.1 E163.91954
G1 X94.766 Y114.468 E164.13351
G1 X94.352 Y114.856 E164.34516
G1 X93.964 Y115.269 E164.55653
G1 X93.6 Y115.706 E164.76868
G1 X93.262 Y116.164 E164.98101
G1 X92.955 Y116.639 E165.19198
G1 X92.675 Y117.134 E165.40412
G1 X92.431 Y117.639 E165.61333
G1 X92.212 Y118.169 E165.82725
G1 X92.037 Y118.675 E166.02696
G1 X91.873 Y119.255 E166.2518
G1 X91.754 Y119.808 E166.4628
G1 X91.661 Y120.415 E166.69186
G1 X91.618 Y120.933 E166.88575
G1 X91.601 Y121.501 E167.09772
G1 X91.618 Y122.065 E167.3082
G1 X91.665 Y122.585 E167.50296
G1 X91.754 Y123.194 E167.73254
G1 X91.873 Y123.747 E167.94354
G1 X92.034 Y124.325 E168.16736
G1 X92.211 Y124.829 E168.36662
G1 X92.431 Y125.361 E168.58136
G1 X92.675 Y125.866 E168.79057
G1 X92.955 Y126.361 E169.00271
G1 X93.262 Y126.836 E169.21368
G1 X93.6 Y127.294 E169.42601
G1 X93.964 Y127.731 E169.63816
G1 X94.352 Y128.144 E169.84954
G1 X94.766 Y128.532 E170.06119
G1 X95.206 Y128.9 E170.27516
G1 X95.658 Y129.234 E170.4848
G1 X96.136 Y129.543 E170.69711
G1 X96.63 Y129.823 E170.90893
G1 X97.139 Y130.069 E171.1198
G1 X97.665 Y130.286 E171.33205
G1 X98.175 Y130.463 E171.53342
G1 X98.75 Y130.625 E171.75626
G1 X99.31 Y130.746 E171.96997
G1 X99.915 Y130.839 E172.1983
G1 X100.433 Y130.882 E172.39219
G1 X101 Y130.899 E172.60379
G1 X101.565 Y130.882 E172.81464
G0 F6000 X101.589 Y131.282
;TYPE:WALL-OUTER
G1 F1800 X102.132 Y131.233 E173.01801
G1 X102.764 Y131.14 E173.2563
G1 X103.348 Y131.013 E173.47923
G1 X103.945 Y130.848 E173.71027
G1 X104.476 Y130.661 E173.92027
G1 X105.025 Y130.434 E174.14187
G1 X105.556 Y130.177 E174.36193
G1 X106.072 Y129.885 E174.58309
G1 X106.57 Y129.563 E174.8043
G1 X107.041 Y129.215 E175.02274
G1 X107.5 Y128.832 E175.24574
G1 X107.931 Y128.427 E175.46635
G1 X108.336 Y127.996 E175.68696
G1 X108.715 Y127.541 E175.90786
G1 X109.067 Y127.064 E176.12899
G1 X109.387 Y126.568 E176.34917
G1 X109.679 Y126.052 E176.57033
G1 X109.934 Y125.525 E176.78871
G1 X110.162 Y124.973 E177.01149
G1 X110.345 Y124.445 E177.21994
G1 X110.515 Y123.842 E177.45364
G1 X110.64 Y123.264 E177.67423
G1 X110.737 Y122.632 E177.91274
G1 X110.782 Y122.089 E178.11598
G1 X110.799 Y121.498 E178.33653
G1 X110.782 Y120.906 E178.55745
G1 X110.733 Y120.368 E178.75896
G1 X110.64 Y119.734 E178.99799
G1 X110.513 Y119.152 E179.22019
G1 X110.348 Y118.555 E179.45124
G1 X110.161 Y118.024 E179.66123
G1 X109.934 Y117.475 E179.88284
G1 X109.677 Y116.944 E180.10289
G1 X109.385 Y116.428 E180.32405
G1 X109.063 Y115.93 E180.54526
G1 X108.715 Y115.459 E180.76371
G1 X108.332 Y115 E180.9867
G1 X107.927 Y114.569 E181.20731
G1 X107.496 Y114.164 E181.42793
G1 X107.041 Y113.785 E181.64882
G1 X106.564 Y113.433 E181.86995
G1 X106.068 Y113.113 E182.09013
G1 X105.552 Y112.821 E182.31129
G1 X105.025 Y112.566 E182.52968
G1 X104.477 Y112.34 E182.75079
G1 X103.945 Y112.155 E182.9609
G1 X103.347 Y111.987 E183.1926
G1 X102.763 Y111.86 E183.41553
G1 X102.132 Y111.763 E183.65367
G1 X101.589 Y111.718 E183.85692
G1 X101 Y111.701 E184.07672
G1 X100.411 Y111.718 E184.29652
G1 X99.868 Y111.767 E184.49989
G1 X99.236 Y111.86 E184.73817
G1 X98.652 Y111.987 E184.96111
G1 X98.055 Y112.152 E185.19215
G1 X97.524 Y112.339 E185.40215
G1 X96.975 Y112.566 E185.62375
G1 X96.444 Y112.823 E185.8438
G1 X95.928 Y113.115 E186.06496
G1 X95.43 Y113.437 E186.28618
G1 X94.959 Y113.785 E186.50462
G1 X94.5 Y114.168 E186.72762
G1 X94.069 Y114.573 E186.94823
G1 X93.664 Y115.004 E187.16884
G1 X93.285 Y115.459 E187.38973
G1 X92.933 Y115.936 E187.61087
G1 X92.613 Y116.432 E187.83105
G1 X92.321 Y116.948 E188.05221
G1 X92.066 Y117.475 E188.27059
G1 X91.838 Y118.027 E188.49337
G1 X91.655 Y118.555 E188.70182
G1 X91.485 Y119.158 E188.93552
G1 X91.36 Y119.736 E189.15611
G1 X91.263 Y120.368 E189.39462
G1 X91.218 Y120.911 E189.59786
G1 X91.201 Y121.501 E189.81803
G1 X91.218 Y122.089 E190.03746
G1 X91.267 Y122.632 E190.24083
G1 X91.36 Y123.265 E190.47949
G1 X91.485 Y123.843 E190.70008
G1 X91.652 Y124.445 E190.93312
G1 X91.837 Y124.972 E191.14146
G1 X92.066 Y125.525 E191.36473
G1 X92.321 Y126.052 E191.58311
G1 X92.613 Y126.568 E191.80427
G1 X92.933 Y127.064 E192.02445
G1 X93.285 Y127.541 E192.24559
G1 X93.664 Y127.996 E192.46648
G1 X94.069 Y128.427 E192.68709
G1 X94.5 Y128.832 E192.9077
G1 X94.959 Y129.215 E193.1307
G1 X95.43 Y129.563 E193.34914
G1 X95.928 Y129.885 E193.57036
G1 X96.444 Y130.177 E193.79152
G1 X96.975 Y130.434 E194.01157
G1 X97.523 Y130.66 E194.23268
G1 X98.055 Y130.845 E194.44279
G1 X98.653 Y131.013 E194.67449
G1 X99.237 Y131.14 E194.89742
G1 X99.868 Y131.237 E195.13556
G1 X100.411 Y131.282 E195.33881
