;FLAVOR:Marlin
;TIME:371
;Filament used: 3.54373m, 0m
;Layer height: 0.3
;MINX:91.201
;MINY:111.701
;MINZ:0.3
;MAXX:110.799
;MAXY:131.299
;MAXZ:7
;Generated with Cura_SteamEngine 5.0.1
T0
M140 S40
M105
M190 S40
M104 S200
M105
M109 S200
M82 ;absolute extrusion mode
M900 K0.020;
G28 ; home all axes
G1 Z5 F5000 ; lift nozzle
G1 X-45 Y70 F2500; go to glycerin roller;
G92 E0
G1 X-23 F5000; park to start
G92 E0; Extrude a small amount to clear nozzle
G1 E20 F4000
G4 P2000
G92 E0


G92 E0
G1 F1500 E-1
;LAYER_COUNT:20
;LAYER:0
M107
M204 S500
G1 F600 Z1.3
;MESH:Sajad.stl
G0 F6000 X101.565 Y130.882 Z1.3
;TYPE:WALL-INNER
G1 F600 Z0.3
G1 F1500 E0.15542
G1 F1800 X102.085 Y130.835 E0.35019
G1 X102.692 Y130.746 E0.57903
G1 X103.252 Y130.625 E0.79274
G1 X103.811 Y130.47 E1.00913
G1 X104.32 Y130.291 E1.21039
G1 X104.845 Y130.075 E1.42215
G1 X105.37 Y129.821 E1.6397
G1 X105.865 Y129.543 E1.85148
G1 X106.33 Y129.242 E2.0581
G1 X106.782 Y128.909 E2.26752
G1 X107.224 Y128.541 E2.48206
G1 X107.648 Y128.144 E2.69873
G1 X108.026 Y127.741 E2.90483
G1 X108.392 Y127.304 E3.11746
G1 X108.738 Y126.836 E3.33456
G1 X109.045 Y126.361 E3.54553
G1 X109.318 Y125.878 E3.75249
G1 X109.563 Y125.373 E3.96186
G1 X109.788 Y124.83 E4.18111
G1 X109.963 Y124.325 E4.38048
G1 X110.121 Y123.763 E4.59824
G1 X110.243 Y123.203 E4.81203
G1 X110.337 Y122.599 E5.04005
G1 X110.381 Y122.082 E5.2336
G1 X110.399 Y121.512 E5.44632
G1 X110.382 Y120.929 E5.66389
G1 X110.335 Y120.415 E5.85642
G1 X110.246 Y119.806 E6.086
G1 X110.125 Y119.248 E6.29898
G1 X109.97 Y118.689 E6.51537
G1 X109.792 Y118.18 E6.71651
G1 X109.574 Y117.653 E6.92925
G1 X109.322 Y117.13 E7.1458
G1 X109.043 Y116.635 E7.35775
G1 X108.742 Y116.17 E7.56438
G1 X108.409 Y115.718 E7.7738
G1 X108.041 Y115.276 E7.98834
G1 X107.644 Y114.852 E8.205
G1 X107.241 Y114.474 E8.41111
G1 X106.804 Y114.108 E8.62374
G1 X106.336 Y113.762 E8.84084
G1 X105.861 Y113.455 E9.05181
G1 X105.378 Y113.182 E9.25877
G1 X104.874 Y112.937 E9.46781
G1 X104.334 Y112.714 E9.68574
G1 X103.825 Y112.537 E9.88676
G1 X103.263 Y112.379 E10.10452
G1 X102.703 Y112.257 E10.31831
G1 X102.099 Y112.163 E10.54633
G1 X101.582 Y112.119 E10.73987
G1 X101.014 Y112.101 E10.95186
G1 X100.435 Y112.118 E11.16793
G1 X99.915 Y112.165 E11.36269
G1 X99.308 Y112.254 E11.59153
G1 X98.748 Y112.375 E11.80524
G1 X98.189 Y112.53 E12.02163
G1 X97.68 Y112.709 E12.22289
G1 X97.155 Y112.924 E12.43451
G1 X96.63 Y113.179 E12.65223
G1 X96.135 Y113.457 E12.864
G1 X95.67 Y113.758 E13.07062
G1 X95.218 Y114.091 E13.28004
G1 X94.776 Y114.459 E13.49458
G1 X94.352 Y114.856 E13.71125
G1 X93.974 Y115.259 E13.91736
G1 X93.608 Y115.696 E14.12998
G1 X93.262 Y116.164 E14.34709
G1 X92.955 Y116.639 E14.55806
G1 X92.682 Y117.122 E14.76501
G1 X92.437 Y117.627 E14.97439
G1 X92.212 Y118.17 E15.19364
G1 X92.037 Y118.675 E15.393
G1 X91.879 Y119.237 E15.61077
G1 X91.757 Y119.797 E15.82456
G1 X91.663 Y120.401 E16.05257
G1 X91.619 Y120.918 E16.24612
G1 X91.601 Y121.488 E16.45885
G1 X91.618 Y122.065 E16.67417
G1 X91.665 Y122.585 E16.86893
G1 X91.754 Y123.194 E17.09851
G1 X91.873 Y123.747 E17.30952
G1 X92.03 Y124.311 E17.5279
G1 X92.207 Y124.816 E17.72751
G1 X92.424 Y125.344 E17.94045
G1 X92.678 Y125.868 E18.15766
G1 X92.955 Y126.361 E18.3686
G1 X93.255 Y126.825 E18.57471
G1 X93.591 Y127.282 E18.78629
G1 X93.956 Y127.72 E18.99897
G1 X94.352 Y128.144 E19.21538
G1 X94.757 Y128.525 E19.4228
G1 X95.194 Y128.891 E19.63543
G1 X95.658 Y129.234 E19.85067
G1 X96.136 Y129.543 E20.06298
G1 X96.618 Y129.816 E20.26961
G1 X97.127 Y130.063 E20.48065
G1 X97.666 Y130.286 E20.69824
G1 X98.175 Y130.463 E20.89926
G1 X98.737 Y130.621 E21.11702
G1 X99.297 Y130.743 E21.33081
G1 X99.901 Y130.837 E21.55883
G1 X100.418 Y130.881 E21.75238
G1 X100.986 Y130.899 E21.96436
G1 X101.565 Y130.882 E22.18043
G0 F6000 X101.589 Y131.282
;TYPE:WALL-OUTER
G1 F1800 X102.132 Y131.233 E22.3838
G1 X102.764 Y131.14 E22.62209
G1 X103.348 Y131.013 E22.84502
G1 X103.931 Y130.852 E23.07064
G1 X104.462 Y130.665 E23.28063
G1 X105.008 Y130.441 E23.50077
G1 X105.556 Y130.176 E23.72784
G1 X106.072 Y129.885 E23.94881
G1 X106.558 Y129.571 E24.16465
G1 X107.029 Y129.224 E24.38287
G1 X107.489 Y128.841 E24.60615
G1 X107.931 Y128.427 E24.83205
G1 X108.326 Y128.007 E25.04712
G1 X108.706 Y127.552 E25.26825
G1 X109.067 Y127.064 E25.49468
G1 X109.387 Y126.568 E25.71486
G1 X109.672 Y126.064 E25.93084
G1 X109.928 Y125.537 E26.14939
G1 X110.162 Y124.972 E26.3775
G1 X110.345 Y124.445 E26.5856
G1 X110.509 Y123.86 E26.81223
G1 X110.637 Y123.277 E27.03488
G1 X110.735 Y122.647 E27.27271
G1 X110.781 Y122.105 E27.47561
G1 X110.799 Y121.512 E27.69691
G1 X110.782 Y120.905 E27.92342
G1 X110.733 Y120.368 E28.12457
G1 X110.64 Y119.734 E28.36359
G1 X110.513 Y119.152 E28.5858
G1 X110.352 Y118.569 E28.81141
G1 X110.166 Y118.038 E29.02128
G1 X109.94 Y117.489 E29.24274
G1 X109.676 Y116.944 E29.46863
G1 X109.385 Y116.428 E29.68961
G1 X109.071 Y115.942 E29.90544
G1 X108.724 Y115.471 E30.12367
G1 X108.341 Y115.011 E30.34695
G1 X107.927 Y114.569 E30.57285
G1 X107.507 Y114.174 E30.78792
G1 X107.052 Y113.794 E31.00905
G1 X106.564 Y113.433 E31.23548
G1 X106.068 Y113.113 E31.45566
G1 X105.564 Y112.828 E31.67164
G1 X105.038 Y112.572 E31.88985
G1 X104.476 Y112.34 E32.11665
G1 X103.945 Y112.155 E32.3264
G1 X103.36 Y111.991 E32.55303
G1 X102.777 Y111.863 E32.77568
G1 X102.147 Y111.765 E33.0135
G1 X101.605 Y111.719 E33.21641
G1 X101.014 Y111.701 E33.43696
G1 X100.411 Y111.718 E33.66198
G1 X99.868 Y111.767 E33.86536
G1 X99.236 Y111.86 E34.10364
G1 X98.652 Y111.987 E34.32658
G1 X98.069 Y112.148 E34.55219
G1 X97.538 Y112.335 E34.76219
G1 X96.992 Y112.559 E34.98233
G1 X96.444 Y112.824 E35.20939
G1 X95.928 Y113.115 E35.43037
G1 X95.442 Y113.429 E35.6462
G1 X94.971 Y113.776 E35.86442
G1 X94.511 Y114.159 E36.0877
G1 X94.069 Y114.573 E36.31361
G1 X93.674 Y114.993 E36.52868
G1 X93.294 Y115.448 E36.74981
G1 X92.933 Y115.936 E36.97623
G1 X92.613 Y116.432 E37.19641
G1 X92.328 Y116.936 E37.41239
G1 X92.072 Y117.463 E37.63094
G1 X91.838 Y118.028 E37.85906
G1 X91.655 Y118.555 E38.06715
G1 X91.491 Y119.14 E38.29378
G1 X91.363 Y119.723 E38.51643
G1 X91.265 Y120.353 E38.75426
G1 X91.219 Y120.895 E38.95716
G1 X91.201 Y121.488 E39.17847
G1 X91.218 Y122.089 E39.40274
G1 X91.267 Y122.632 E39.60611
G1 X91.36 Y123.265 E39.84477
G1 X91.485 Y123.843 E40.06536
G1 X91.648 Y124.431 E40.29297
G1 X91.833 Y124.958 E40.50131
G1 X92.059 Y125.508 E40.72311
G1 X92.323 Y126.054 E40.94934
G1 X92.613 Y126.568 E41.16948
G1 X92.925 Y127.052 E41.38429
G1 X93.276 Y127.528 E41.6049
G1 X93.656 Y127.985 E41.8266
G1 X94.069 Y128.427 E42.05225
G1 X94.491 Y128.824 E42.26837
G1 X94.946 Y129.205 E42.48974
G1 X95.43 Y129.563 E42.7143
G1 X95.928 Y129.885 E42.93552
G1 X96.432 Y130.17 E43.15149
G1 X96.963 Y130.428 E43.37171
G1 X97.524 Y130.66 E43.59816
G1 X98.055 Y130.845 E43.80791
G1 X98.64 Y131.009 E44.03454
G1 X99.223 Y131.137 E44.25719
G1 X99.853 Y131.235 E44.49502
G1 X100.395 Y131.281 E44.69792
G1 X100.986 Y131.299 E44.91848
G1 X101.589 Y131.282 E45.1435
G0 F6000 X101.788 Y131.265
G1 F1500 E44.1435
G1 F600 Z1.3
G0 F6000 X95.245 Y128.49 Z1.3
;TYPE:FILL
G1 F600 Z0.3
G1 F1500 E45.29893
G1 F2400 X107.999 Y115.736 E52.02703
G1 X108.458 Y116.358 E52.31538
G1 X108.84 Y116.948 E52.57757
G1 X96.448 Y129.34 E59.11471
G1 X95.851 Y128.953 E59.3801
G1 X95.4 Y128.62 E59.58922
G1 X94.987 Y128.274 E59.79019
G1 X94.594 Y127.904 E59.99154
G1 X93.997 Y127.266 E60.31747
G1 X106.762 Y114.5 E67.05164
G1 X106.141 Y114.042 E67.33947
G1 X105.55 Y113.66 E67.60197
G1 X93.167 Y126.042 E74.1341
G1 X92.981 Y125.714 E74.27475
G1 X92.732 Y125.2 E74.48779
G1 X92.493 Y124.606 E74.72663
G1 X97.89 Y130.002 E77.57344
G1 X98.163 Y130.097 E77.68127
G1 X109.599 Y118.661 E83.71409
G1 X109.506 Y118.391 E83.82061
G1 X104.11 Y112.995 E86.66716
G1 X103.837 Y112.9 E86.77498
G1 X92.4 Y124.337 E92.80833
G1 X92.224 Y123.737 E93.04157
G1 X98.76 Y130.273 E96.4895
G1 X99.353 Y130.408 E96.71636
G1 X99.832 Y130.482 E96.89716
G1 X109.979 Y120.334 E102.25026
G1 X109.91 Y119.86 E102.42894
G1 X109.776 Y119.261 E102.6579
G1 X103.24 Y112.725 E106.10583
G1 X102.647 Y112.592 E106.33252
G1 X102.168 Y112.516 E106.51343
G1 X92.02 Y122.664 E111.8668
G1 X91.964 Y122.288 E112.0086
G1 X91.941 Y121.494 E112.3049
G1 X91.968 Y120.646 E112.62138
G1 X92.042 Y120.169 E112.80144
G1 X99.669 Y112.543 E116.82464
G1 X99.211 Y112.622 E116.99801
G1 X109.877 Y123.288 E122.62463
G1 X109.957 Y122.829 E122.79843
G1 X102.332 Y130.454 E126.82084
G1 X102.788 Y130.375 E126.99347
G1 X92.123 Y119.71 E132.61957
G1 X92.235 Y119.223 E132.80597
G1 X103.275 Y130.263 E138.62989
G1 X103.708 Y130.145 E138.7973
G1 X104.204 Y129.971 E138.99337
G1 X104.707 Y129.765 E139.19613
G1 X105.421 Y129.419 E139.49209
G1 X108.919 Y125.92 E141.33765
G1 X109.256 Y125.228 E141.62476
G1 X109.472 Y124.704 E141.83618
G1 X109.636 Y124.229 E142.02362
G1 X109.764 Y123.774 E142.19994
G1 X98.724 Y112.735 E148.02359
G1 X98.292 Y112.855 E148.19084
G1 X97.796 Y113.029 E148.38691
G1 X97.293 Y113.235 E148.58967
G1 X96.575 Y113.583 E148.88729
G1 X93.117 Y117.041 E150.71149
G1 X93.445 Y116.507 E150.94526
G1 X105.992 Y129.054 E157.56416
G1 X106.345 Y128.807 E157.72487
G1 X93.68 Y116.142 E164.40603
G1 X94.232 Y115.479 E164.72784
G1 X94.588 Y115.102 E164.92126
G1 X94.996 Y114.718 E165.13025
G1 X95.643 Y114.179 E165.44437
G1 X108.308 Y126.844 E172.12553
G1 X108.555 Y126.491 E172.28624
G1 X96.008 Y113.944 E178.90515
G1 X96.317 Y113.745 E179.04224
G1 X96.401 Y113.691
G1 F1500 E178.04224
G1 F600 Z1.3
;MESH:NONMESH
G0 F6000 X101.565 Y130.882 Z1.3
;TIME_ELAPSED:21.647026
;LAYER:1
;MESH:Sajad.stl
G0 X101.565 Y130.882 Z1.6
;TYPE:WALL-INNER
G1 F600 Z0.6
G1 F1500 E179.19767
G1 F1800 X102.085 Y130.835 E179.39243
G1 X102.692 Y130.746 E179.62127
G1 X103.252 Y130.625 E179.83499
G1 X103.825 Y130.466 E180.0568
G1 X104.333 Y130.287 E180.25772
G1 X104.861 Y130.069 E180.4708
G1 X105.37 Y129.823 E180.68168
G1 X105.865 Y129.543 E180.89381
G1 X106.342 Y129.234 E181.10581
G1 X106.794 Y128.9 E181.31546
G1 X107.234 Y128.532 E181.52942
G1 X107.648 Y128.144 E181.74107
G1 X108.036 Y127.731 E181.95245
G1 X108.4 Y127.294 E182.1646
G1 X108.738 Y126.836 E182.37693
G1 X109.045 Y126.361 E182.5879
G1 X109.325 Y125.866 E182.80004
G1 X109.569 Y125.361 E183.00925
G1 X109.788 Y124.831 E183.22316
G1 X109.963 Y124.325 E183.42288
G1 X110.127 Y123.745 E183.64771
G1 X110.246 Y123.192 E183.85872
G1 X110.339 Y122.585 E184.08778
G1 X110.382 Y122.067 E184.28167
G1 X110.399 Y121.498 E184.49401
G1 X110.382 Y120.93 E184.70598
G1 X110.335 Y120.415 E184.89889
G1 X110.246 Y119.806 E185.12847
G1 X110.125 Y119.248 E185.34145
G1 X109.966 Y118.675 E185.56327
G1 X109.787 Y118.167 E185.76418
G1 X109.569 Y117.639 E185.97726
G1 X109.323 Y117.13 E186.18814
G1 X109.043 Y116.635 E186.40028
G1 X108.734 Y116.158 E186.61228
G1 X108.4 Y115.706 E186.82192
G1 X108.032 Y115.266 E187.03589
G1 X107.644 Y114.852 E187.24754
G1 X107.231 Y114.464 E187.45892
G1 X106.794 Y114.1 E187.67107
G1 X106.336 Y113.762 E187.8834
G1 X105.861 Y113.455 E188.09437
G1 X105.366 Y113.175 E188.3065
G1 X104.861 Y112.931 E188.51572
G1 X104.335 Y112.714 E188.72796
G1 X103.825 Y112.537 E188.92934
G1 X103.25 Y112.375 E189.15217
G1 X102.69 Y112.254 E189.36588
G1 X102.085 Y112.161 E189.59421
G1 X101.567 Y112.118 E189.7881
G1 X101 Y112.101 E189.9997
G1 X100.435 Y112.118 E190.21055
G1 X99.915 Y112.165 E190.40531
G1 X99.308 Y112.254 E190.63415
G1 X98.748 Y112.375 E190.84786
G1 X98.175 Y112.534 E191.06968
G1 X97.667 Y112.713 E191.27059
G1 X97.139 Y112.931 E191.48368
G1 X96.63 Y113.177 E191.69455
G1 X96.135 Y113.457 E191.90669
G1 X95.658 Y113.766 E192.11869
G1 X95.206 Y114.1 E192.32834
G1 X94.766 Y114.468 E192.5423
G1 X94.352 Y114.856 E192.75395
G1 X93.964 Y115.269 E192.96533
G1 X93.6 Y115.706 E193.17748
G1 X93.262 Y116.164 E193.38981
G1 X92.955 Y116.639 E193.60078
G1 X92.675 Y117.134 E193.81292
G1 X92.431 Y117.639 E194.02213
G1 X92.212 Y118.169 E194.23604
G1 X92.037 Y118.675 E194.43576
G1 X91.873 Y119.255 E194.66059
G1 X91.754 Y119.808 E194.8716
G1 X91.661 Y120.415 E195.10066
G1 X91.618 Y120.933 E195.29455
G1 X91.601 Y121.501 E195.50652
G1 X91.618 Y122.065 E195.717
G1 X91.665 Y122.585 E195.91176
G1 X91.754 Y123.194 E196.14134
G1 X91.873 Y123.747 E196.35234
G1 X92.034 Y124.325 E196.57615
G1 X92.211 Y124.829 E196.77541
G1 X92.431 Y125.361 E196.99016
G1 X92.675 Y125.866 E197.19937
G1 X92.955 Y126.361 E197.41151
G1 X93.262 Y126.836 E197.62248
G1 X93.6 Y127.294 E197.83481
G1 X93.964 Y127.731 E198.04696
G1 X94.352 Y128.144 E198.25834
G1 X94.766 Y128.532 E198.46999
G1 X95.206 Y128.9 E198.68395
G1 X95.658 Y129.234 E198.89359
G1 X96.136 Y129.543 E199.10591
G1 X96.63 Y129.823 E199.31772
G1 X97.139 Y130.069 E199.5286
G1 X97.665 Y130.286 E199.74085
G1 X98.175 Y130.463 E199.94222
G1 X98.75 Y130.625 E200.16506
G1 X99.31 Y130.746 E200.37877
G1 X99.915 Y130.839 E200.6071
G1 X100.433 Y130.882 E200.80099
G1 X101 Y130.899 E201.01258
G1 X101.565 Y130.882 E201.22343
G0 F6000 X101.589 Y131.282
;TYPE:WALL-OUTER
G1 F1800 X102.132 Y131.233 E201.42681
G1 X102.764 Y131.14 E201.66509
G1 X103.348 Y131.013 E201.88803
G1 X103.945 Y130.848 E202.11907
G1 X104.476 Y130.661 E202.32907
G1 X105.025 Y130.434 E202.55067
G1 X105.556 Y130.177 E202.77072
G1 X106.072 Y129.885 E202.99188
G1 X106.57 Y129.563 E203.2131
G1 X107.041 Y129.215 E203.43154
G1 X107.5 Y128.832 E203.65453
G1 X107.931 Y128.427 E203.87515
G1 X108.336 Y127.996 E204.09576
G1 X108.715 Y127.541 E204.31665
G1 X109.067 Y127.064 E204.53779
G1 X109.387 Y126.568 E204.75797
G1 X109.679 Y126.052 E204.97913
G1 X109.934 Y125.525 E205.19751
G1 X110.162 Y124.973 E205.42029
G1 X110.345 Y124.445 E205.62874
G1 X110.515 Y123.842 E205.86244
G1 X110.64 Y123.264 E206.08303
G1 X110.737 Y122.632 E206.32154
G1 X110.782 Y122.089 E206.52478
G1 X110.799 Y121.498 E206.74533
G1 X110.782 Y120.906 E206.96624
G1 X110.733 Y120.368 E207.16776
G1 X110.64 Y119.734 E207.40678
G1 X110.513 Y119.152 E207.62899
G1 X110.348 Y118.555 E207.86003
G1 X110.161 Y118.024 E208.07003
G1 X109.934 Y117.475 E208.29163
G1 X109.677 Y116.944 E208.51169
G1 X109.385 Y116.428 E208.73285
G1 X109.063 Y115.93 E208.95406
G1 X108.715 Y115.459 E209.1725
G1 X108.332 Y115 E209.3955
G1 X107.927 Y114.569 E209.61611
G1 X107.496 Y114.164 E209.83672
G1 X107.041 Y113.785 E210.05761
G1 X106.564 Y113.433 E210.27875
G1 X106.068 Y113.113 E210.49893
G1 X105.552 Y112.821 E210.72009
G1 X105.025 Y112.566 E210.93847
G1 X104.477 Y112.34 E211.15959
G1 X103.945 Y112.155 E211.36969
G1 X103.347 Y111.987 E211.60139
G1 X102.763 Y111.86 E211.82433
G1 X102.132 Y111.763 E212.06247
G1 X101.589 Y111.718 E212.26571
G1 X101 Y111.701 E212.48551
G1 X100.411 Y111.718 E212.70531
G1 X99.868 Y111.767 E212.90868
G1 X99.236 Y111.86 E213.14697
G1 X98.652 Y111.987 E213.36991
G1 X98.055 Y112.152 E213.60095
G1 X97.524 Y112.339 E213.81095
G1 X96.975 Y112.566 E214.03255
G1 X96.444 Y112.823 E214.2526
G1 X95.928 Y113.115 E214.47376
G1 X95.43 Y113.437 E214.69497
G1 X94.959 Y113.785 E214.91342
G1 X94.5 Y114.168 E215.13641
G1 X94.069 Y114.573 E215.35703
G1 X93.664 Y115.004 E215.57764
G1 X93.285 Y115.459 E215.79853
G1 X92.933 Y115.936 E216.01966
G1 X92.613 Y116.432 E216.23984
G1 X92.321 Y116.948 E216.461
G1 X92.066 Y117.475 E216.67939
G1 X91.838 Y118.027 E216.90217
G1 X91.655 Y118.555 E217.11062
G1 X91.485 Y119.158 E217.34432
G1 X91.36 Y119.736 E217.56491
G1 X91.263 Y120.368 E217.80341
G1 X91.218 Y120.911 E218.00666
G1 X91.201 Y121.501 E218.22683
G1 X91.218 Y122.089 E218.44626
G1 X91.267 Y122.632 E218.64963
G1 X91.36 Y123.265 E218.88829
G1 X91.485 Y123.843 E219.10888
G1 X91.652 Y124.445 E219.34191
G1 X91.837 Y124.972 E219.55026
G1 X92.066 Y125.525 E219.77352
G1 X92.321 Y126.052 E219.99191
G1 X92.613 Y126.568 E220.21307
G1 X92.933 Y127.064 E220.43325
G1 X93.285 Y127.541 E220.65438
G1 X93.664 Y127.996 E220.87527
G1 X94.069 Y128.427 E221.09589
G1 X94.5 Y128.832 E221.3165
G1 X94.959 Y129.215 E221.53949
G1 X95.43 Y129.563 E221.75794
G1 X95.928 Y129.885 E221.97915
G1 X96.444 Y130.177 E222.20031
G1 X96.975 Y130.434 E222.42036
G1 X97.523 Y130.66 E222.64148
G1 X98.055 Y130.845 E222.85158
G1 X98.653 Y131.013 E223.08328
G1 X99.237 Y131.14 E223.30622
