;FLAVOR:Marlin
;TIME:329
;Filament used: 3.05637m, 0m
;Layer height: 0.3
;MINX:91.201
;MINY:111.701
;MINZ:0.3
;MAXX:110.799
;MAXY:131.299
;MAXZ:7
;Generated with Cura_SteamEngine 5.0.1
T0
M140 S40
M105
M190 S40
M104 S200
M105
M109 S200
M82 ;absolute extrusion mode
M900 K0.020;
G28 ; home all axes
G1 Z5 F5000 ; lift nozzle
G1 X-45 Y70 F2500; go to glycerin roller;
G92 E0
G1 X-23 F5000; park to start
G92 E0; Extrude a small amount to clear nozzle
G1 E20 F4000
G4 P2000
G92 E0


G92 E0
G1 F1500 E-1
;LAYER_COUNT:20
;LAYER:0
M107
M204 S500
G1 F600 Z1.3
;MESH:Sajad.stl
G0 F6000 X101.565 Y130.882 Z1.3
;TYPE:WALL-INNER
G1 F600 Z0.3
G1 F1500 E0.15542
G1 F1800 X102.085 Y130.835 E0.35019
G1 X102.692 Y130.746 E0.57903
G1 X103.252 Y130.625 E0.79274
G1 X103.811 Y130.47 E1.00913
G1 X104.32 Y130.291 E1.21039
G1 X104.845 Y130.075 E1.42215
G1 X105.37 Y129.821 E1.6397
G1 X105.865 Y129.543 E1.85148
G1 X106.33 Y129.242 E2.0581
G1 X106.782 Y128.909 E2.26752
G1 X107.224 Y128.541 E2.48206
G1 X107.648 Y128.144 E2.69873
G1 X108.026 Y127.741 E2.90483
G1 X108.392 Y127.304 E3.11746
G1 X108.738 Y126.836 E3.33456
G1 X109.045 Y126.361 E3.54553
G1 X109.318 Y125.878 E3.75249
G1 X109.563 Y125.373 E3.96186
G1 X109.788 Y124.83 E4.18111
G1 X109.963 Y124.325 E4.38048
G1 X110.121 Y123.763 E4.59824
G1 X110.243 Y123.203 E4.81203
G1 X110.337 Y122.599 E5.04005
G1 X110.381 Y122.082 E5.2336
G1 X110.399 Y121.512 E5.44632
G1 X110.382 Y120.929 E5.66389
G1 X110.335 Y120.415 E5.85642
G1 X110.246 Y119.806 E6.086
G1 X110.125 Y119.248 E6.29898
G1 X109.97 Y118.689 E6.51537
G1 X109.792 Y118.18 E6.71651
G1 X109.574 Y117.653 E6.92925
G1 X109.322 Y117.13 E7.1458
G1 X109.043 Y116.635 E7.35775
G1 X108.742 Y116.17 E7.56438
G1 X108.409 Y115.718 E7.7738
G1 X108.041 Y115.276 E7.98834
G1 X107.644 Y114.852 E8.205
G1 X107.241 Y114.474 E8.41111
G1 X106.804 Y114.108 E8.62374
G1 X106.336 Y113.762 E8.84084
G1 X105.861 Y113.455 E9.05181
G1 X105.378 Y113.182 E9.25877
G1 X104.874 Y112.937 E9.46781
G1 X104.334 Y112.714 E9.68574
G1 X103.825 Y112.537 E9.88676
G1 X103.263 Y112.379 E10.10452
G1 X102.703 Y112.257 E10.31831
G1 X102.099 Y112.163 E10.54633
G1 X101.582 Y112.119 E10.73987
G1 X101.014 Y112.101 E10.95186
G1 X100.435 Y112.118 E11.16793
G1 X99.915 Y112.165 E11.36269
G1 X99.308 Y112.254 E11.59153
G1 X98.748 Y112.375 E11.80524
G1 X98.189 Y112.53 E12.02163
G1 X97.68 Y112.709 E12.22289
G1 X97.155 Y112.924 E12.43451
G1 X96.63 Y113.179 E12.65223
G1 X96.135 Y113.457 E12.864
G1 X95.67 Y113.758 E13.07062
G1 X95.218 Y114.091 E13.28004
G1 X94.776 Y114.459 E13.49458
G1 X94.352 Y114.856 E13.71125
G1 X93.974 Y115.259 E13.91736
G1 X93.608 Y115.696 E14.12998
G1 X93.262 Y116.164 E14.34709
G1 X92.955 Y116.639 E14.55806
G1 X92.682 Y117.122 E14.76501
G1 X92.437 Y117.627 E14.97439
G1 X92.212 Y118.17 E15.19364
G1 X92.037 Y118.675 E15.393
G1 X91.879 Y119.237 E15.61077
G1 X91.757 Y119.797 E15.82456
G1 X91.663 Y120.401 E16.05257
G1 X91.619 Y120.918 E16.24612
G1 X91.601 Y121.488 E16.45885
G1 X91.618 Y122.065 E16.67417
G1 X91.665 Y122.585 E16.86893
G1 X91.754 Y123.194 E17.09851
G1 X91.873 Y123.747 E17.30952
G1 X92.03 Y124.311 E17.5279
G1 X92.207 Y124.816 E17.72751
G1 X92.424 Y125.344 E17.94045
G1 X92.678 Y125.868 E18.15766
G1 X92.955 Y126.361 E18.3686
G1 X93.255 Y126.825 E18.57471
G1 X93.591 Y127.282 E18.78629
G1 X93.956 Y127.72 E18.99897
G1 X94.352 Y128.144 E19.21538
G1 X94.757 Y128.525 E19.4228
G1 X95.194 Y128.891 E19.63543
G1 X95.658 Y129.234 E19.85067
G1 X96.136 Y129.543 E20.06298
G1 X96.618 Y129.816 E20.26961
G1 X97.127 Y130.063 E20.48065
G1 X97.666 Y130.286 E20.69824
G1 X98.175 Y130.463 E20.89926
G1 X98.737 Y130.621 E21.11702
G1 X99.297 Y130.743 E21.33081
G1 X99.901 Y130.837 E21.55883
G1 X100.418 Y130.881 E21.75238
G1 X100.986 Y130.899 E21.96436
G1 X101.565 Y130.882 E22.18043
G0 F6000 X101.589 Y131.282
;TYPE:WALL-OUTER
G1 F1800 X102.132 Y131.233 E22.3838
G1 X102.764 Y131.14 E22.62209
G1 X103.348 Y131.013 E22.84502
G1 X103.931 Y130.852 E23.07064
G1 X104.462 Y130.665 E23.28063
G1 X105.008 Y130.441 E23.50077
G1 X105.556 Y130.176 E23.72784
G1 X106.072 Y129.885 E23.94881
G1 X106.558 Y129.571 E24.16465
G1 X107.029 Y129.224 E24.38287
G1 X107.489 Y128.841 E24.60615
G1 X107.931 Y128.427 E24.83205
G1 X108.326 Y128.007 E25.04712
G1 X108.706 Y127.552 E25.26825
G1 X109.067 Y127.064 E25.49468
G1 X109.387 Y126.568 E25.71486
G1 X109.672 Y126.064 E25.93084
G1 X109.928 Y125.537 E26.14939
G1 X110.162 Y124.972 E26.3775
G1 X110.345 Y124.445 E26.5856
G1 X110.509 Y123.86 E26.81223
G1 X110.637 Y123.277 E27.03488
G1 X110.735 Y122.647 E27.27271
G1 X110.781 Y122.105 E27.47561
G1 X110.799 Y121.512 E27.69691
G1 X110.782 Y120.905 E27.92342
G1 X110.733 Y120.368 E28.12457
G1 X110.64 Y119.734 E28.36359
G1 X110.513 Y119.152 E28.5858
G1 X110.352 Y118.569 E28.81141
G1 X110.166 Y118.038 E29.02128
G1 X109.94 Y117.489 E29.24274
G1 X109.676 Y116.944 E29.46863
G1 X109.385 Y116.428 E29.68961
G1 X109.071 Y115.942 E29.90544
G1 X108.724 Y115.471 E30.12367
G1 X108.341 Y115.011 E30.34695
G1 X107.927 Y114.569 E30.57285
G1 X107.507 Y114.174 E30.78792
G1 X107.052 Y113.794 E31.00905
G1 X106.564 Y113.433 E31.23548
G1 X106.068 Y113.113 E31.45566
G1 X105.564 Y112.828 E31.67164
G1 X105.038 Y112.572 E31.88985
G1 X104.476 Y112.34 E32.11665
G1 X103.945 Y112.155 E32.3264
G1 X103.36 Y111.991 E32.55303
G1 X102.777 Y111.863 E32.77568
G1 X102.147 Y111.765 E33.0135
G1 X101.605 Y111.719 E33.21641
G1 X101.014 Y111.701 E33.43696
G1 X100.411 Y111.718 E33.66198
G1 X99.868 Y111.767 E33.86536
G1 X99.236 Y111.86 E34.10364
G1 X98.652 Y111.987 E34.32658
G1 X98.069 Y112.148 E34.55219
G1 X97.538 Y112.335 E34.76219
G1 X96.992 Y112.559 E34.98233
G1 X96.444 Y112.824 E35.20939
G1 X95.928 Y113.115 E35.43037
G1 X95.442 Y113.429 E35.6462
G1 X94.971 Y113.776 E35.86442
G1 X94.511 Y114.159 E36.0877
G1 X94.069 Y114.573 E36.31361
G1 X93.674 Y114.993 E36.52868
G1 X93.294 Y115.448 E36.74981
G1 X92.933 Y115.936 E36.97623
G1 X92.613 Y116.432 E37.19641
G1 X92.328 Y116.936 E37.41239
G1 X92.072 Y117.463 E37.63094
G1 X91.838 Y118.028 E37.85906
G1 X91.655 Y118.555 E38.06715
G1 X91.491 Y119.14 E38.29378
G1 X91.363 Y119.723 E38.51643
G1 X91.265 Y120.353 E38.75426
G1 X91.219 Y120.895 E38.95716
G1 X91.201 Y121.488 E39.17847
G1 X91.218 Y122.089 E39.40274
G1 X91.267 Y122.632 E39.60611
G1 X91.36 Y123.265 E39.84477
G1 X91.485 Y123.843 E40.06536
G1 X91.648 Y124.431 E40.29297
G1 X91.833 Y124.958 E40.50131
G1 X92.059 Y125.508 E40.72311
G1 X92.323 Y126.054 E40.94934
G1 X92.613 Y126.568 E41.16948
G1 X92.925 Y127.052 E41.38429
G1 X93.276 Y127.528 E41.6049
G1 X93.656 Y127.985 E41.8266
G1 X94.069 Y128.427 E42.05225
G1 X94.491 Y128.824 E42.26837
G1 X94.946 Y129.205 E42.48974
G1 X95.43 Y129.563 E42.7143
G1 X95.928 Y129.885 E42.93552
G1 X96.432 Y130.17 E43.15149
G1 X96.963 Y130.428 E43.37171
G1 X97.524 Y130.66 E43.59816
G1 X98.055 Y130.845 E43.80791
G1 X98.64 Y131.009 E44.03454
G1 X99.223 Y131.137 E44.25719
G1 X99.853 Y131.235 E44.49502
G1 X100.395 Y131.281 E44.69792
G1 X100.986 Y131.299 E44.91848
G1 X101.589 Y131.282 E45.1435
G0 F6000 X101.788 Y131.265
G1 F1500 E44.1435
G1 F600 Z1.3
G0 F6000 X97.041 Y129.643 Z1.3
;TYPE:FILL
G1 F600 Z0.3
G1 F1500 E45.29893
G1 F2400 X109.157 Y117.528 E51.6902
G1 X109.472 Y118.296 E51.99984
G1 X109.643 Y118.785 E52.19308
G1 X109.905 Y119.721 E52.55565
G1 X99.223 Y130.404 E58.19098
G1 X98.271 Y130.136 E58.5599
G1 X97.782 Y129.966 E58.75301
G1 X97.265 Y129.752 E58.96173
G1 X96.78 Y129.517 E59.16276
G1 X96.313 Y129.252 E59.36305
G1 X95.851 Y128.953 E59.56833
G1 X95.372 Y128.597 E59.79095
G1 X108.096 Y115.874 E66.50297
G1 X107.782 Y115.496 E66.68627
G1 X107.398 Y115.088 E66.89527
G1 X107.021 Y114.732 E67.08869
G1 X106.626 Y114.402 E67.28069
G1 X93.904 Y127.124 E73.99191
G1 X93.531 Y126.626 E74.224
G1 X93.244 Y126.181 E74.42153
G1 X92.843 Y125.47 E74.72602
G1 X104.968 Y113.344 E81.12257
G1 X104.218 Y113.034 E81.42529
G1 X103.729 Y112.864 E81.61841
G1 X102.775 Y112.596 E81.98804
G1 X92.108 Y123.263 E87.61519
G1 X91.964 Y122.288 E87.98283
G1 X91.933 Y121.217 E88.3825
G1 X101.266 Y130.55 E93.30593
G1 X101.81 Y130.531 E93.50898
G1 X110.032 Y122.309 E97.84632
G1 X110.051 Y121.765 E98.04937
G1 X100.735 Y112.449 E102.96383
G1 X100.19 Y112.466 E103.16723
G1 X91.966 Y120.69 E107.50562
G1 X91.967 Y120.651 E107.52018
G1 X101.841 Y130.526 E112.72926
G1 X102.638 Y130.41 E113.02969
G1 X103.165 Y130.295 E113.2309
G1 X103.708 Y130.145 E113.44103
G1 X104.204 Y129.971 E113.63711
G1 X104.707 Y129.765 E113.83986
G1 X105.219 Y129.517 E114.05207
G1 X105.646 Y129.273 E114.23552
G1 X93.224 Y116.851 E120.78849
G1 X93.459 Y116.486 E120.95042
G1 X106.02 Y129.048 E127.57698
G1 X106.568 Y128.645 E127.83071
G1 X107.004 Y128.282 E128.04234
G1 X107.412 Y127.898 E128.25134
G1 X107.788 Y127.495 E128.45693
G1 X106.995 Y128.288 E128.87526
G1 X106.925 Y128.358
G1 F1500 E127.87526
G1 F600 Z1.3
G0 F6000 X108.775 Y126.146 Z1.3
G1 F600 Z0.3
G1 F1500 E129.03069
G1 F2400 X96.353 Y113.724 E135.58366
G1 X96.781 Y113.483 E135.76688
G1 X97.293 Y113.235 E135.97909
G1 X97.796 Y113.029 E136.18184
G1 X98.292 Y112.855 E136.37792
G1 X98.835 Y112.705 E136.58805
G1 X99.362 Y112.59 E136.78926
G1 X100.158 Y112.471 E137.08948
G1 X110.032 Y122.346 E142.29857
G1 X109.908 Y123.146 E142.60055
G1 X109.792 Y123.675 E142.80256
G1 X109.636 Y124.229 E143.01725
G1 X109.472 Y124.704 E143.2047
G1 X109.256 Y125.228 E143.41612
G1 X109.018 Y125.717 E143.61898
G1 X108.757 Y126.179 E143.81691
G1 X108.541 Y126.512 E143.96497
G1 X95.981 Y113.952 E150.59074
G1 X95.432 Y114.355 E150.84478
G1 X94.996 Y114.718 E151.0564
G1 X94.588 Y115.102 E151.2654
G1 X94.211 Y115.503 E151.47071
G1 X95.005 Y114.709 E151.88957
G1 X95.075 Y114.639
G1 F1500 E150.88957
G1 F600 Z1.3
;MESH:NONMESH
G0 F6000 X101.565 Y130.882 Z1.3
;TIME_ELAPSED:19.827103
;LAYER:1
;MESH:Sajad.stl
G0 X101.565 Y130.882 Z1.6
;TYPE:WALL-INNER
G1 F600 Z0.6
G1 F1500 E152.04499
G1 F1800 X102.085 Y130.835 E152.23975
G1 X102.692 Y130.746 E152.4686
G1 X103.252 Y130.625 E152.68231
G1 X103.825 Y130.466 E152.90412
G1 X104.333 Y130.287 E153.10504
G1 X104.861 Y130.069 E153.31812
G1 X105.37 Y129.823 E153.529
G1 X105.865 Y129.543 E153.74113
G1 X106.342 Y129.234 E153.95314
G1 X106.794 Y128.9 E154.16278
G1 X107.234 Y128.532 E154.37674
G1 X107.648 Y128.144 E154.58839
G1 X108.036 Y127.731 E154.79977
G1 X108.4 Y127.294 E155.01192
G1 X108.738 Y126.836 E155.22425
G1 X109.045 Y126.361 E155.43522
G1 X109.325 Y125.866 E155.64736
G1 X109.569 Y125.361 E155.85657
G1 X109.788 Y124.831 E156.07048
G1 X109.963 Y124.325 E156.2702
G1 X110.127 Y123.745 E156.49504
G1 X110.246 Y123.192 E156.70604
G1 X110.339 Y122.585 E156.9351
G1 X110.382 Y122.067 E157.12899
G1 X110.399 Y121.498 E157.34133
G1 X110.382 Y120.93 E157.5533
G1 X110.335 Y120.415 E157.74621
G1 X110.246 Y119.806 E157.97579
G1 X110.125 Y119.248 E158.18877
G1 X109.966 Y118.675 E158.41059
G1 X109.787 Y118.167 E158.6115
G1 X109.569 Y117.639 E158.82458
G1 X109.323 Y117.13 E159.03546
G1 X109.043 Y116.635 E159.2476
G1 X108.734 Y116.158 E159.4596
G1 X108.4 Y115.706 E159.66924
G1 X108.032 Y115.266 E159.88321
G1 X107.644 Y114.852 E160.09486
G1 X107.231 Y114.464 E160.30624
G1 X106.794 Y114.1 E160.51839
G1 X106.336 Y113.762 E160.73072
G1 X105.861 Y113.455 E160.94169
G1 X105.366 Y113.175 E161.15383
G1 X104.861 Y112.931 E161.36304
G1 X104.335 Y112.714 E161.57529
G1 X103.825 Y112.537 E161.77666
G1 X103.25 Y112.375 E161.99949
G1 X102.69 Y112.254 E162.21321
G1 X102.085 Y112.161 E162.44153
G1 X101.567 Y112.118 E162.63542
G1 X101 Y112.101 E162.84702
G1 X100.435 Y112.118 E163.05787
G1 X99.915 Y112.165 E163.25263
G1 X99.308 Y112.254 E163.48147
G1 X98.748 Y112.375 E163.69519
G1 X98.175 Y112.534 E163.917
G1 X97.667 Y112.713 E164.11792
G1 X97.139 Y112.931 E164.331
G1 X96.63 Y113.177 E164.54188
G1 X96.135 Y113.457 E164.75401
G1 X95.658 Y113.766 E164.96601
G1 X95.206 Y114.1 E165.17566
G1 X94.766 Y114.468 E165.38962
G1 X94.352 Y114.856 E165.60127
G1 X93.964 Y115.269 E165.81265
G1 X93.6 Y115.706 E166.0248
G1 X93.262 Y116.164 E166.23713
G1 X92.955 Y116.639 E166.4481
G1 X92.675 Y117.134 E166.66024
G1 X92.431 Y117.639 E166.86945
G1 X92.212 Y118.169 E167.08336
G1 X92.037 Y118.675 E167.28308
G1 X91.873 Y119.255 E167.50791
G1 X91.754 Y119.808 E167.71892
G1 X91.661 Y120.415 E167.94798
G1 X91.618 Y120.933 E168.14187
G1 X91.601 Y121.501 E168.35384
G1 X91.618 Y122.065 E168.56432
G1 X91.665 Y122.585 E168.75908
G1 X91.754 Y123.194 E168.98866
G1 X91.873 Y123.747 E169.19966
G1 X92.034 Y124.325 E169.42348
G1 X92.211 Y124.829 E169.62273
G1 X92.431 Y125.361 E169.83748
G1 X92.675 Y125.866 E170.04669
G1 X92.955 Y126.361 E170.25883
G1 X93.262 Y126.836 E170.4698
G1 X93.6 Y127.294 E170.68213
G1 X93.964 Y127.731 E170.89428
G1 X94.352 Y128.144 E171.10566
G1 X94.766 Y128.532 E171.31731
G1 X95.206 Y128.9 E171.53127
G1 X95.658 Y129.234 E171.74092
G1 X96.136 Y129.543 E171.95323
G1 X96.63 Y129.823 E172.16504
G1 X97.139 Y130.069 E172.37592
G1 X97.665 Y130.286 E172.58817
G1 X98.175 Y130.463 E172.78954
G1 X98.75 Y130.625 E173.01238
G1 X99.31 Y130.746 E173.22609
G1 X99.915 Y130.839 E173.45442
G1 X100.433 Y130.882 E173.64831
G1 X101 Y130.899 E173.8599
G1 X101.565 Y130.882 E174.07076
G0 F6000 X101.589 Y131.282
;TYPE:WALL-OUTER
G1 F1800 X102.132 Y131.233 E174.27413
G1 X102.764 Y131.14 E174.51241
G1 X103.348 Y131.013 E174.73535
G1 X103.945 Y130.848 E174.96639
G1 X104.476 Y130.661 E175.17639
G1 X105.025 Y130.434 E175.39799
G1 X105.556 Y130.177 E175.61804
G1 X106.072 Y129.885 E175.8392
G1 X106.57 Y129.563 E176.06042
G1 X107.041 Y129.215 E176.27886
G1 X107.5 Y128.832 E176.50186
G1 X107.931 Y128.427 E176.72247
G1 X108.336 Y127.996 E176.94308
G1 X108.715 Y127.541 E177.16397
G1 X109.067 Y127.064 E177.38511
G1 X109.387 Y126.568 E177.60529
G1 X109.679 Y126.052 E177.82645
G1 X109.934 Y125.525 E178.04483
G1 X110.162 Y124.973 E178.26761
G1 X110.345 Y124.445 E178.47606
G1 X110.515 Y123.842 E178.70976
G1 X110.64 Y123.264 E178.93035
G1 X110.737 Y122.632 E179.16886
G1 X110.782 Y122.089 E179.3721
G1 X110.799 Y121.498 E179.59265
G1 X110.782 Y120.906 E179.81357
G1 X110.733 Y120.368 E180.01508
G1 X110.64 Y119.734 E180.25411
G1 X110.513 Y119.152 E180.47631
G1 X110.348 Y118.555 E180.70735
G1 X110.161 Y118.024 E180.91735
G1 X109.934 Y117.475 E181.13895
G1 X109.677 Y116.944 E181.35901
G1 X109.385 Y116.428 E181.58017
G1 X109.063 Y115.93 E181.80138
G1 X108.715 Y115.459 E182.01982
G1 X108.332 Y115 E182.24282
G1 X107.927 Y114.569 E182.46343
G1 X107.496 Y114.164 E182.68405
G1 X107.041 Y113.785 E182.90494
G1 X106.564 Y113.433 E183.12607
G1 X106.068 Y113.113 E183.34625
G1 X105.552 Y112.821 E183.56741
G1 X105.025 Y112.566 E183.78579
G1 X104.477 Y112.34 E184.00691
G1 X103.945 Y112.155 E184.21701
G1 X103.347 Y111.987 E184.44871
G1 X102.763 Y111.86 E184.67165
G1 X102.132 Y111.763 E184.90979
G1 X101.589 Y111.718 E185.11303
G1 X101 Y111.701 E185.33283
G1 X100.411 Y111.718 E185.55263
G1 X99.868 Y111.767 E185.75601
G1 X99.236 Y111.86 E185.99429
G1 X98.652 Y111.987 E186.21723
G1 X98.055 Y112.152 E186.44827
G1 X97.524 Y112.339 E186.65827
G1 X96.975 Y112.566 E186.87987
G1 X96.444 Y112.823 E187.09992
G1 X95.928 Y113.115 E187.32108
G1 X95.43 Y113.437 E187.5423
G1 X94.959 Y113.785 E187.76074
G1 X94.5 Y114.168 E187.98373
G1 X94.069 Y114.573 E188.20435
G1 X93.664 Y115.004 E188.42496
G1 X93.285 Y115.459 E188.64585
G1 X92.933 Y115.936 E188.86698
G1 X92.613 Y116.432 E189.08717
G1 X92.321 Y116.948 E189.30833
G1 X92.066 Y117.475 E189.52671
G1 X91.838 Y118.027 E189.74949
G1 X91.655 Y118.555 E189.95794
G1 X91.485 Y119.158 E190.19164
G1 X91.36 Y119.736 E190.41223
G1 X91.263 Y120.368 E190.65074
G1 X91.218 Y120.911 E190.85398
G1 X91.201 Y121.501 E191.07415
G1 X91.218 Y122.089 E191.29358
G1 X91.267 Y122.632 E191.49695
G1 X91.36 Y123.265 E191.73561
G1 X91.485 Y123.843 E191.9562
G1 X91.652 Y124.445 E192.18924
G1 X91.837 Y124.972 E192.39758
G1 X92.066 Y125.525 E192.62084
G1 X92.321 Y126.052 E192.83923
G1 X92.613 Y126.568 E193.06039
G1 X92.933 Y127.064 E193.28057
G1 X93.285 Y127.541 E193.5017
G1 X93.664 Y127.996 E193.72259
G1 X94.069 Y128.427 E193.94321
G1 X94.5 Y128.832 E194.16382
G1 X94.959 Y129.215 E194.38681
G1 X95.43 Y129.563 E194.60526
G1 X95.928 Y129.885 E194.82647
