;FLAVOR:Marlin
;TIME:246
;Filament used: 2.23387m, 0m
;Layer height: 0.3
;MINX:91.201
;MINY:111.701
;MINZ:0.3
;MAXX:110.799
;MAXY:131.299
;MAXZ:7
;Generated with Cura_SteamEngine 5.0.1
T0
M140 S40
M105
M190 S40
M104 S200
M105
M109 S200
M82 ;absolute extrusion mode
M900 K0.020;
G28 ; home all axes
G1 Z5 F5000 ; lift nozzle
G1 X-45 Y70 F2500; go to glycerin roller;
G92 E0
G1 X-23 F5000; park to start
G92 E0; Extrude a small amount to clear nozzle
G1 E20 F4000
G4 P2000
G92 E0


G92 E0
G1 F1500 E-1
;LAYER_COUNT:20
;LAYER:0
M107
M204 S500
G1 F600 Z1.3
;MESH:Sajad.stl
G0 F6000 X101.565 Y130.882 Z1.3
;TYPE:WALL-INNER
G1 F600 Z0.3
G1 F1500 E0.15542
G1 F1800 X102.085 Y130.835 E0.35019
G1 X102.692 Y130.746 E0.57903
G1 X103.252 Y130.625 E0.79274
G1 X103.811 Y130.47 E1.00913
G1 X104.32 Y130.291 E1.21039
G1 X104.845 Y130.075 E1.42215
G1 X105.37 Y129.821 E1.6397
G1 X105.865 Y129.543 E1.85148
G1 X106.33 Y129.242 E2.0581
G1 X106.782 Y128.909 E2.26752
G1 X107.224 Y128.541 E2.48206
G1 X107.648 Y128.144 E2.69873
G1 X108.026 Y127.741 E2.90483
G1 X108.392 Y127.304 E3.11746
G1 X108.738 Y126.836 E3.33456
G1 X109.045 Y126.361 E3.54553
G1 X109.318 Y125.878 E3.75249
G1 X109.563 Y125.373 E3.96186
G1 X109.788 Y124.83 E4.18111
G1 X109.963 Y124.325 E4.38048
G1 X110.121 Y123.763 E4.59824
G1 X110.243 Y123.203 E4.81203
G1 X110.337 Y122.599 E5.04005
G1 X110.381 Y122.082 E5.2336
G1 X110.399 Y121.512 E5.44632
G1 X110.382 Y120.929 E5.66389
G1 X110.335 Y120.415 E5.85642
G1 X110.246 Y119.806 E6.086
G1 X110.125 Y119.248 E6.29898
G1 X109.97 Y118.689 E6.51537
G1 X109.792 Y118.18 E6.71651
G1 X109.574 Y117.653 E6.92925
G1 X109.322 Y117.13 E7.1458
G1 X109.043 Y116.635 E7.35775
G1 X108.742 Y116.17 E7.56438
G1 X108.409 Y115.718 E7.7738
G1 X108.041 Y115.276 E7.98834
G1 X107.644 Y114.852 E8.205
G1 X107.241 Y114.474 E8.41111
G1 X106.804 Y114.108 E8.62374
G1 X106.336 Y113.762 E8.84084
G1 X105.861 Y113.455 E9.05181
G1 X105.378 Y113.182 E9.25877
G1 X104.874 Y112.937 E9.46781
G1 X104.334 Y112.714 E9.68574
G1 X103.825 Y112.537 E9.88676
G1 X103.263 Y112.379 E10.10452
G1 X102.703 Y112.257 E10.31831
G1 X102.099 Y112.163 E10.54633
G1 X101.582 Y112.119 E10.73987
G1 X101.014 Y112.101 E10.95186
G1 X100.435 Y112.118 E11.16793
G1 X99.915 Y112.165 E11.36269
G1 X99.308 Y112.254 E11.59153
G1 X98.748 Y112.375 E11.80524
G1 X98.189 Y112.53 E12.02163
G1 X97.68 Y112.709 E12.22289
G1 X97.155 Y112.924 E12.43451
G1 X96.63 Y113.179 E12.65223
G1 X96.135 Y113.457 E12.864
G1 X95.67 Y113.758 E13.07062
G1 X95.218 Y114.091 E13.28004
G1 X94.776 Y114.459 E13.49458
G1 X94.352 Y114.856 E13.71125
G1 X93.974 Y115.259 E13.91736
G1 X93.608 Y115.696 E14.12998
G1 X93.262 Y116.164 E14.34709
G1 X92.955 Y116.639 E14.55806
G1 X92.682 Y117.122 E14.76501
G1 X92.437 Y117.627 E14.97439
G1 X92.212 Y118.17 E15.19364
G1 X92.037 Y118.675 E15.393
G1 X91.879 Y119.237 E15.61077
G1 X91.757 Y119.797 E15.82456
G1 X91.663 Y120.401 E16.05257
G1 X91.619 Y120.918 E16.24612
G1 X91.601 Y121.488 E16.45885
G1 X91.618 Y122.065 E16.67417
G1 X91.665 Y122.585 E16.86893
G1 X91.754 Y123.194 E17.09851
G1 X91.873 Y123.747 E17.30952
G1 X92.03 Y124.311 E17.5279
G1 X92.207 Y124.816 E17.72751
G1 X92.424 Y125.344 E17.94045
G1 X92.678 Y125.868 E18.15766
G1 X92.955 Y126.361 E18.3686
G1 X93.255 Y126.825 E18.57471
G1 X93.591 Y127.282 E18.78629
G1 X93.956 Y127.72 E18.99897
G1 X94.352 Y128.144 E19.21538
G1 X94.757 Y128.525 E19.4228
G1 X95.194 Y128.891 E19.63543
G1 X95.658 Y129.234 E19.85067
G1 X96.136 Y129.543 E20.06298
G1 X96.618 Y129.816 E20.26961
G1 X97.127 Y130.063 E20.48065
G1 X97.666 Y130.286 E20.69824
G1 X98.175 Y130.463 E20.89926
G1 X98.737 Y130.621 E21.11702
G1 X99.297 Y130.743 E21.33081
G1 X99.901 Y130.837 E21.55883
G1 X100.418 Y130.881 E21.75238
G1 X100.986 Y130.899 E21.96436
G1 X101.565 Y130.882 E22.18043
G0 F6000 X101.589 Y131.282
;TYPE:WALL-OUTER
G1 F1800 X102.132 Y131.233 E22.3838
G1 X102.764 Y131.14 E22.62209
G1 X103.348 Y131.013 E22.84502
G1 X103.931 Y130.852 E23.07064
G1 X104.462 Y130.665 E23.28063
G1 X105.008 Y130.441 E23.50077
G1 X105.556 Y130.176 E23.72784
G1 X106.072 Y129.885 E23.94881
G1 X106.558 Y129.571 E24.16465
G1 X107.029 Y129.224 E24.38287
G1 X107.489 Y128.841 E24.60615
G1 X107.931 Y128.427 E24.83205
G1 X108.326 Y128.007 E25.04712
G1 X108.706 Y127.552 E25.26825
G1 X109.067 Y127.064 E25.49468
G1 X109.387 Y126.568 E25.71486
G1 X109.672 Y126.064 E25.93084
G1 X109.928 Y125.537 E26.14939
G1 X110.162 Y124.972 E26.3775
G1 X110.345 Y124.445 E26.5856
G1 X110.509 Y123.86 E26.81223
G1 X110.637 Y123.277 E27.03488
G1 X110.735 Y122.647 E27.27271
G1 X110.781 Y122.105 E27.47561
G1 X110.799 Y121.512 E27.69691
G1 X110.782 Y120.905 E27.92342
G1 X110.733 Y120.368 E28.12457
G1 X110.64 Y119.734 E28.36359
G1 X110.513 Y119.152 E28.5858
G1 X110.352 Y118.569 E28.81141
G1 X110.166 Y118.038 E29.02128
G1 X109.94 Y117.489 E29.24274
G1 X109.676 Y116.944 E29.46863
G1 X109.385 Y116.428 E29.68961
G1 X109.071 Y115.942 E29.90544
G1 X108.724 Y115.471 E30.12367
G1 X108.341 Y115.011 E30.34695
G1 X107.927 Y114.569 E30.57285
G1 X107.507 Y114.174 E30.78792
G1 X107.052 Y113.794 E31.00905
G1 X106.564 Y113.433 E31.23548
G1 X106.068 Y113.113 E31.45566
G1 X105.564 Y112.828 E31.67164
G1 X105.038 Y112.572 E31.88985
G1 X104.476 Y112.34 E32.11665
G1 X103.945 Y112.155 E32.3264
G1 X103.36 Y111.991 E32.55303
G1 X102.777 Y111.863 E32.77568
G1 X102.147 Y111.765 E33.0135
G1 X101.605 Y111.719 E33.21641
G1 X101.014 Y111.701 E33.43696
G1 X100.411 Y111.718 E33.66198
G1 X99.868 Y111.767 E33.86536
G1 X99.236 Y111.86 E34.10364
G1 X98.652 Y111.987 E34.32658
G1 X98.069 Y112.148 E34.55219
G1 X97.538 Y112.335 E34.76219
G1 X96.992 Y112.559 E34.98233
G1 X96.444 Y112.824 E35.20939
G1 X95.928 Y113.115 E35.43037
G1 X95.442 Y113.429 E35.6462
G1 X94.971 Y113.776 E35.86442
G1 X94.511 Y114.159 E36.0877
G1 X94.069 Y114.573 E36.31361
G1 X93.674 Y114.993 E36.52868
G1 X93.294 Y115.448 E36.74981
G1 X92.933 Y115.936 E36.97623
G1 X92.613 Y116.432 E37.19641
G1 X92.328 Y116.936 E37.41239
G1 X92.072 Y117.463 E37.63094
G1 X91.838 Y118.028 E37.85906
G1 X91.655 Y118.555 E38.06715
G1 X91.491 Y119.14 E38.29378
G1 X91.363 Y119.723 E38.51643
G1 X91.265 Y120.353 E38.75426
G1 X91.219 Y120.895 E38.95716
G1 X91.201 Y121.488 E39.17847
G1 X91.218 Y122.089 E39.40274
G1 X91.267 Y122.632 E39.60611
G1 X91.36 Y123.265 E39.84477
G1 X91.485 Y123.843 E40.06536
G1 X91.648 Y124.431 E40.29297
G1 X91.833 Y124.958 E40.50131
G1 X92.059 Y125.508 E40.72311
G1 X92.323 Y126.054 E40.94934
G1 X92.613 Y126.568 E41.16948
G1 X92.925 Y127.052 E41.38429
G1 X93.276 Y127.528 E41.6049
G1 X93.656 Y127.985 E41.8266
G1 X94.069 Y128.427 E42.05225
G1 X94.491 Y128.824 E42.26837
G1 X94.946 Y129.205 E42.48974
G1 X95.43 Y129.563 E42.7143
G1 X95.928 Y129.885 E42.93552
G1 X96.432 Y130.17 E43.15149
G1 X96.963 Y130.428 E43.37171
G1 X97.524 Y130.66 E43.59816
G1 X98.055 Y130.845 E43.80791
G1 X98.64 Y131.009 E44.03454
G1 X99.223 Y131.137 E44.25719
G1 X99.853 Y131.235 E44.49502
G1 X100.395 Y131.281 E44.69792
G1 X100.986 Y131.299 E44.91848
G1 X101.589 Y131.282 E45.1435
G0 F6000 X101.788 Y131.265
G1 F1500 E44.1435
G1 F600 Z1.3
G0 F6000 X94.376 Y127.671 Z1.3
;TYPE:FILL
G1 F600 Z0.3
G1 F1500 E45.29893
G1 F2400 X98.351 Y112.837 E51.02751
G1 X98.965 Y112.676 E51.26429
G1 X109.823 Y123.534 E56.9922
G1 X109.657 Y124.148 E57.22946
G1 X94.804 Y128.128 E62.96538
G1 X94.212 Y127.496 E63.2884
G1 X93.856 Y127.067 E63.49635
G1 X93.531 Y126.626 E63.70069
G1 X93.244 Y126.181 E63.89822
G1 X92.981 Y125.714 E64.09814
G1 X92.732 Y125.2 E64.31119
G1 X92.523 Y124.69 E64.51678
G1 X92.229 Y123.849 E64.84911
G1 X109.77 Y119.149 E71.62305
G1 X109.472 Y118.296 E71.96009
G1 X109.262 Y117.785 E72.16617
G1 X109.017 Y117.281 E72.37521
G1 X108.755 Y116.817 E72.57398
G1 X108.458 Y116.358 E72.77791
G1 X108.137 Y115.923 E72.97957
G1 X107.628 Y115.31 E73.27678
G1 X103.648 Y130.161 E79.01198
G1 X104.204 Y129.971 E79.23115
G1 X104.707 Y129.765 E79.43391
G1 X105.219 Y129.517 E79.64612
G1 X105.692 Y129.249 E79.84891
G1 X106.143 Y128.958 E80.04912
G1 X106.568 Y128.645 E80.24601
G1 X107.004 Y128.282 E80.45763
G1 X107.404 Y127.903 E80.66318
G1 X94.596 Y115.095 E87.41977
G1 X94.232 Y115.479 E87.61714
G1 X93.873 Y115.91 E87.82638
G1 X93.546 Y116.353 E88.03177
G1 X93.243 Y116.821 E88.23974
G1 X92.986 Y117.275 E88.43434
G1 X92.744 Y117.772 E88.64054
G1 X92.528 Y118.296 E88.85196
G1 X92.364 Y118.771 E89.0394
G1 X92.171 Y119.458 E89.30559
G1 X103.034 Y130.321 E95.03614
G1 X102.638 Y130.41 E95.18754
G1 X101.788 Y130.536 E95.50807
G1 X100.986 Y130.559 E95.80735
G1 X100.145 Y130.532 E96.12122
G1 X99.353 Y130.408 E96.42025
G1 X98.654 Y130.254 E96.68725
G1 X103.349 Y112.732 E103.45386
G1 X104.218 Y113.034 E103.79703
G1 X104.736 Y113.248 E104.00609
G1 X105.214 Y113.48 E104.20429
G1 X105.682 Y113.745 E104.40491
G1 X106.141 Y114.042 E104.60884
G1 X106.59 Y114.373 E104.81692
G1 X107.188 Y114.871 E105.1072
G1 X92.341 Y118.85 E110.84086
G1 X92.245 Y118.875
G1 F1500 E109.84086
G1 F600 Z1.3
;MESH:NONMESH
G0 F6000 X101.565 Y130.882 Z1.3
;TIME_ELAPSED:15.409738
;LAYER:1
;MESH:Sajad.stl
G0 X101.565 Y130.882 Z1.6
;TYPE:WALL-INNER
G1 F600 Z0.6
G1 F1500 E110.99629
G1 F1800 X102.085 Y130.835 E111.19105
G1 X102.692 Y130.746 E111.41989
G1 X103.252 Y130.625 E111.6336
G1 X103.825 Y130.466 E111.85542
G1 X104.333 Y130.287 E112.05633
G1 X104.861 Y130.069 E112.26941
G1 X105.37 Y129.823 E112.48029
G1 X105.865 Y129.543 E112.69243
G1 X106.342 Y129.234 E112.90443
G1 X106.794 Y128.9 E113.11408
G1 X107.234 Y128.532 E113.32804
G1 X107.648 Y128.144 E113.53969
G1 X108.036 Y127.731 E113.75107
G1 X108.4 Y127.294 E113.96322
G1 X108.738 Y126.836 E114.17555
G1 X109.045 Y126.361 E114.38652
G1 X109.325 Y125.866 E114.59866
G1 X109.569 Y125.361 E114.80787
G1 X109.788 Y124.831 E115.02178
G1 X109.963 Y124.325 E115.2215
G1 X110.127 Y123.745 E115.44633
G1 X110.246 Y123.192 E115.65733
G1 X110.339 Y122.585 E115.8864
G1 X110.382 Y122.067 E116.08029
G1 X110.399 Y121.498 E116.29263
G1 X110.382 Y120.93 E116.5046
G1 X110.335 Y120.415 E116.6975
G1 X110.246 Y119.806 E116.92709
G1 X110.125 Y119.248 E117.14007
G1 X109.966 Y118.675 E117.36188
G1 X109.787 Y118.167 E117.5628
G1 X109.569 Y117.639 E117.77588
G1 X109.323 Y117.13 E117.98676
G1 X109.043 Y116.635 E118.1989
G1 X108.734 Y116.158 E118.4109
G1 X108.4 Y115.706 E118.62054
G1 X108.032 Y115.266 E118.83451
G1 X107.644 Y114.852 E119.04616
G1 X107.231 Y114.464 E119.25753
G1 X106.794 Y114.1 E119.46969
G1 X106.336 Y113.762 E119.68201
G1 X105.861 Y113.455 E119.89298
G1 X105.366 Y113.175 E120.10512
G1 X104.861 Y112.931 E120.31433
G1 X104.335 Y112.714 E120.52658
G1 X103.825 Y112.537 E120.72795
G1 X103.25 Y112.375 E120.95079
G1 X102.69 Y112.254 E121.1645
G1 X102.085 Y112.161 E121.39283
G1 X101.567 Y112.118 E121.58672
G1 X101 Y112.101 E121.79832
G1 X100.435 Y112.118 E122.00917
G1 X99.915 Y112.165 E122.20393
G1 X99.308 Y112.254 E122.43277
G1 X98.748 Y112.375 E122.64648
G1 X98.175 Y112.534 E122.8683
G1 X97.667 Y112.713 E123.06921
G1 X97.139 Y112.931 E123.28229
G1 X96.63 Y113.177 E123.49317
G1 X96.135 Y113.457 E123.70531
G1 X95.658 Y113.766 E123.91731
G1 X95.206 Y114.1 E124.12695
G1 X94.766 Y114.468 E124.34092
G1 X94.352 Y114.856 E124.55257
G1 X93.964 Y115.269 E124.76395
G1 X93.6 Y115.706 E124.9761
G1 X93.262 Y116.164 E125.18843
G1 X92.955 Y116.639 E125.3994
G1 X92.675 Y117.134 E125.61154
G1 X92.431 Y117.639 E125.82075
G1 X92.212 Y118.169 E126.03466
G1 X92.037 Y118.675 E126.23438
G1 X91.873 Y119.255 E126.45921
G1 X91.754 Y119.808 E126.67021
G1 X91.661 Y120.415 E126.89928
G1 X91.618 Y120.933 E127.09317
G1 X91.601 Y121.501 E127.30514
G1 X91.618 Y122.065 E127.51562
G1 X91.665 Y122.585 E127.71038
G1 X91.754 Y123.194 E127.93996
G1 X91.873 Y123.747 E128.15096
G1 X92.034 Y124.325 E128.37477
G1 X92.211 Y124.829 E128.57403
G1 X92.431 Y125.361 E128.78878
G1 X92.675 Y125.866 E128.99799
G1 X92.955 Y126.361 E129.21013
G1 X93.262 Y126.836 E129.4211
G1 X93.6 Y127.294 E129.63342
G1 X93.964 Y127.731 E129.84558
G1 X94.352 Y128.144 E130.05695
G1 X94.766 Y128.532 E130.2686
G1 X95.206 Y128.9 E130.48257
G1 X95.658 Y129.234 E130.69221
G1 X96.136 Y129.543 E130.90453
G1 X96.63 Y129.823 E131.11634
G1 X97.139 Y130.069 E131.32722
G1 X97.665 Y130.286 E131.53947
G1 X98.175 Y130.463 E131.74084
G1 X98.75 Y130.625 E131.96368
G1 X99.31 Y130.746 E132.17739
G1 X99.915 Y130.839 E132.40572
G1 X100.433 Y130.882 E132.5996
G1 X101 Y130.899 E132.8112
G1 X101.565 Y130.882 E133.02205
G0 F6000 X101.589 Y131.282
;TYPE:WALL-OUTER
G1 F1800 X102.132 Y131.233 E133.22542
G1 X102.764 Y131.14 E133.46371
G1 X103.348 Y131.013 E133.68665
G1 X103.945 Y130.848 E133.91769
G1 X104.476 Y130.661 E134.12769
G1 X105.025 Y130.434 E134.34929
G1 X105.556 Y130.177 E134.56934
G1 X106.072 Y129.885 E134.7905
G1 X106.57 Y129.563 E135.01171
G1 X107.041 Y129.215 E135.23016
G1 X107.5 Y128.832 E135.45315
G1 X107.931 Y128.427 E135.67377
G1 X108.336 Y127.996 E135.89438
G1 X108.715 Y127.541 E136.11527
G1 X109.067 Y127.064 E136.3364
G1 X109.387 Y126.568 E136.55658
G1 X109.679 Y126.052 E136.77774
G1 X109.934 Y125.525 E136.99613
G1 X110.162 Y124.973 E137.21891
G1 X110.345 Y124.445 E137.42736
G1 X110.515 Y123.842 E137.66106
G1 X110.64 Y123.264 E137.88165
G1 X110.737 Y122.632 E138.12015
G1 X110.782 Y122.089 E138.3234
G1 X110.799 Y121.498 E138.54394
G1 X110.782 Y120.906 E138.76486
G1 X110.733 Y120.368 E138.96638
G1 X110.64 Y119.734 E139.2054
G1 X110.513 Y119.152 E139.42761
G1 X110.348 Y118.555 E139.65865
G1 X110.161 Y118.024 E139.86865
G1 X109.934 Y117.475 E140.09025
G1 X109.677 Y116.944 E140.3103
G1 X109.385 Y116.428 E140.53146
G1 X109.063 Y115.93 E140.75268
G1 X108.715 Y115.459 E140.97112
G1 X108.332 Y115 E141.19411
G1 X107.927 Y114.569 E141.41473
G1 X107.496 Y114.164 E141.63534
G1 X107.041 Y113.785 E141.85623
G1 X106.564 Y113.433 E142.07737
G1 X106.068 Y113.113 E142.29755
G1 X105.552 Y112.821 E142.51871
G1 X105.025 Y112.566 E142.73709
G1 X104.477 Y112.34 E142.95821
G1 X103.945 Y112.155 E143.16831
G1 X103.347 Y111.987 E143.40001
G1 X102.763 Y111.86 E143.62295
G1 X102.132 Y111.763 E143.86109
G1 X101.589 Y111.718 E144.06433
G1 X101 Y111.701 E144.28413
G1 X100.411 Y111.718 E144.50393
G1 X99.868 Y111.767 E144.7073
G1 X99.236 Y111.86 E144.94559
G1 X98.652 Y111.987 E145.16852
G1 X98.055 Y112.152 E145.39957
G1 X97.524 Y112.339 E145.60956
G1 X96.975 Y112.566 E145.83117
G1 X96.444 Y112.823 E146.05122
G1 X95.928 Y113.115 E146.27238
G1 X95.43 Y113.437 E146.49359
G1 X94.959 Y113.785 E146.71204
G1 X94.5 Y114.168 E146.93503
G1 X94.069 Y114.573 E147.15564
G1 X93.664 Y115.004 E147.37626
G1 X93.285 Y115.459 E147.59715
G1 X92.933 Y115.936 E147.81828
G1 X92.613 Y116.432 E148.03846
G1 X92.321 Y116.948 E148.25962
G1 X92.066 Y117.475 E148.47801
G1 X91.838 Y118.027 E148.70079
G1 X91.655 Y118.555 E148.90924
G1 X91.485 Y119.158 E149.14293
G1 X91.36 Y119.736 E149.36352
G1 X91.263 Y120.368 E149.60203
G1 X91.218 Y120.911 E149.80528
G1 X91.201 Y121.501 E150.02545
G1 X91.218 Y122.089 E150.24488
G1 X91.267 Y122.632 E150.44825
G1 X91.36 Y123.265 E150.68691
G1 X91.485 Y123.843 E150.90749
G1 X91.652 Y124.445 E151.14053
G1 X91.837 Y124.972 E151.34887
G1 X92.066 Y125.525 E151.57214
G1 X92.321 Y126.052 E151.79053
G1 X92.613 Y126.568 E152.01169
G1 X92.933 Y127.064 E152.23187
G1 X93.285 Y127.541 E152.453
G1 X93.664 Y127.996 E152.67389
G1 X94.069 Y128.427 E152.89451
G1 X94.5 Y128.832 E153.11512
G1 X94.959 Y129.215 E153.33811
G1 X95.43 Y129.563 E153.55656
G1 X95.928 Y129.885 E153.77777
G1 X96.444 Y130.177 E153.99893
G1 X96.975 Y130.434 E154.21898
G1 X97.523 Y130.66 E154.4401
G1 X98.055 Y130.845 E154.6502
G1 X98.653 Y131.013 E154.8819
G1 X99.237 Y131.14 E155.10484
G1 X99.868 Y131.237 E155.34298
G1 X100.411 Y131.282 E155.54622
G1 X101 Y131.299 E155.76602
G1 X101.589 Y131.282 E155.98582
G0 F6000 X101.788 Y131.265
G1 F1500 E154.98582
G1 F600 Z1.6
G0 F6000 X92.176 Y123.535 Z1.6
;TYPE:FILL
G1 F600 Z0.6
G1 F1500 E156.14125
G1 F2400 X103.036 Y112.675 E161.87021
G1 X103.648 Y112.84 E162.10665
G1 X107.622 Y127.673 E167.83478
G1 X107.172 Y128.122 E168.07191
G1 X92.337 Y124.147 E173.80086
G1 X92.203 Y123.66 E173.98927
G1 X92.089 Y123.135 E174.18967
G1 X91.964 Y122.289 E174.50867
G1 X91.941 Y121.507 E174.8005
G1 X91.967 Y120.655 E175.11846
