;FLAVOR:Marlin
;TIME:586
;Filament used: 3.20066m, 0m
;Layer height: 0.3
;MINX:91.201
;MINY:111.701
;MINZ:0.3
;MAXX:110.799
;MAXY:131.299
;MAXZ:7
;Generated with Cura_SteamEngine 5.0.1
T0
M140 S40
M105
M190 S40
M104 S200
M105
M109 S200
M82 ;absolute extrusion mode
M900 K0.020;
G28 ; home all axes
G1 Z5 F5000 ; lift nozzle
G1 X-45 Y70 F2500; go to glycerin roller;
G92 E0
G1 X-23 F5000; park to start
G92 E0; Extrude a small amount to clear nozzle
G1 E20 F4000
G4 P2000
G92 E0


G92 E0
G1 F1500 E-1
;LAYER_COUNT:20
;LAYER:0
M107
M204 S500
G1 F600 Z1.3
;MESH:Sajad.stl
G0 F6000 X101.565 Y130.882 Z1.3
;TYPE:WALL-INNER
G1 F600 Z0.3
G1 F1500 E0.15542
G1 F1800 X102.085 Y130.835 E0.35019
G1 X102.692 Y130.746 E0.57903
G1 X103.252 Y130.625 E0.79274
G1 X103.811 Y130.47 E1.00913
G1 X104.32 Y130.291 E1.21039
G1 X104.845 Y130.075 E1.42215
G1 X105.37 Y129.821 E1.6397
G1 X105.865 Y129.543 E1.85148
G1 X106.33 Y129.242 E2.0581
G1 X106.782 Y128.909 E2.26752
G1 X107.224 Y128.541 E2.48206
G1 X107.648 Y128.144 E2.69873
G1 X108.026 Y127.741 E2.90483
G1 X108.392 Y127.304 E3.11746
G1 X108.738 Y126.836 E3.33456
G1 X109.045 Y126.361 E3.54553
G1 X109.318 Y125.878 E3.75249
G1 X109.563 Y125.373 E3.96186
G1 X109.788 Y124.83 E4.18111
G1 X109.963 Y124.325 E4.38048
G1 X110.121 Y123.763 E4.59824
G1 X110.243 Y123.203 E4.81203
G1 X110.337 Y122.599 E5.04005
G1 X110.381 Y122.082 E5.2336
G1 X110.399 Y121.512 E5.44632
G1 X110.382 Y120.929 E5.66389
G1 X110.335 Y120.415 E5.85642
G1 X110.246 Y119.806 E6.086
G1 X110.125 Y119.248 E6.29898
G1 X109.97 Y118.689 E6.51537
G1 X109.792 Y118.18 E6.71651
G1 X109.574 Y117.653 E6.92925
G1 X109.322 Y117.13 E7.1458
G1 X109.043 Y116.635 E7.35775
G1 X108.742 Y116.17 E7.56438
G1 X108.409 Y115.718 E7.7738
G1 X108.041 Y115.276 E7.98834
G1 X107.644 Y114.852 E8.205
G1 X107.241 Y114.474 E8.41111
G1 X106.804 Y114.108 E8.62374
G1 X106.336 Y113.762 E8.84084
G1 X105.861 Y113.455 E9.05181
G1 X105.378 Y113.182 E9.25877
G1 X104.874 Y112.937 E9.46781
G1 X104.334 Y112.714 E9.68574
G1 X103.825 Y112.537 E9.88676
G1 X103.263 Y112.379 E10.10452
G1 X102.703 Y112.257 E10.31831
G1 X102.099 Y112.163 E10.54633
G1 X101.582 Y112.119 E10.73987
G1 X101.014 Y112.101 E10.95186
G1 X100.435 Y112.118 E11.16793
G1 X99.915 Y112.165 E11.36269
G1 X99.308 Y112.254 E11.59153
G1 X98.748 Y112.375 E11.80524
G1 X98.189 Y112.53 E12.02163
G1 X97.68 Y112.709 E12.22289
G1 X97.155 Y112.924 E12.43451
G1 X96.63 Y113.179 E12.65223
G1 X96.135 Y113.457 E12.864
G1 X95.67 Y113.758 E13.07062
G1 X95.218 Y114.091 E13.28004
G1 X94.776 Y114.459 E13.49458
G1 X94.352 Y114.856 E13.71125
G1 X93.974 Y115.259 E13.91736
G1 X93.608 Y115.696 E14.12998
G1 X93.262 Y116.164 E14.34709
G1 X92.955 Y116.639 E14.55806
G1 X92.682 Y117.122 E14.76501
G1 X92.437 Y117.627 E14.97439
G1 X92.212 Y118.17 E15.19364
G1 X92.037 Y118.675 E15.393
G1 X91.879 Y119.237 E15.61077
G1 X91.757 Y119.797 E15.82456
G1 X91.663 Y120.401 E16.05257
G1 X91.619 Y120.918 E16.24612
G1 X91.601 Y121.488 E16.45885
G1 X91.618 Y122.065 E16.67417
G1 X91.665 Y122.585 E16.86893
G1 X91.754 Y123.194 E17.09851
G1 X91.873 Y123.747 E17.30952
G1 X92.03 Y124.311 E17.5279
G1 X92.207 Y124.816 E17.72751
G1 X92.424 Y125.344 E17.94045
G1 X92.678 Y125.868 E18.15766
G1 X92.955 Y126.361 E18.3686
G1 X93.255 Y126.825 E18.57471
G1 X93.591 Y127.282 E18.78629
G1 X93.956 Y127.72 E18.99897
G1 X94.352 Y128.144 E19.21538
G1 X94.757 Y128.525 E19.4228
G1 X95.194 Y128.891 E19.63543
G1 X95.658 Y129.234 E19.85067
G1 X96.136 Y129.543 E20.06298
G1 X96.618 Y129.816 E20.26961
G1 X97.127 Y130.063 E20.48065
G1 X97.666 Y130.286 E20.69824
G1 X98.175 Y130.463 E20.89926
G1 X98.737 Y130.621 E21.11702
G1 X99.297 Y130.743 E21.33081
G1 X99.901 Y130.837 E21.55883
G1 X100.418 Y130.881 E21.75238
G1 X100.986 Y130.899 E21.96436
G1 X101.565 Y130.882 E22.18043
G0 F6000 X101.589 Y131.282
;TYPE:WALL-OUTER
G1 F1800 X102.132 Y131.233 E22.3838
G1 X102.764 Y131.14 E22.62209
G1 X103.348 Y131.013 E22.84502
G1 X103.931 Y130.852 E23.07064
G1 X104.462 Y130.665 E23.28063
G1 X105.008 Y130.441 E23.50077
G1 X105.556 Y130.176 E23.72784
G1 X106.072 Y129.885 E23.94881
G1 X106.558 Y129.571 E24.16465
G1 X107.029 Y129.224 E24.38287
G1 X107.489 Y128.841 E24.60615
G1 X107.931 Y128.427 E24.83205
G1 X108.326 Y128.007 E25.04712
G1 X108.706 Y127.552 E25.26825
G1 X109.067 Y127.064 E25.49468
G1 X109.387 Y126.568 E25.71486
G1 X109.672 Y126.064 E25.93084
G1 X109.928 Y125.537 E26.14939
G1 X110.162 Y124.972 E26.3775
G1 X110.345 Y124.445 E26.5856
G1 X110.509 Y123.86 E26.81223
G1 X110.637 Y123.277 E27.03488
G1 X110.735 Y122.647 E27.27271
G1 X110.781 Y122.105 E27.47561
G1 X110.799 Y121.512 E27.69691
G1 X110.782 Y120.905 E27.92342
G1 X110.733 Y120.368 E28.12457
G1 X110.64 Y119.734 E28.36359
G1 X110.513 Y119.152 E28.5858
G1 X110.352 Y118.569 E28.81141
G1 X110.166 Y118.038 E29.02128
G1 X109.94 Y117.489 E29.24274
G1 X109.676 Y116.944 E29.46863
G1 X109.385 Y116.428 E29.68961
G1 X109.071 Y115.942 E29.90544
G1 X108.724 Y115.471 E30.12367
G1 X108.341 Y115.011 E30.34695
G1 X107.927 Y114.569 E30.57285
G1 X107.507 Y114.174 E30.78792
G1 X107.052 Y113.794 E31.00905
G1 X106.564 Y113.433 E31.23548
G1 X106.068 Y113.113 E31.45566
G1 X105.564 Y112.828 E31.67164
G1 X105.038 Y112.572 E31.88985
G1 X104.476 Y112.34 E32.11665
G1 X103.945 Y112.155 E32.3264
G1 X103.36 Y111.991 E32.55303
G1 X102.777 Y111.863 E32.77568
G1 X102.147 Y111.765 E33.0135
G1 X101.605 Y111.719 E33.21641
G1 X101.014 Y111.701 E33.43696
G1 X100.411 Y111.718 E33.66198
G1 X99.868 Y111.767 E33.86536
G1 X99.236 Y111.86 E34.10364
G1 X98.652 Y111.987 E34.32658
G1 X98.069 Y112.148 E34.55219
G1 X97.538 Y112.335 E34.76219
G1 X96.992 Y112.559 E34.98233
G1 X96.444 Y112.824 E35.20939
G1 X95.928 Y113.115 E35.43037
G1 X95.442 Y113.429 E35.6462
G1 X94.971 Y113.776 E35.86442
G1 X94.511 Y114.159 E36.0877
G1 X94.069 Y114.573 E36.31361
G1 X93.674 Y114.993 E36.52868
G1 X93.294 Y115.448 E36.74981
G1 X92.933 Y115.936 E36.97623
G1 X92.613 Y116.432 E37.19641
G1 X92.328 Y116.936 E37.41239
G1 X92.072 Y117.463 E37.63094
G1 X91.838 Y118.028 E37.85906
G1 X91.655 Y118.555 E38.06715
G1 X91.491 Y119.14 E38.29378
G1 X91.363 Y119.723 E38.51643
G1 X91.265 Y120.353 E38.75426
G1 X91.219 Y120.895 E38.95716
G1 X91.201 Y121.488 E39.17847
G1 X91.218 Y122.089 E39.40274
G1 X91.267 Y122.632 E39.60611
G1 X91.36 Y123.265 E39.84477
G1 X91.485 Y123.843 E40.06536
G1 X91.648 Y124.431 E40.29297
G1 X91.833 Y124.958 E40.50131
G1 X92.059 Y125.508 E40.72311
G1 X92.323 Y126.054 E40.94934
G1 X92.613 Y126.568 E41.16948
G1 X92.925 Y127.052 E41.38429
G1 X93.276 Y127.528 E41.6049
G1 X93.656 Y127.985 E41.8266
G1 X94.069 Y128.427 E42.05225
G1 X94.491 Y128.824 E42.26837
G1 X94.946 Y129.205 E42.48974
G1 X95.43 Y129.563 E42.7143
G1 X95.928 Y129.885 E42.93552
G1 X96.432 Y130.17 E43.15149
G1 X96.963 Y130.428 E43.37171
G1 X97.524 Y130.66 E43.59816
G1 X98.055 Y130.845 E43.80791
G1 X98.64 Y131.009 E44.03454
G1 X99.223 Y131.137 E44.25719
G1 X99.853 Y131.235 E44.49502
G1 X100.395 Y131.281 E44.69792
G1 X100.986 Y131.299 E44.91848
G1 X101.589 Y131.282 E45.1435
G0 F6000 X101.788 Y131.265
G0 X101.788 Y130.536
;TYPE:FILL
G1 F2400 X101.4 Y130.547 E45.28829
G1 X101.4 Y129.9 E45.52963
G1 X101.8 Y129.5 E45.74065
G1 X101.4 Y129.1 E45.95166
G1 X101.4 Y128.3 E46.25007
G1 X102.2 Y128.3 E46.54849
G1 X102.6 Y128.7 E46.7595
G1 X103 Y128.3 E46.97051
G1 X103.8 Y128.3 E47.26893
G1 X103.8 Y129.1 E47.56734
G1 X103.4 Y129.5 E47.77835
G1 X103.972 Y130.072 E48.0801
G1 X103.165 Y130.295 E48.39241
G1 X102.697 Y130.397 E48.57108
G1 X102.6 Y130.3 E48.62225
G1 X102.464 Y130.436 E48.69399
G1 X101.788 Y130.536 E48.9489
G1 F1500 E47.9489
G1 F600 Z1.3
G0 F6000 X100.6 Y130.547 Z1.3
G1 F600 Z0.3
G1 F1500 E49.10432
G1 F2400 X100.145 Y130.532 E49.27414
G1 X99.537 Y130.437 E49.50369
G1 X99.4 Y130.3 E49.57596
G1 X99.303 Y130.397 E49.62713
G1 X98.825 Y130.292 E49.80968
G1 X98.031 Y130.069 E50.11732
G1 X98.6 Y129.5 E50.41749
G1 X98.2 Y129.1 E50.6285
G1 X98.2 Y128.3 E50.92691
G1 X99 Y128.3 E51.22533
G1 X99.4 Y128.7 E51.43634
G1 X99.8 Y128.3 E51.64735
G1 X100.6 Y128.3 E51.94577
G1 X100.6 Y129.1 E52.24418
G1 X100.2 Y129.5 E52.45519
G1 X100.6 Y129.9 E52.66621
G1 X100.6 Y130.547 E52.90755
G1 F1500 E51.90755
G1 F600 Z1.3
G0 F6000 X100.6 Y127.5 Z1.3
G1 F600 Z0.3
G1 F1500 E53.06297
G1 F2400 X99.8 Y127.5 E53.36139
G1 X99.4 Y127.1 E53.5724
G1 X99 Y127.5 E53.78341
G1 X98.2 Y127.5 E54.08183
G1 X98.2 Y126.7 E54.38024
G1 X98.6 Y126.3 E54.59126
G1 X97.8 Y125.5 E55.01328
G1 X97 Y126.3 E55.4353
G1 X97.4 Y126.7 E55.64631
G1 X97.4 Y127.5 E55.94473
G1 X96.6 Y127.5 E56.24314
G1 X96.2 Y127.1 E56.45416
G1 X95.4 Y127.9 E56.87618
G1 X96.2 Y128.7 E57.2982
G1 X96.6 Y128.3 E57.50921
G1 X97.4 Y128.3 E57.80763
G1 X97.4 Y129.1 E58.10605
G1 X97 Y129.5 E58.31706
G1 X97.24 Y129.74 E58.44366
G1 X96.78 Y129.517 E58.63435
G1 X96.313 Y129.252 E58.83465
G1 X95.851 Y128.953 E59.03992
G1 X95.4 Y128.62 E59.24904
G1 X94.987 Y128.274 E59.45002
G1 X94.594 Y127.904 E59.65136
G1 X94.212 Y127.496 E59.85985
G1 X93.856 Y127.067 E60.0678
G1 X93.531 Y126.626 E60.27215
G1 X93.244 Y126.181 E60.46967
G1 X92.981 Y125.714 E60.66959
G1 X92.762 Y125.262 E60.85695
G1 X93 Y125.5 E60.9825
G1 X93.4 Y125.1 E61.19351
G1 X94.2 Y125.1 E61.49192
G1 X94.2 Y125.9 E61.79034
G1 X93.8 Y126.3 E62.00135
G1 X94.6 Y127.1 E62.42338
G1 X95.4 Y126.3 E62.8454
G1 X95 Y125.9 E63.05641
G1 X95 Y125.1 E63.35483
G1 X95.8 Y125.1 E63.65324
G1 X96.2 Y125.5 E63.86425
G1 X97 Y124.7 E64.28628
G1 X96.2 Y123.9 E64.7083
G1 X95.8 Y124.3 E64.91931
G1 X95 Y124.3 E65.21773
G1 X95 Y123.5 E65.51614
G1 X95.4 Y123.1 E65.72715
G1 X95 Y122.7 E65.93817
G1 X95 Y121.9 E66.23658
G1 X95.8 Y121.9 E66.535
G1 X96.2 Y122.3 E66.74601
G1 X96.6 Y121.9 E66.95702
G1 X97.4 Y121.9 E67.25544
G1 X97.4 Y122.7 E67.55385
G1 X97 Y123.1 E67.76486
G1 X97.8 Y123.9 E68.18689
G1 X98.6 Y123.1 E68.60891
G1 X98.2 Y122.7 E68.81992
G1 X98.2 Y121.9 E69.11834
G1 X99 Y121.9 E69.41675
G1 X99.4 Y122.3 E69.62776
G1 X100.2 Y121.5 E70.04979
G1 X99.4 Y120.7 E70.47181
G1 X99 Y121.1 E70.68282
G1 X98.2 Y121.1 E70.98124
G1 X98.2 Y120.3 E71.27965
G1 X98.6 Y119.9 E71.49066
G1 X97.8 Y119.1 E71.91269
G1 X97 Y119.9 E72.33471
G1 X97.4 Y120.3 E72.54572
G1 X97.4 Y121.1 E72.84414
G1 X96.6 Y121.1 E73.14255
G1 X96.2 Y120.7 E73.35356
G1 X95.8 Y121.1 E73.56458
G1 X95 Y121.1 E73.86299
G1 X95 Y120.3 E74.16141
G1 X95.4 Y119.9 E74.37242
G1 X95 Y119.5 E74.58343
G1 X95 Y118.7 E74.88185
G1 X95.8 Y118.7 E75.18026
G1 X96.2 Y119.1 E75.39127
G1 X97 Y118.3 E75.8133
G1 X96.2 Y117.5 E76.23532
G1 X95.8 Y117.9 E76.44633
G1 X95 Y117.9 E76.74475
G1 X95 Y117.1 E77.04316
G1 X95.4 Y116.7 E77.25417
G1 X94.6 Y115.9 E77.6762
G1 X93.8 Y116.7 E78.09822
G1 X94.2 Y117.1 E78.30923
G1 X94.2 Y117.9 E78.60765
G1 X93.4 Y117.9 E78.90606
G1 X93 Y117.5 E79.11708
G1 X92.759 Y117.741 E79.24421
G1 X92.986 Y117.275 E79.43756
G1 X93.243 Y116.821 E79.63217
G1 X93.546 Y116.353 E79.84013
G1 X93.873 Y115.91 E80.04552
G1 X94.232 Y115.479 E80.25476
G1 X94.588 Y115.102 E80.44818
G1 X94.996 Y114.718 E80.65718
G1 X95.432 Y114.355 E80.8688
G1 X95.858 Y114.042 E81.06599
G1 X96.317 Y113.745 E81.26992
G1 X96.781 Y113.483 E81.46869
G1 X97.239 Y113.261 E81.65855
G1 X97 Y113.5 E81.78462
G1 X97.4 Y113.9 E81.99564
G1 X97.4 Y114.7 E82.29405
G1 X96.6 Y114.7 E82.59247
G1 X96.2 Y114.3 E82.80348
G1 X95.4 Y115.1 E83.2255
G1 X96.2 Y115.9 E83.64753
G1 X96.6 Y115.5 E83.85854
G1 X97.4 Y115.5 E84.15695
G1 X97.4 Y116.3 E84.45537
G1 X97 Y116.7 E84.66638
G1 X97.8 Y117.5 E85.0884
G1 X98.6 Y116.7 E85.51043
G1 X98.2 Y116.3 E85.72144
G1 X98.2 Y115.5 E86.01985
G1 X99 Y115.5 E86.31827
G1 X99.4 Y115.9 E86.52928
G1 X99.8 Y115.5 E86.74029
G1 X100.6 Y115.5 E87.03871
G1 X100.6 Y116.3 E87.33712
G1 X100.2 Y116.7 E87.54814
G1 X100.6 Y117.1 E87.75915
G1 X100.6 Y117.9 E88.05756
G1 X99.8 Y117.9 E88.35598
G1 X99.4 Y117.5 E88.56699
G1 X98.6 Y118.3 E88.98901
G1 X99.4 Y119.1 E89.41104
G1 X99.8 Y118.7 E89.62205
G1 X100.6 Y118.7 E89.92046
G1 X100.6 Y119.5 E90.21888
G1 X100.2 Y119.9 E90.42989
G1 X101 Y120.7 E90.85191
G1 X101.8 Y119.9 E91.27394
G1 X101.4 Y119.5 E91.48495
G1 X101.4 Y118.7 E91.78336
G1 X102.2 Y118.7 E92.08178
G1 X102.6 Y119.1 E92.29279
G1 X103.4 Y118.3 E92.71481
G1 X102.6 Y117.5 E93.13684
G1 X102.2 Y117.9 E93.34785
G1 X101.4 Y117.9 E93.64626
G1 X101.4 Y117.1 E93.94468
G1 X101.8 Y116.7 E94.15569
G1 X101.4 Y116.3 E94.3667
G1 X101.4 Y115.5 E94.66512
G1 X102.2 Y115.5 E94.96353
G1 X102.6 Y115.9 E95.17455
G1 X103 Y115.5 E95.38556
G1 X103.8 Y115.5 E95.68397
G1 X103.8 Y116.3 E95.98239
G1 X103.4 Y116.7 E96.1934
G1 X104.2 Y117.5 E96.61542
G1 X105 Y116.7 E97.03745
G1 X104.6 Y116.3 E97.24846
G1 X104.6 Y115.5 E97.54687
G1 X105.4 Y115.5 E97.84529
G1 X105.8 Y115.9 E98.0563
G1 X106.6 Y115.1 E98.47832
G1 X105.8 Y114.3 E98.90035
G1 X105.4 Y114.7 E99.11136
G1 X104.6 Y114.7 E99.40978
G1 X104.6 Y113.9 E99.70819
G1 X105 Y113.5 E99.9192
G1 X104.759 Y113.259 E100.04634
G1 X105.214 Y113.48 E100.23502
G1 X105.682 Y113.745 E100.43564
G1 X106.141 Y114.042 E100.63957
G1 X106.59 Y114.373 E100.84765
G1 X107.021 Y114.732 E101.05689
G1 X107.398 Y115.088 E101.25031
G1 X107.782 Y115.496 E101.4593
G1 X108.137 Y115.923 E101.66644
G1 X108.458 Y116.358 E101.8681
G1 X108.755 Y116.817 E102.07203
G1 X109.017 Y117.281 E102.2708
G1 X109.24 Y117.74 E102.46115
G1 X109 Y117.5 E102.58776
G1 X108.6 Y117.9 E102.79877
G1 X107.8 Y117.9 E103.09719
G1 X107.8 Y117.1 E103.3956
G1 X108.2 Y116.7 E103.60661
G1 X107.4 Y115.9 E104.02864
G1 X106.6 Y116.7 E104.45066
G1 X107 Y117.1 E104.66167
G1 X107 Y117.9 E104.96009
G1 X106.2 Y117.9 E105.2585
G1 X105.8 Y117.5 E105.46951
G1 X105 Y118.3 E105.89154
G1 X105.8 Y119.1 E106.31356
G1 X106.2 Y118.7 E106.52457
G1 X107 Y118.7 E106.82299
G1 X107 Y119.5 E107.1214
G1 X106.6 Y119.9 E107.33242
G1 X107 Y120.3 E107.54343
G1 X107 Y121.1 E107.84184
G1 X106.2 Y121.1 E108.14026
G1 X105.8 Y120.7 E108.35127
G1 X105.4 Y121.1 E108.56228
G1 X104.6 Y121.1 E108.8607
G1 X104.6 Y120.3 E109.15911
G1 X105 Y119.9 E109.37012
G1 X104.2 Y119.1 E109.79215
G1 X103.4 Y119.9 E110.21417
G1 X103.8 Y120.3 E110.42518
G1 X103.8 Y121.1 E110.7236
G1 X103 Y121.1 E111.02201
G1 X102.6 Y120.7 E111.23303
G1 X101.8 Y121.5 E111.65505
G1 X102.6 Y122.3 E112.07707
G1 X103 Y121.9 E112.28808
G1 X103.8 Y121.9 E112.5865
G1 X103.8 Y122.7 E112.88491
G1 X103.4 Y123.1 E113.09593
G1 X104.2 Y123.9 E113.51795
G1 X105 Y123.1 E113.93997
G1 X104.6 Y122.7 E114.15098
G1 X104.6 Y121.9 E114.4494
G1 X105.4 Y121.9 E114.74782
G1 X105.8 Y122.3 E114.95883
G1 X106.2 Y121.9 E115.16984
G1 X107 Y121.9 E115.46825
G1 X107 Y122.7 E115.76667
G1 X106.6 Y123.1 E115.97768
G1 X107 Y123.5 E116.18869
G1 X107 Y124.3 E116.48711
G1 X106.2 Y124.3 E116.78552
G1 X105.8 Y123.9 E116.99654
G1 X105 Y124.7 E117.41856
G1 X105.8 Y125.5 E117.84058
G1 X106.2 Y125.1 E118.05159
G1 X107 Y125.1 E118.35001
G1 X107 Y125.9 E118.64842
G1 X106.6 Y126.3 E118.85944
G1 X107.4 Y127.1 E119.28146
G1 X108.2 Y126.3 E119.70348
G1 X107.8 Y125.9 E119.91449
G1 X107.8 Y125.1 E120.21291
G1 X108.6 Y125.1 E120.51133
G1 X109 Y125.5 E120.72234
G1 X109.241 Y125.259 E120.84947
G1 X109.018 Y125.717 E121.03949
G1 X108.757 Y126.179 E121.23742
G1 X108.457 Y126.643 E121.44353
G1 X108.127 Y127.09 E121.65079
G1 X107.768 Y127.521 E121.86002
G1 X107.412 Y127.898 E122.05344
G1 X107.004 Y128.282 E122.26244
G1 X106.568 Y128.645 E122.47407
G1 X106.143 Y128.958 E122.67095
G1 X105.692 Y129.249 E122.87116
G1 X105.219 Y129.517 E123.07396
G1 X104.761 Y129.739 E123.26381
G1 X105 Y129.5 E123.38989
G1 X104.6 Y129.1 E123.6009
G1 X104.6 Y128.3 E123.89932
G1 X105.4 Y128.3 E124.19773
G1 X105.8 Y128.7 E124.40874
G1 X106.6 Y127.9 E124.83077
G1 X105.8 Y127.1 E125.25279
G1 X105.4 Y127.5 E125.4638
G1 X104.6 Y127.5 E125.76222
G1 X104.6 Y126.7 E126.06063
G1 X105 Y126.3 E126.27164
G1 X104.2 Y125.5 E126.69367
G1 X103.4 Y126.3 E127.11569
G1 X103.8 Y126.7 E127.3267
G1 X103.8 Y127.5 E127.62512
G1 X103 Y127.5 E127.92353
G1 X102.6 Y127.1 E128.13455
G1 X102.2 Y127.5 E128.34556
G1 X101.4 Y127.5 E128.64397
G1 X101.4 Y126.7 E128.94239
G1 X101.8 Y126.3 E129.1534
G1 X101.4 Y125.9 E129.36441
G1 X101.4 Y125.1 E129.66283
G1 X102.2 Y125.1 E129.96124
G1 X102.6 Y125.5 E130.17225
G1 X103.4 Y124.7 E130.59428
G1 X102.6 Y123.9 E131.0163
G1 X102.2 Y124.3 E131.22731
G1 X101.4 Y124.3 E131.52573
