;FLAVOR:Marlin
;TIME:194
;Filament used: 1.56515m, 0m
;Layer height: 0.3
;MINX:91.201
;MINY:111.701
;MINZ:0.3
;MAXX:110.799
;MAXY:131.299
;MAXZ:7
;Generated with Cura_SteamEngine 5.0.1
T0
M140 S40
M105
M190 S40
M104 S200
M105
M109 S200
M82 ;absolute extrusion mode
M900 K0.020;
G28 ; home all axes
G1 Z5 F5000 ; lift nozzle
G1 X-45 Y70 F2500; go to glycerin roller;
G92 E0
G1 X-23 F5000; park to start
G92 E0; Extrude a small amount to clear nozzle
G1 E20 F4000
G4 P2000
G92 E0


G92 E0
G1 F1500 E-1
;LAYER_COUNT:20
;LAYER:0
M107
M204 S500
G1 F600 Z1.3
;MESH:Sajad.stl
G0 F6000 X101.565 Y130.882 Z1.3
;TYPE:WALL-INNER
G1 F600 Z0.3
G1 F1500 E0.15542
G1 F1800 X102.085 Y130.835 E0.35019
G1 X102.692 Y130.746 E0.57903
G1 X103.252 Y130.625 E0.79274
G1 X103.811 Y130.47 E1.00913
G1 X104.32 Y130.291 E1.21039
G1 X104.845 Y130.075 E1.42215
G1 X105.37 Y129.821 E1.6397
G1 X105.865 Y129.543 E1.85148
G1 X106.33 Y129.242 E2.0581
G1 X106.782 Y128.909 E2.26752
G1 X107.224 Y128.541 E2.48206
G1 X107.648 Y128.144 E2.69873
G1 X108.026 Y127.741 E2.90483
G1 X108.392 Y127.304 E3.11746
G1 X108.738 Y126.836 E3.33456
G1 X109.045 Y126.361 E3.54553
G1 X109.318 Y125.878 E3.75249
G1 X109.563 Y125.373 E3.96186
G1 X109.788 Y124.83 E4.18111
G1 X109.963 Y124.325 E4.38048
G1 X110.121 Y123.763 E4.59824
G1 X110.243 Y123.203 E4.81203
G1 X110.337 Y122.599 E5.04005
G1 X110.381 Y122.082 E5.2336
G1 X110.399 Y121.512 E5.44632
G1 X110.382 Y120.929 E5.66389
G1 X110.335 Y120.415 E5.85642
G1 X110.246 Y119.806 E6.086
G1 X110.125 Y119.248 E6.29898
G1 X109.97 Y118.689 E6.51537
G1 X109.792 Y118.18 E6.71651
G1 X109.574 Y117.653 E6.92925
G1 X109.322 Y117.13 E7.1458
G1 X109.043 Y116.635 E7.35775
G1 X108.742 Y116.17 E7.56438
G1 X108.409 Y115.718 E7.7738
G1 X108.041 Y115.276 E7.98834
G1 X107.644 Y114.852 E8.205
G1 X107.241 Y114.474 E8.41111
G1 X106.804 Y114.108 E8.62374
G1 X106.336 Y113.762 E8.84084
G1 X105.861 Y113.455 E9.05181
G1 X105.378 Y113.182 E9.25877
G1 X104.874 Y112.937 E9.46781
G1 X104.334 Y112.714 E9.68574
G1 X103.825 Y112.537 E9.88676
G1 X103.263 Y112.379 E10.10452
G1 X102.703 Y112.257 E10.31831
G1 X102.099 Y112.163 E10.54633
G1 X101.582 Y112.119 E10.73987
G1 X101.014 Y112.101 E10.95186
G1 X100.435 Y112.118 E11.16793
G1 X99.915 Y112.165 E11.36269
G1 X99.308 Y112.254 E11.59153
G1 X98.748 Y112.375 E11.80524
G1 X98.189 Y112.53 E12.02163
G1 X97.68 Y112.709 E12.22289
G1 X97.155 Y112.924 E12.43451
G1 X96.63 Y113.179 E12.65223
G1 X96.135 Y113.457 E12.864
G1 X95.67 Y113.758 E13.07062
G1 X95.218 Y114.091 E13.28004
G1 X94.776 Y114.459 E13.49458
G1 X94.352 Y114.856 E13.71125
G1 X93.974 Y115.259 E13.91736
G1 X93.608 Y115.696 E14.12998
G1 X93.262 Y116.164 E14.34709
G1 X92.955 Y116.639 E14.55806
G1 X92.682 Y117.122 E14.76501
G1 X92.437 Y117.627 E14.97439
G1 X92.212 Y118.17 E15.19364
G1 X92.037 Y118.675 E15.393
G1 X91.879 Y119.237 E15.61077
G1 X91.757 Y119.797 E15.82456
G1 X91.663 Y120.401 E16.05257
G1 X91.619 Y120.918 E16.24612
G1 X91.601 Y121.488 E16.45885
G1 X91.618 Y122.065 E16.67417
G1 X91.665 Y122.585 E16.86893
G1 X91.754 Y123.194 E17.09851
G1 X91.873 Y123.747 E17.30952
G1 X92.03 Y124.311 E17.5279
G1 X92.207 Y124.816 E17.72751
G1 X92.424 Y125.344 E17.94045
G1 X92.678 Y125.868 E18.15766
G1 X92.955 Y126.361 E18.3686
G1 X93.255 Y126.825 E18.57471
G1 X93.591 Y127.282 E18.78629
G1 X93.956 Y127.72 E18.99897
G1 X94.352 Y128.144 E19.21538
G1 X94.757 Y128.525 E19.4228
G1 X95.194 Y128.891 E19.63543
G1 X95.658 Y129.234 E19.85067
G1 X96.136 Y129.543 E20.06298
G1 X96.618 Y129.816 E20.26961
G1 X97.127 Y130.063 E20.48065
G1 X97.666 Y130.286 E20.69824
G1 X98.175 Y130.463 E20.89926
G1 X98.737 Y130.621 E21.11702
G1 X99.297 Y130.743 E21.33081
G1 X99.901 Y130.837 E21.55883
G1 X100.418 Y130.881 E21.75238
G1 X100.986 Y130.899 E21.96436
G1 X101.565 Y130.882 E22.18043
G0 F6000 X101.589 Y131.282
;TYPE:WALL-OUTER
G1 F1800 X102.132 Y131.233 E22.3838
G1 X102.764 Y131.14 E22.62209
G1 X103.348 Y131.013 E22.84502
G1 X103.931 Y130.852 E23.07064
G1 X104.462 Y130.665 E23.28063
G1 X105.008 Y130.441 E23.50077
G1 X105.556 Y130.176 E23.72784
G1 X106.072 Y129.885 E23.94881
G1 X106.558 Y129.571 E24.16465
G1 X107.029 Y129.224 E24.38287
G1 X107.489 Y128.841 E24.60615
G1 X107.931 Y128.427 E24.83205
G1 X108.326 Y128.007 E25.04712
G1 X108.706 Y127.552 E25.26825
G1 X109.067 Y127.064 E25.49468
G1 X109.387 Y126.568 E25.71486
G1 X109.672 Y126.064 E25.93084
G1 X109.928 Y125.537 E26.14939
G1 X110.162 Y124.972 E26.3775
G1 X110.345 Y124.445 E26.5856
G1 X110.509 Y123.86 E26.81223
G1 X110.637 Y123.277 E27.03488
G1 X110.735 Y122.647 E27.27271
G1 X110.781 Y122.105 E27.47561
G1 X110.799 Y121.512 E27.69691
G1 X110.782 Y120.905 E27.92342
G1 X110.733 Y120.368 E28.12457
G1 X110.64 Y119.734 E28.36359
G1 X110.513 Y119.152 E28.5858
G1 X110.352 Y118.569 E28.81141
G1 X110.166 Y118.038 E29.02128
G1 X109.94 Y117.489 E29.24274
G1 X109.676 Y116.944 E29.46863
G1 X109.385 Y116.428 E29.68961
G1 X109.071 Y115.942 E29.90544
G1 X108.724 Y115.471 E30.12367
G1 X108.341 Y115.011 E30.34695
G1 X107.927 Y114.569 E30.57285
G1 X107.507 Y114.174 E30.78792
G1 X107.052 Y113.794 E31.00905
G1 X106.564 Y113.433 E31.23548
G1 X106.068 Y113.113 E31.45566
G1 X105.564 Y112.828 E31.67164
G1 X105.038 Y112.572 E31.88985
G1 X104.476 Y112.34 E32.11665
G1 X103.945 Y112.155 E32.3264
G1 X103.36 Y111.991 E32.55303
G1 X102.777 Y111.863 E32.77568
G1 X102.147 Y111.765 E33.0135
G1 X101.605 Y111.719 E33.21641
G1 X101.014 Y111.701 E33.43696
G1 X100.411 Y111.718 E33.66198
G1 X99.868 Y111.767 E33.86536
G1 X99.236 Y111.86 E34.10364
G1 X98.652 Y111.987 E34.32658
G1 X98.069 Y112.148 E34.55219
G1 X97.538 Y112.335 E34.76219
G1 X96.992 Y112.559 E34.98233
G1 X96.444 Y112.824 E35.20939
G1 X95.928 Y113.115 E35.43037
G1 X95.442 Y113.429 E35.6462
G1 X94.971 Y113.776 E35.86442
G1 X94.511 Y114.159 E36.0877
G1 X94.069 Y114.573 E36.31361
G1 X93.674 Y114.993 E36.52868
G1 X93.294 Y115.448 E36.74981
G1 X92.933 Y115.936 E36.97623
G1 X92.613 Y116.432 E37.19641
G1 X92.328 Y116.936 E37.41239
G1 X92.072 Y117.463 E37.63094
G1 X91.838 Y118.028 E37.85906
G1 X91.655 Y118.555 E38.06715
G1 X91.491 Y119.14 E38.29378
G1 X91.363 Y119.723 E38.51643
G1 X91.265 Y120.353 E38.75426
G1 X91.219 Y120.895 E38.95716
G1 X91.201 Y121.488 E39.17847
G1 X91.218 Y122.089 E39.40274
G1 X91.267 Y122.632 E39.60611
G1 X91.36 Y123.265 E39.84477
G1 X91.485 Y123.843 E40.06536
G1 X91.648 Y124.431 E40.29297
G1 X91.833 Y124.958 E40.50131
G1 X92.059 Y125.508 E40.72311
G1 X92.323 Y126.054 E40.94934
G1 X92.613 Y126.568 E41.16948
G1 X92.925 Y127.052 E41.38429
G1 X93.276 Y127.528 E41.6049
G1 X93.656 Y127.985 E41.8266
G1 X94.069 Y128.427 E42.05225
G1 X94.491 Y128.824 E42.26837
G1 X94.946 Y129.205 E42.48974
G1 X95.43 Y129.563 E42.7143
G1 X95.928 Y129.885 E42.93552
G1 X96.432 Y130.17 E43.15149
G1 X96.963 Y130.428 E43.37171
G1 X97.524 Y130.66 E43.59816
G1 X98.055 Y130.845 E43.80791
G1 X98.64 Y131.009 E44.03454
G1 X99.223 Y131.137 E44.25719
G1 X99.853 Y131.235 E44.49502
G1 X100.395 Y131.281 E44.69792
G1 X100.986 Y131.299 E44.91848
G1 X101.589 Y131.282 E45.1435
G0 F6000 X101.788 Y131.265
G1 F1500 E44.1435
G1 F600 Z1.3
G0 F6000 X103.828 Y129.984 Z1.3
;TYPE:FILL
G1 F600 Z0.3
G1 F1500 E45.29893
G1 F2400 X103.828 Y127.156 E46.35382
G1 X101 Y124.328 E47.84568
G1 X98.171 Y127.156 E49.33779
G1 X98.171 Y129.984 E50.39269
G1 X97.834 Y129.984 E50.5184
G1 X97.265 Y129.752 E50.74761
G1 X96.78 Y129.517 E50.94864
G1 X96.313 Y129.252 E51.14894
G1 X95.851 Y128.953 E51.35421
G1 X95.4 Y128.62 E51.56334
G1 X94.987 Y128.274 E51.76431
G1 X94.594 Y127.904 E51.96565
G1 X94.212 Y127.496 E52.17414
G1 X93.856 Y127.067 E52.38209
G1 X93.531 Y126.626 E52.58644
G1 X93.244 Y126.181 E52.78396
G1 X92.981 Y125.714 E52.98388
G1 X92.732 Y125.2 E53.19693
G1 X92.515 Y124.667 E53.4116
G1 X92.515 Y124.328 E53.53805
G1 X95.343 Y124.328 E54.59295
G1 X98.171 Y121.5 E56.0848
G1 X95.343 Y118.671 E57.57692
G1 X92.515 Y118.671 E58.63181
G1 X92.515 Y118.334 E58.75752
G1 X92.744 Y117.772 E58.98389
G1 X92.986 Y117.275 E59.19009
G1 X93.243 Y116.821 E59.3847
G1 X93.546 Y116.353 E59.59266
G1 X93.873 Y115.91 E59.79805
G1 X94.232 Y115.479 E60.00729
G1 X94.588 Y115.102 E60.20071
G1 X94.996 Y114.718 E60.40971
G1 X95.432 Y114.355 E60.62133
G1 X95.858 Y114.042 E60.81852
G1 X96.317 Y113.745 E61.02245
G1 X96.781 Y113.483 E61.22122
G1 X97.293 Y113.235 E61.43343
G1 X97.836 Y113.015 E61.65198
G1 X98.171 Y113.015 E61.77694
G1 X98.171 Y115.843 E62.83184
G1 X101 Y118.671 E64.32395
G1 X103.828 Y115.843 E65.8158
G1 X103.828 Y113.015 E66.8707
G1 X104.163 Y113.015 E66.99566
G1 X104.736 Y113.248 E67.2264
G1 X105.214 Y113.48 E67.42459
G1 X105.682 Y113.745 E67.62521
G1 X106.141 Y114.042 E67.82914
G1 X106.59 Y114.373 E68.03722
G1 X107.021 Y114.732 E68.24646
G1 X107.398 Y115.088 E68.43988
G1 X107.782 Y115.496 E68.64888
G1 X108.137 Y115.923 E68.85601
G1 X108.458 Y116.358 E69.05767
G1 X108.755 Y116.817 E69.2616
G1 X109.017 Y117.281 E69.46037
G1 X109.262 Y117.785 E69.66941
G1 X109.484 Y118.33 E69.88892
G1 X109.484 Y118.671 E70.01612
G1 X106.656 Y118.671 E71.07102
G1 X103.828 Y121.5 E72.56314
G1 X106.656 Y124.328 E74.05499
G1 X109.484 Y124.328 E75.10989
G1 X109.484 Y124.669 E75.23709
G1 X109.256 Y125.228 E75.46228
G1 X109.018 Y125.717 E75.66515
G1 X108.757 Y126.179 E75.86308
G1 X108.457 Y126.643 E76.06919
G1 X108.127 Y127.09 E76.27645
G1 X107.768 Y127.521 E76.48568
G1 X107.412 Y127.898 E76.6791
G1 X107.004 Y128.282 E76.8881
G1 X106.568 Y128.645 E77.09972
G1 X106.143 Y128.958 E77.29661
G1 X105.692 Y129.249 E77.49682
G1 X105.219 Y129.517 E77.69961
G1 X104.707 Y129.765 E77.91183
G1 X104.167 Y129.984 E78.12919
G1 X103.828 Y129.984 E78.25564
G1 F1500 E77.25564
G1 F600 Z1.3
;MESH:NONMESH
G0 F6000 X101.565 Y130.882 Z1.3
;TIME_ELAPSED:13.084827
;LAYER:1
;MESH:Sajad.stl
G0 X101.565 Y130.882 Z1.6
;TYPE:WALL-INNER
G1 F600 Z0.6
G1 F1500 E78.41107
G1 F1800 X102.085 Y130.835 E78.60583
G1 X102.692 Y130.746 E78.83467
G1 X103.252 Y130.625 E79.04839
G1 X103.825 Y130.466 E79.2702
G1 X104.333 Y130.287 E79.47112
G1 X104.861 Y130.069 E79.6842
G1 X105.37 Y129.823 E79.89508
G1 X105.865 Y129.543 E80.10721
G1 X106.342 Y129.234 E80.31921
G1 X106.794 Y128.9 E80.52886
G1 X107.234 Y128.532 E80.74282
G1 X107.648 Y128.144 E80.95447
G1 X108.036 Y127.731 E81.16585
G1 X108.4 Y127.294 E81.378
G1 X108.738 Y126.836 E81.59033
G1 X109.045 Y126.361 E81.8013
G1 X109.325 Y125.866 E82.01344
G1 X109.569 Y125.361 E82.22265
G1 X109.788 Y124.831 E82.43656
G1 X109.963 Y124.325 E82.63628
G1 X110.127 Y123.745 E82.86111
G1 X110.246 Y123.192 E83.07212
G1 X110.339 Y122.585 E83.30118
G1 X110.382 Y122.067 E83.49507
G1 X110.399 Y121.498 E83.70741
G1 X110.382 Y120.93 E83.91938
G1 X110.335 Y120.415 E84.11229
G1 X110.246 Y119.806 E84.34187
G1 X110.125 Y119.248 E84.55485
G1 X109.966 Y118.675 E84.77667
G1 X109.787 Y118.167 E84.97758
G1 X109.569 Y117.639 E85.19066
G1 X109.323 Y117.13 E85.40154
G1 X109.043 Y116.635 E85.61368
G1 X108.734 Y116.158 E85.82568
G1 X108.4 Y115.706 E86.03532
G1 X108.032 Y115.266 E86.24929
G1 X107.644 Y114.852 E86.46094
G1 X107.231 Y114.464 E86.67232
G1 X106.794 Y114.1 E86.88447
G1 X106.336 Y113.762 E87.0968
G1 X105.861 Y113.455 E87.30777
G1 X105.366 Y113.175 E87.5199
G1 X104.861 Y112.931 E87.72912
G1 X104.335 Y112.714 E87.94136
G1 X103.825 Y112.537 E88.14274
G1 X103.25 Y112.375 E88.36557
G1 X102.69 Y112.254 E88.57928
G1 X102.085 Y112.161 E88.80761
G1 X101.567 Y112.118 E89.0015
G1 X101 Y112.101 E89.2131
G1 X100.435 Y112.118 E89.42395
G1 X99.915 Y112.165 E89.61871
G1 X99.308 Y112.254 E89.84755
G1 X98.748 Y112.375 E90.06126
G1 X98.175 Y112.534 E90.28308
G1 X97.667 Y112.713 E90.48399
G1 X97.139 Y112.931 E90.69708
G1 X96.63 Y113.177 E90.90795
G1 X96.135 Y113.457 E91.12009
G1 X95.658 Y113.766 E91.33209
G1 X95.206 Y114.1 E91.54174
G1 X94.766 Y114.468 E91.7557
G1 X94.352 Y114.856 E91.96735
G1 X93.964 Y115.269 E92.17873
G1 X93.6 Y115.706 E92.39088
G1 X93.262 Y116.164 E92.60321
G1 X92.955 Y116.639 E92.81418
G1 X92.675 Y117.134 E93.02632
G1 X92.431 Y117.639 E93.23553
G1 X92.212 Y118.169 E93.44944
G1 X92.037 Y118.675 E93.64916
G1 X91.873 Y119.255 E93.87399
G1 X91.754 Y119.808 E94.085
G1 X91.661 Y120.415 E94.31406
G1 X91.618 Y120.933 E94.50795
G1 X91.601 Y121.501 E94.71992
G1 X91.618 Y122.065 E94.9304
G1 X91.665 Y122.585 E95.12516
G1 X91.754 Y123.194 E95.35474
G1 X91.873 Y123.747 E95.56574
G1 X92.034 Y124.325 E95.78955
G1 X92.211 Y124.829 E95.98881
G1 X92.431 Y125.361 E96.20356
G1 X92.675 Y125.866 E96.41277
G1 X92.955 Y126.361 E96.62491
G1 X93.262 Y126.836 E96.83588
G1 X93.6 Y127.294 E97.04821
G1 X93.964 Y127.731 E97.26036
G1 X94.352 Y128.144 E97.47174
G1 X94.766 Y128.532 E97.68339
G1 X95.206 Y128.9 E97.89735
G1 X95.658 Y129.234 E98.10699
G1 X96.136 Y129.543 E98.31931
G1 X96.63 Y129.823 E98.53112
G1 X97.139 Y130.069 E98.742
G1 X97.665 Y130.286 E98.95425
G1 X98.175 Y130.463 E99.15562
G1 X98.75 Y130.625 E99.37846
G1 X99.31 Y130.746 E99.59217
G1 X99.915 Y130.839 E99.8205
G1 X100.433 Y130.882 E100.01439
G1 X101 Y130.899 E100.22598
G1 X101.565 Y130.882 E100.43683
G0 F6000 X101.589 Y131.282
;TYPE:WALL-OUTER
G1 F1800 X102.132 Y131.233 E100.64021
G1 X102.764 Y131.14 E100.87849
G1 X103.348 Y131.013 E101.10143
G1 X103.945 Y130.848 E101.33247
G1 X104.476 Y130.661 E101.54247
G1 X105.025 Y130.434 E101.76407
G1 X105.556 Y130.177 E101.98412
G1 X106.072 Y129.885 E102.20528
G1 X106.57 Y129.563 E102.4265
G1 X107.041 Y129.215 E102.64494
G1 X107.5 Y128.832 E102.86793
G1 X107.931 Y128.427 E103.08855
G1 X108.336 Y127.996 E103.30916
G1 X108.715 Y127.541 E103.53005
G1 X109.067 Y127.064 E103.75119
G1 X109.387 Y126.568 E103.97137
G1 X109.679 Y126.052 E104.19253
G1 X109.934 Y125.525 E104.41091
G1 X110.162 Y124.973 E104.63369
G1 X110.345 Y124.445 E104.84214
G1 X110.515 Y123.842 E105.07584
G1 X110.64 Y123.264 E105.29643
G1 X110.737 Y122.632 E105.53494
G1 X110.782 Y122.089 E105.73818
G1 X110.799 Y121.498 E105.95873
G1 X110.782 Y120.906 E106.17964
G1 X110.733 Y120.368 E106.38116
G1 X110.64 Y119.734 E106.62018
G1 X110.513 Y119.152 E106.84239
G1 X110.348 Y118.555 E107.07343
G1 X110.161 Y118.024 E107.28343
G1 X109.934 Y117.475 E107.50503
G1 X109.677 Y116.944 E107.72509
G1 X109.385 Y116.428 E107.94625
G1 X109.063 Y115.93 E108.16746
G1 X108.715 Y115.459 E108.3859
G1 X108.332 Y115 E108.6089
G1 X107.927 Y114.569 E108.82951
G1 X107.496 Y114.164 E109.05012
G1 X107.041 Y113.785 E109.27101
G1 X106.564 Y113.433 E109.49215
G1 X106.068 Y113.113 E109.71233
G1 X105.552 Y112.821 E109.93349
G1 X105.025 Y112.566 E110.15187
G1 X104.477 Y112.34 E110.37299
G1 X103.945 Y112.155 E110.58309
G1 X103.347 Y111.987 E110.81479
G1 X102.763 Y111.86 E111.03773
G1 X102.132 Y111.763 E111.27587
G1 X101.589 Y111.718 E111.47911
G1 X101 Y111.701 E111.69891
G1 X100.411 Y111.718 E111.91871
G1 X99.868 Y111.767 E112.12208
G1 X99.236 Y111.86 E112.36037
G1 X98.652 Y111.987 E112.58331
G1 X98.055 Y112.152 E112.81435
G1 X97.524 Y112.339 E113.02434
G1 X96.975 Y112.566 E113.24595
G1 X96.444 Y112.823 E113.466
G1 X95.928 Y113.115 E113.68716
G1 X95.43 Y113.437 E113.90837
G1 X94.959 Y113.785 E114.12682
G1 X94.5 Y114.168 E114.34981
G1 X94.069 Y114.573 E114.57043
G1 X93.664 Y115.004 E114.79104
G1 X93.285 Y115.459 E115.01193
G1 X92.933 Y115.936 E115.23306
G1 X92.613 Y116.432 E115.45324
G1 X92.321 Y116.948 E115.6744
G1 X92.066 Y117.475 E115.89279
G1 X91.838 Y118.027 E116.11557
G1 X91.655 Y118.555 E116.32402
G1 X91.485 Y119.158 E116.55772
G1 X91.36 Y119.736 E116.77831
G1 X91.263 Y120.368 E117.01681
G1 X91.218 Y120.911 E117.22006
G1 X91.201 Y121.501 E117.44023
G1 X91.218 Y122.089 E117.65966
G1 X91.267 Y122.632 E117.86303
G1 X91.36 Y123.265 E118.10169
G1 X91.485 Y123.843 E118.32228
G1 X91.652 Y124.445 E118.55531
G1 X91.837 Y124.972 E118.76366
G1 X92.066 Y125.525 E118.98692
G1 X92.321 Y126.052 E119.20531
G1 X92.613 Y126.568 E119.42647
G1 X92.933 Y127.064 E119.64665
G1 X93.285 Y127.541 E119.86778
G1 X93.664 Y127.996 E120.08867
G1 X94.069 Y128.427 E120.30929
G1 X94.5 Y128.832 E120.5299
G1 X94.959 Y129.215 E120.75289
G1 X95.43 Y129.563 E120.97134
G1 X95.928 Y129.885 E121.19255
G1 X96.444 Y130.177 E121.41371
G1 X96.975 Y130.434 E121.63376
G1 X97.523 Y130.66 E121.85488
G1 X98.055 Y130.845 E122.06498
G1 X98.653 Y131.013 E122.29668
