;FLAVOR:Marlin
;TIME:247
;Filament used: 2.30462m, 0m
;Layer height: 0.3
;MINX:91.201
;MINY:111.701
;MINZ:0.3
;MAXX:110.799
;MAXY:131.299
;MAXZ:7
;Generated with Cura_SteamEngine 5.0.1
T0
M140 S40
M105
M190 S40
M104 S200
M105
M109 S200
M82 ;absolute extrusion mode
M900 K0.020;
G28 ; home all axes
G1 Z5 F5000 ; lift nozzle
G1 X-45 Y70 F2500; go to glycerin roller;
G92 E0
G1 X-23 F5000; park to start
G92 E0; Extrude a small amount to clear nozzle
G1 E20 F4000
G4 P2000
G92 E0


G92 E0
G1 F1500 E-1
;LAYER_COUNT:20
;LAYER:0
M107
M204 S500
G1 F600 Z1.3
;MESH:Sajad.stl
G0 F6000 X101.565 Y130.882 Z1.3
;TYPE:WALL-INNER
G1 F600 Z0.3
G1 F1500 E0.15542
G1 F1800 X102.085 Y130.835 E0.35019
G1 X102.692 Y130.746 E0.57903
G1 X103.252 Y130.625 E0.79274
G1 X103.811 Y130.47 E1.00913
G1 X104.32 Y130.291 E1.21039
G1 X104.845 Y130.075 E1.42215
G1 X105.37 Y129.821 E1.6397
G1 X105.865 Y129.543 E1.85148
G1 X106.33 Y129.242 E2.0581
G1 X106.782 Y128.909 E2.26752
G1 X107.224 Y128.541 E2.48206
G1 X107.648 Y128.144 E2.69873
G1 X108.026 Y127.741 E2.90483
G1 X108.392 Y127.304 E3.11746
G1 X108.738 Y126.836 E3.33456
G1 X109.045 Y126.361 E3.54553
G1 X109.318 Y125.878 E3.75249
G1 X109.563 Y125.373 E3.96186
G1 X109.788 Y124.83 E4.18111
G1 X109.963 Y124.325 E4.38048
G1 X110.121 Y123.763 E4.59824
G1 X110.243 Y123.203 E4.81203
G1 X110.337 Y122.599 E5.04005
G1 X110.381 Y122.082 E5.2336
G1 X110.399 Y121.512 E5.44632
G1 X110.382 Y120.929 E5.66389
G1 X110.335 Y120.415 E5.85642
G1 X110.246 Y119.806 E6.086
G1 X110.125 Y119.248 E6.29898
G1 X109.97 Y118.689 E6.51537
G1 X109.792 Y118.18 E6.71651
G1 X109.574 Y117.653 E6.92925
G1 X109.322 Y117.13 E7.1458
G1 X109.043 Y116.635 E7.35775
G1 X108.742 Y116.17 E7.56438
G1 X108.409 Y115.718 E7.7738
G1 X108.041 Y115.276 E7.98834
G1 X107.644 Y114.852 E8.205
G1 X107.241 Y114.474 E8.41111
G1 X106.804 Y114.108 E8.62374
G1 X106.336 Y113.762 E8.84084
G1 X105.861 Y113.455 E9.05181
G1 X105.378 Y113.182 E9.25877
G1 X104.874 Y112.937 E9.46781
G1 X104.334 Y112.714 E9.68574
G1 X103.825 Y112.537 E9.88676
G1 X103.263 Y112.379 E10.10452
G1 X102.703 Y112.257 E10.31831
G1 X102.099 Y112.163 E10.54633
G1 X101.582 Y112.119 E10.73987
G1 X101.014 Y112.101 E10.95186
G1 X100.435 Y112.118 E11.16793
G1 X99.915 Y112.165 E11.36269
G1 X99.308 Y112.254 E11.59153
G1 X98.748 Y112.375 E11.80524
G1 X98.189 Y112.53 E12.02163
G1 X97.68 Y112.709 E12.22289
G1 X97.155 Y112.924 E12.43451
G1 X96.63 Y113.179 E12.65223
G1 X96.135 Y113.457 E12.864
G1 X95.67 Y113.758 E13.07062
G1 X95.218 Y114.091 E13.28004
G1 X94.776 Y114.459 E13.49458
G1 X94.352 Y114.856 E13.71125
G1 X93.974 Y115.259 E13.91736
G1 X93.608 Y115.696 E14.12998
G1 X93.262 Y116.164 E14.34709
G1 X92.955 Y116.639 E14.55806
G1 X92.682 Y117.122 E14.76501
G1 X92.437 Y117.627 E14.97439
G1 X92.212 Y118.17 E15.19364
G1 X92.037 Y118.675 E15.393
G1 X91.879 Y119.237 E15.61077
G1 X91.757 Y119.797 E15.82456
G1 X91.663 Y120.401 E16.05257
G1 X91.619 Y120.918 E16.24612
G1 X91.601 Y121.488 E16.45885
G1 X91.618 Y122.065 E16.67417
G1 X91.665 Y122.585 E16.86893
G1 X91.754 Y123.194 E17.09851
G1 X91.873 Y123.747 E17.30952
G1 X92.03 Y124.311 E17.5279
G1 X92.207 Y124.816 E17.72751
G1 X92.424 Y125.344 E17.94045
G1 X92.678 Y125.868 E18.15766
G1 X92.955 Y126.361 E18.3686
G1 X93.255 Y126.825 E18.57471
G1 X93.591 Y127.282 E18.78629
G1 X93.956 Y127.72 E18.99897
G1 X94.352 Y128.144 E19.21538
G1 X94.757 Y128.525 E19.4228
G1 X95.194 Y128.891 E19.63543
G1 X95.658 Y129.234 E19.85067
G1 X96.136 Y129.543 E20.06298
G1 X96.618 Y129.816 E20.26961
G1 X97.127 Y130.063 E20.48065
G1 X97.666 Y130.286 E20.69824
G1 X98.175 Y130.463 E20.89926
G1 X98.737 Y130.621 E21.11702
G1 X99.297 Y130.743 E21.33081
G1 X99.901 Y130.837 E21.55883
G1 X100.418 Y130.881 E21.75238
G1 X100.986 Y130.899 E21.96436
G1 X101.565 Y130.882 E22.18043
G0 F6000 X101.589 Y131.282
;TYPE:WALL-OUTER
G1 F1800 X102.132 Y131.233 E22.3838
G1 X102.764 Y131.14 E22.62209
G1 X103.348 Y131.013 E22.84502
G1 X103.931 Y130.852 E23.07064
G1 X104.462 Y130.665 E23.28063
G1 X105.008 Y130.441 E23.50077
G1 X105.556 Y130.176 E23.72784
G1 X106.072 Y129.885 E23.94881
G1 X106.558 Y129.571 E24.16465
G1 X107.029 Y129.224 E24.38287
G1 X107.489 Y128.841 E24.60615
G1 X107.931 Y128.427 E24.83205
G1 X108.326 Y128.007 E25.04712
G1 X108.706 Y127.552 E25.26825
G1 X109.067 Y127.064 E25.49468
G1 X109.387 Y126.568 E25.71486
G1 X109.672 Y126.064 E25.93084
G1 X109.928 Y125.537 E26.14939
G1 X110.162 Y124.972 E26.3775
G1 X110.345 Y124.445 E26.5856
G1 X110.509 Y123.86 E26.81223
G1 X110.637 Y123.277 E27.03488
G1 X110.735 Y122.647 E27.27271
G1 X110.781 Y122.105 E27.47561
G1 X110.799 Y121.512 E27.69691
G1 X110.782 Y120.905 E27.92342
G1 X110.733 Y120.368 E28.12457
G1 X110.64 Y119.734 E28.36359
G1 X110.513 Y119.152 E28.5858
G1 X110.352 Y118.569 E28.81141
G1 X110.166 Y118.038 E29.02128
G1 X109.94 Y117.489 E29.24274
G1 X109.676 Y116.944 E29.46863
G1 X109.385 Y116.428 E29.68961
G1 X109.071 Y115.942 E29.90544
G1 X108.724 Y115.471 E30.12367
G1 X108.341 Y115.011 E30.34695
G1 X107.927 Y114.569 E30.57285
G1 X107.507 Y114.174 E30.78792
G1 X107.052 Y113.794 E31.00905
G1 X106.564 Y113.433 E31.23548
G1 X106.068 Y113.113 E31.45566
G1 X105.564 Y112.828 E31.67164
G1 X105.038 Y112.572 E31.88985
G1 X104.476 Y112.34 E32.11665
G1 X103.945 Y112.155 E32.3264
G1 X103.36 Y111.991 E32.55303
G1 X102.777 Y111.863 E32.77568
G1 X102.147 Y111.765 E33.0135
G1 X101.605 Y111.719 E33.21641
G1 X101.014 Y111.701 E33.43696
G1 X100.411 Y111.718 E33.66198
G1 X99.868 Y111.767 E33.86536
G1 X99.236 Y111.86 E34.10364
G1 X98.652 Y111.987 E34.32658
G1 X98.069 Y112.148 E34.55219
G1 X97.538 Y112.335 E34.76219
G1 X96.992 Y112.559 E34.98233
G1 X96.444 Y112.824 E35.20939
G1 X95.928 Y113.115 E35.43037
G1 X95.442 Y113.429 E35.6462
G1 X94.971 Y113.776 E35.86442
G1 X94.511 Y114.159 E36.0877
G1 X94.069 Y114.573 E36.31361
G1 X93.674 Y114.993 E36.52868
G1 X93.294 Y115.448 E36.74981
G1 X92.933 Y115.936 E36.97623
G1 X92.613 Y116.432 E37.19641
G1 X92.328 Y116.936 E37.41239
G1 X92.072 Y117.463 E37.63094
G1 X91.838 Y118.028 E37.85906
G1 X91.655 Y118.555 E38.06715
G1 X91.491 Y119.14 E38.29378
G1 X91.363 Y119.723 E38.51643
G1 X91.265 Y120.353 E38.75426
G1 X91.219 Y120.895 E38.95716
G1 X91.201 Y121.488 E39.17847
G1 X91.218 Y122.089 E39.40274
G1 X91.267 Y122.632 E39.60611
G1 X91.36 Y123.265 E39.84477
G1 X91.485 Y123.843 E40.06536
G1 X91.648 Y124.431 E40.29297
G1 X91.833 Y124.958 E40.50131
G1 X92.059 Y125.508 E40.72311
G1 X92.323 Y126.054 E40.94934
G1 X92.613 Y126.568 E41.16948
G1 X92.925 Y127.052 E41.38429
G1 X93.276 Y127.528 E41.6049
G1 X93.656 Y127.985 E41.8266
G1 X94.069 Y128.427 E42.05225
G1 X94.491 Y128.824 E42.26837
G1 X94.946 Y129.205 E42.48974
G1 X95.43 Y129.563 E42.7143
G1 X95.928 Y129.885 E42.93552
G1 X96.432 Y130.17 E43.15149
G1 X96.963 Y130.428 E43.37171
G1 X97.524 Y130.66 E43.59816
G1 X98.055 Y130.845 E43.80791
G1 X98.64 Y131.009 E44.03454
G1 X99.223 Y131.137 E44.25719
G1 X99.853 Y131.235 E44.49502
G1 X100.395 Y131.281 E44.69792
G1 X100.986 Y131.299 E44.91848
G1 X101.589 Y131.282 E45.1435
G0 F6000 X101.788 Y131.265
G1 F1500 E44.1435
G1 F600 Z1.3
G0 F6000 X94.596 Y115.095 Z1.3
;TYPE:FILL
G1 F600 Z0.3
G1 F1500 E45.29893
G1 F2400 X107.404 Y127.903 E52.05552
G1 X107.768 Y127.521 E52.25234
G1 X108.127 Y127.09 E52.46158
G1 X108.457 Y126.643 E52.66884
G1 X108.757 Y126.179 E52.87494
G1 X109.018 Y125.717 E53.07288
G1 X109.255 Y125.229 E53.27524
G1 X97.271 Y113.245 E59.59715
G1 X97.796 Y113.029 E59.80891
G1 X98.292 Y112.855 E60.00499
G1 X98.835 Y112.705 E60.21512
G1 X99.362 Y112.59 E60.41633
G1 X100.212 Y112.464 E60.73686
G1 X100.993 Y112.441 E61.02831
G1 X110.051 Y121.499 E65.80667
G1 X100.991 Y130.558 E70.58582
G1 X100.145 Y130.532 E70.90155
G1 X99.353 Y130.408 E71.20058
G1 X98.825 Y130.292 E71.40223
G1 X98.271 Y130.136 E71.61692
G1 X97.782 Y129.966 E71.81003
G1 X97.271 Y129.754 E72.0164
G1 X109.255 Y117.77 E78.33831
G1 X109.017 Y117.281 E78.54117
G1 X108.755 Y116.817 E78.73994
G1 X108.458 Y116.358 E78.94387
G1 X108.137 Y115.923 E79.14553
G1 X107.782 Y115.496 E79.35267
G1 X107.404 Y115.095 E79.55823
G1 X94.595 Y127.904 E86.31535
G1 X94.212 Y127.496 E86.52409
G1 X93.856 Y127.067 E86.73204
G1 X93.531 Y126.626 E86.93639
G1 X93.244 Y126.181 E87.13391
G1 X92.981 Y125.714 E87.33384
G1 X92.746 Y125.227 E87.53554
G1 X104.73 Y113.243 E93.85745
G1 X104.218 Y113.034 E94.06373
G1 X103.729 Y112.864 E94.25685
G1 X103.175 Y112.708 E94.47154
G1 X102.647 Y112.592 E94.67319
G1 X101.855 Y112.468 E94.97222
G1 X101.008 Y112.44 E95.28834
G1 X91.949 Y121.499 E100.06723
G1 X101.008 Y130.558 E104.84611
G1 X101.788 Y130.536 E105.13718
G1 X102.638 Y130.41 E105.45771
G1 X103.165 Y130.295 E105.65892
G1 X103.708 Y130.145 E105.86906
G1 X104.204 Y129.971 E106.06513
G1 X104.728 Y129.753 E106.27683
G1 X92.744 Y117.769 E112.59874
G1 X92.986 Y117.275 E112.80393
G1 X93.243 Y116.821 E112.99854
G1 X93.546 Y116.353 E113.2065
G1 X93.873 Y115.91 E113.41189
G1 X94.232 Y115.479 E113.62113
G1 X94.588 Y115.102 E113.81455
G1 X94.996 Y114.718 E114.02355
G1 X95.432 Y114.355 E114.23517
G1 X95.858 Y114.042 E114.43236
G1 X96.317 Y113.745 E114.63629
G1 X96.401 Y113.691
G1 F1500 E113.63629
G1 F600 Z1.3
;MESH:NONMESH
G0 F6000 X101.565 Y130.882 Z1.3
;TIME_ELAPSED:15.779461
;LAYER:1
;MESH:Sajad.stl
G0 X101.565 Y130.882 Z1.6
;TYPE:WALL-INNER
G1 F600 Z0.6
G1 F1500 E114.79172
G1 F1800 X102.085 Y130.835 E114.98648
G1 X102.692 Y130.746 E115.21532
G1 X103.252 Y130.625 E115.42903
G1 X103.825 Y130.466 E115.65085
G1 X104.333 Y130.287 E115.85176
G1 X104.861 Y130.069 E116.06485
G1 X105.37 Y129.823 E116.27572
G1 X105.865 Y129.543 E116.48786
G1 X106.342 Y129.234 E116.69986
G1 X106.794 Y128.9 E116.90951
G1 X107.234 Y128.532 E117.12347
G1 X107.648 Y128.144 E117.33512
G1 X108.036 Y127.731 E117.5465
G1 X108.4 Y127.294 E117.75865
G1 X108.738 Y126.836 E117.97098
G1 X109.045 Y126.361 E118.18195
G1 X109.325 Y125.866 E118.39409
G1 X109.569 Y125.361 E118.6033
G1 X109.788 Y124.831 E118.81721
G1 X109.963 Y124.325 E119.01693
G1 X110.127 Y123.745 E119.24176
G1 X110.246 Y123.192 E119.45277
G1 X110.339 Y122.585 E119.68183
G1 X110.382 Y122.067 E119.87572
G1 X110.399 Y121.498 E120.08806
G1 X110.382 Y120.93 E120.30003
G1 X110.335 Y120.415 E120.49294
G1 X110.246 Y119.806 E120.72252
G1 X110.125 Y119.248 E120.9355
G1 X109.966 Y118.675 E121.15732
G1 X109.787 Y118.167 E121.35823
G1 X109.569 Y117.639 E121.57131
G1 X109.323 Y117.13 E121.78219
G1 X109.043 Y116.635 E121.99433
G1 X108.734 Y116.158 E122.20633
G1 X108.4 Y115.706 E122.41597
G1 X108.032 Y115.266 E122.62994
G1 X107.644 Y114.852 E122.84159
G1 X107.231 Y114.464 E123.05297
G1 X106.794 Y114.1 E123.26512
G1 X106.336 Y113.762 E123.47745
G1 X105.861 Y113.455 E123.68842
G1 X105.366 Y113.175 E123.90055
G1 X104.861 Y112.931 E124.10976
G1 X104.335 Y112.714 E124.32201
G1 X103.825 Y112.537 E124.52339
G1 X103.25 Y112.375 E124.74622
G1 X102.69 Y112.254 E124.95993
G1 X102.085 Y112.161 E125.18826
G1 X101.567 Y112.118 E125.38215
G1 X101 Y112.101 E125.59375
G1 X100.435 Y112.118 E125.8046
G1 X99.915 Y112.165 E125.99936
G1 X99.308 Y112.254 E126.2282
G1 X98.748 Y112.375 E126.44191
G1 X98.175 Y112.534 E126.66373
G1 X97.667 Y112.713 E126.86464
G1 X97.139 Y112.931 E127.07772
G1 X96.63 Y113.177 E127.2886
G1 X96.135 Y113.457 E127.50074
G1 X95.658 Y113.766 E127.71274
G1 X95.206 Y114.1 E127.92239
G1 X94.766 Y114.468 E128.13635
G1 X94.352 Y114.856 E128.348
G1 X93.964 Y115.269 E128.55938
G1 X93.6 Y115.706 E128.77153
G1 X93.262 Y116.164 E128.98386
G1 X92.955 Y116.639 E129.19483
G1 X92.675 Y117.134 E129.40697
G1 X92.431 Y117.639 E129.61618
G1 X92.212 Y118.169 E129.83009
G1 X92.037 Y118.675 E130.02981
G1 X91.873 Y119.255 E130.25464
G1 X91.754 Y119.808 E130.46565
G1 X91.661 Y120.415 E130.69471
G1 X91.618 Y120.933 E130.8886
G1 X91.601 Y121.501 E131.10057
G1 X91.618 Y122.065 E131.31105
G1 X91.665 Y122.585 E131.50581
G1 X91.754 Y123.194 E131.73539
G1 X91.873 Y123.747 E131.94639
G1 X92.034 Y124.325 E132.1702
G1 X92.211 Y124.829 E132.36946
G1 X92.431 Y125.361 E132.58421
G1 X92.675 Y125.866 E132.79342
G1 X92.955 Y126.361 E133.00556
G1 X93.262 Y126.836 E133.21653
G1 X93.6 Y127.294 E133.42886
G1 X93.964 Y127.731 E133.64101
G1 X94.352 Y128.144 E133.85238
G1 X94.766 Y128.532 E134.06404
G1 X95.206 Y128.9 E134.278
G1 X95.658 Y129.234 E134.48764
G1 X96.136 Y129.543 E134.69996
G1 X96.63 Y129.823 E134.91177
G1 X97.139 Y130.069 E135.12265
G1 X97.665 Y130.286 E135.3349
G1 X98.175 Y130.463 E135.53627
G1 X98.75 Y130.625 E135.75911
G1 X99.31 Y130.746 E135.97282
G1 X99.915 Y130.839 E136.20115
G1 X100.433 Y130.882 E136.39504
G1 X101 Y130.899 E136.60663
G1 X101.565 Y130.882 E136.81748
G0 F6000 X101.589 Y131.282
;TYPE:WALL-OUTER
G1 F1800 X102.132 Y131.233 E137.02086
G1 X102.764 Y131.14 E137.25914
G1 X103.348 Y131.013 E137.48208
G1 X103.945 Y130.848 E137.71312
G1 X104.476 Y130.661 E137.92312
G1 X105.025 Y130.434 E138.14472
G1 X105.556 Y130.177 E138.36477
G1 X106.072 Y129.885 E138.58593
G1 X106.57 Y129.563 E138.80715
G1 X107.041 Y129.215 E139.02559
G1 X107.5 Y128.832 E139.24858
G1 X107.931 Y128.427 E139.4692
G1 X108.336 Y127.996 E139.68981
G1 X108.715 Y127.541 E139.9107
G1 X109.067 Y127.064 E140.13183
G1 X109.387 Y126.568 E140.35202
G1 X109.679 Y126.052 E140.57318
G1 X109.934 Y125.525 E140.79156
G1 X110.162 Y124.973 E141.01434
G1 X110.345 Y124.445 E141.22279
G1 X110.515 Y123.842 E141.45649
G1 X110.64 Y123.264 E141.67708
G1 X110.737 Y122.632 E141.91559
G1 X110.782 Y122.089 E142.11883
G1 X110.799 Y121.498 E142.33938
G1 X110.782 Y120.906 E142.56029
G1 X110.733 Y120.368 E142.76181
G1 X110.64 Y119.734 E143.00083
G1 X110.513 Y119.152 E143.22304
G1 X110.348 Y118.555 E143.45408
G1 X110.161 Y118.024 E143.66408
G1 X109.934 Y117.475 E143.88568
G1 X109.677 Y116.944 E144.10573
G1 X109.385 Y116.428 E144.32689
G1 X109.063 Y115.93 E144.54811
G1 X108.715 Y115.459 E144.76655
G1 X108.332 Y115 E144.98955
G1 X107.927 Y114.569 E145.21016
G1 X107.496 Y114.164 E145.43077
G1 X107.041 Y113.785 E145.65166
G1 X106.564 Y113.433 E145.8728
G1 X106.068 Y113.113 E146.09298
G1 X105.552 Y112.821 E146.31414
G1 X105.025 Y112.566 E146.53252
G1 X104.477 Y112.34 E146.75364
G1 X103.945 Y112.155 E146.96374
G1 X103.347 Y111.987 E147.19544
G1 X102.763 Y111.86 E147.41838
G1 X102.132 Y111.763 E147.65652
G1 X101.589 Y111.718 E147.85976
G1 X101 Y111.701 E148.07956
G1 X100.411 Y111.718 E148.29936
G1 X99.868 Y111.767 E148.50273
G1 X99.236 Y111.86 E148.74102
G1 X98.652 Y111.987 E148.96396
G1 X98.055 Y112.152 E149.195
G1 X97.524 Y112.339 E149.40499
G1 X96.975 Y112.566 E149.6266
G1 X96.444 Y112.823 E149.84665
G1 X95.928 Y113.115 E150.06781
G1 X95.43 Y113.437 E150.28902
G1 X94.959 Y113.785 E150.50747
G1 X94.5 Y114.168 E150.73046
G1 X94.069 Y114.573 E150.95108
G1 X93.664 Y115.004 E151.17169
G1 X93.285 Y115.459 E151.39258
G1 X92.933 Y115.936 E151.61371
G1 X92.613 Y116.432 E151.83389
G1 X92.321 Y116.948 E152.05505
G1 X92.066 Y117.475 E152.27344
G1 X91.838 Y118.027 E152.49622
G1 X91.655 Y118.555 E152.70467
G1 X91.485 Y119.158 E152.93837
G1 X91.36 Y119.736 E153.15896
G1 X91.263 Y120.368 E153.39746
G1 X91.218 Y120.911 E153.60071
G1 X91.201 Y121.501 E153.82088
G1 X91.218 Y122.089 E154.04031
G1 X91.267 Y122.632 E154.24368
G1 X91.36 Y123.265 E154.48234
G1 X91.485 Y123.843 E154.70293
G1 X91.652 Y124.445 E154.93596
G1 X91.837 Y124.972 E155.14431
G1 X92.066 Y125.525 E155.36757
G1 X92.321 Y126.052 E155.58596
G1 X92.613 Y126.568 E155.80712
G1 X92.933 Y127.064 E156.0273
G1 X93.285 Y127.541 E156.24843
G1 X93.664 Y127.996 E156.46932
G1 X94.069 Y128.427 E156.68994
G1 X94.5 Y128.832 E156.91055
G1 X94.959 Y129.215 E157.13354
G1 X95.43 Y129.563 E157.35199
G1 X95.928 Y129.885 E157.5732
G1 X96.444 Y130.177 E157.79436
G1 X96.975 Y130.434 E158.01441
G1 X97.523 Y130.66 E158.23553
G1 X98.055 Y130.845 E158.44563
G1 X98.653 Y131.013 E158.67733
G1 X99.237 Y131.14 E158.90027
G1 X99.868 Y131.237 E159.13841
G1 X100.411 Y131.282 E159.34165
G1 X101 Y131.299 E159.56145
G1 X101.589 Y131.282 E159.78125
G0 F6000 X101.788 Y131.265
G1 F1500 E158.78125
G1 F600 Z1.6
G0 F6000 X91.941 Y121.507 Z1.6
;TYPE:FILL
G1 F600 Z0.6
G1 F1500 E159.93668
G1 F2400 X101.008 Y112.44 E164.71978
G1 X101.833 Y112.467 E165.02769
G1 X102.634 Y112.589 E165.32992
