;FLAVOR:Marlin
;TIME:461
;Filament used: 4.73572m, 0m
;Layer height: 0.3
;MINX:91.201
;MINY:111.701
;MINZ:0.3
;MAXX:110.799
;MAXY:131.299
;MAXZ:6
;Generated with Cura_SteamEngine 5.0.1
T0
M140 S40
M105
M190 S40
M104 S200
M105
M109 S200
M82 ;absolute extrusion mode
M900 K0.020;
G28 ; home all axes
G1 Z5 F5000 ; lift nozzle
G1 X-45 Y70 F2500; go to glycerin roller;
G92 E0
G1 X-23 F5000; park to start
G92 E0; Extrude a small amount to clear nozzle
G1 E20 F4000
G4 P2000
G92 E0


G92 E0
G1 F1500 E-1
;LAYER_COUNT:20
;LAYER:0
M107
M204 S500
G1 F600 Z1.3
;MESH:Sajad.stl
G0 F6000 X101.565 Y130.882 Z1.3
;TYPE:WALL-INNER
G1 F600 Z0.3
G1 F1500 E0.15542
G1 F1800 X102.085 Y130.835 E0.35019
G1 X102.692 Y130.746 E0.57903
G1 X103.252 Y130.625 E0.79274
G1 X103.811 Y130.47 E1.00913
G1 X104.32 Y130.291 E1.21039
G1 X104.845 Y130.075 E1.42215
G1 X105.37 Y129.821 E1.6397
G1 X105.865 Y129.543 E1.85148
G1 X106.33 Y129.242 E2.0581
G1 X106.782 Y128.909 E2.26752
G1 X107.224 Y128.541 E2.48206
G1 X107.648 Y128.144 E2.69873
G1 X108.026 Y127.741 E2.90483
G1 X108.392 Y127.304 E3.11746
G1 X108.738 Y126.836 E3.33456
G1 X109.045 Y126.361 E3.54553
G1 X109.318 Y125.878 E3.75249
G1 X109.563 Y125.373 E3.96186
G1 X109.788 Y124.83 E4.18111
G1 X109.963 Y124.325 E4.38048
G1 X110.121 Y123.763 E4.59824
G1 X110.243 Y123.203 E4.81203
G1 X110.337 Y122.599 E5.04005
G1 X110.381 Y122.082 E5.2336
G1 X110.399 Y121.512 E5.44632
G1 X110.382 Y120.929 E5.66389
G1 X110.335 Y120.415 E5.85642
G1 X110.246 Y119.806 E6.086
G1 X110.125 Y119.248 E6.29898
G1 X109.97 Y118.689 E6.51537
G1 X109.792 Y118.18 E6.71651
G1 X109.574 Y117.653 E6.92925
G1 X109.322 Y117.13 E7.1458
G1 X109.043 Y116.635 E7.35775
G1 X108.742 Y116.17 E7.56438
G1 X108.409 Y115.718 E7.7738
G1 X108.041 Y115.276 E7.98834
G1 X107.644 Y114.852 E8.205
G1 X107.241 Y114.474 E8.41111
G1 X106.804 Y114.108 E8.62374
G1 X106.336 Y113.762 E8.84084
G1 X105.861 Y113.455 E9.05181
G1 X105.378 Y113.182 E9.25877
G1 X104.874 Y112.937 E9.46781
G1 X104.334 Y112.714 E9.68574
G1 X103.825 Y112.537 E9.88676
G1 X103.263 Y112.379 E10.10452
G1 X102.703 Y112.257 E10.31831
G1 X102.099 Y112.163 E10.54633
G1 X101.582 Y112.119 E10.73987
G1 X101.014 Y112.101 E10.95186
G1 X100.435 Y112.118 E11.16793
G1 X99.915 Y112.165 E11.36269
G1 X99.308 Y112.254 E11.59153
G1 X98.748 Y112.375 E11.80524
G1 X98.189 Y112.53 E12.02163
G1 X97.68 Y112.709 E12.22289
G1 X97.155 Y112.924 E12.43451
G1 X96.63 Y113.179 E12.65223
G1 X96.135 Y113.457 E12.864
G1 X95.67 Y113.758 E13.07062
G1 X95.218 Y114.091 E13.28004
G1 X94.776 Y114.459 E13.49458
G1 X94.352 Y114.856 E13.71125
G1 X93.974 Y115.259 E13.91736
G1 X93.608 Y115.696 E14.12998
G1 X93.262 Y116.164 E14.34709
G1 X92.955 Y116.639 E14.55806
G1 X92.682 Y117.122 E14.76501
G1 X92.437 Y117.627 E14.97439
G1 X92.212 Y118.17 E15.19364
G1 X92.037 Y118.675 E15.393
G1 X91.879 Y119.237 E15.61077
G1 X91.757 Y119.797 E15.82456
G1 X91.663 Y120.401 E16.05257
G1 X91.619 Y120.918 E16.24612
G1 X91.601 Y121.488 E16.45885
G1 X91.618 Y122.065 E16.67417
G1 X91.665 Y122.585 E16.86893
G1 X91.754 Y123.194 E17.09851
G1 X91.873 Y123.747 E17.30952
G1 X92.03 Y124.311 E17.5279
G1 X92.207 Y124.816 E17.72751
G1 X92.424 Y125.344 E17.94045
G1 X92.678 Y125.868 E18.15766
G1 X92.955 Y126.361 E18.3686
G1 X93.255 Y126.825 E18.57471
G1 X93.591 Y127.282 E18.78629
G1 X93.956 Y127.72 E18.99897
G1 X94.352 Y128.144 E19.21538
G1 X94.757 Y128.525 E19.4228
G1 X95.194 Y128.891 E19.63543
G1 X95.658 Y129.234 E19.85067
G1 X96.136 Y129.543 E20.06298
G1 X96.618 Y129.816 E20.26961
G1 X97.127 Y130.063 E20.48065
G1 X97.666 Y130.286 E20.69824
G1 X98.175 Y130.463 E20.89926
G1 X98.737 Y130.621 E21.11702
G1 X99.297 Y130.743 E21.33081
G1 X99.901 Y130.837 E21.55883
G1 X100.418 Y130.881 E21.75238
G1 X100.986 Y130.899 E21.96436
G1 X101.565 Y130.882 E22.18043
G0 F6000 X101.589 Y131.282
;TYPE:WALL-OUTER
G1 F1800 X102.132 Y131.233 E22.3838
G1 X102.764 Y131.14 E22.62209
G1 X103.348 Y131.013 E22.84502
G1 X103.931 Y130.852 E23.07064
G1 X104.462 Y130.665 E23.28063
G1 X105.008 Y130.441 E23.50077
G1 X105.556 Y130.176 E23.72784
G1 X106.072 Y129.885 E23.94881
G1 X106.558 Y129.571 E24.16465
G1 X107.029 Y129.224 E24.38287
G1 X107.489 Y128.841 E24.60615
G1 X107.931 Y128.427 E24.83205
G1 X108.326 Y128.007 E25.04712
G1 X108.706 Y127.552 E25.26825
G1 X109.067 Y127.064 E25.49468
G1 X109.387 Y126.568 E25.71486
G1 X109.672 Y126.064 E25.93084
G1 X109.928 Y125.537 E26.14939
G1 X110.162 Y124.972 E26.3775
G1 X110.345 Y124.445 E26.5856
G1 X110.509 Y123.86 E26.81223
G1 X110.637 Y123.277 E27.03488
G1 X110.735 Y122.647 E27.27271
G1 X110.781 Y122.105 E27.47561
G1 X110.799 Y121.512 E27.69691
G1 X110.782 Y120.905 E27.92342
G1 X110.733 Y120.368 E28.12457
G1 X110.64 Y119.734 E28.36359
G1 X110.513 Y119.152 E28.5858
G1 X110.352 Y118.569 E28.81141
G1 X110.166 Y118.038 E29.02128
G1 X109.94 Y117.489 E29.24274
G1 X109.676 Y116.944 E29.46863
G1 X109.385 Y116.428 E29.68961
G1 X109.071 Y115.942 E29.90544
G1 X108.724 Y115.471 E30.12367
G1 X108.341 Y115.011 E30.34695
G1 X107.927 Y114.569 E30.57285
G1 X107.507 Y114.174 E30.78792
G1 X107.052 Y113.794 E31.00905
G1 X106.564 Y113.433 E31.23548
G1 X106.068 Y113.113 E31.45566
G1 X105.564 Y112.828 E31.67164
G1 X105.038 Y112.572 E31.88985
G1 X104.476 Y112.34 E32.11665
G1 X103.945 Y112.155 E32.3264
G1 X103.36 Y111.991 E32.55303
G1 X102.777 Y111.863 E32.77568
G1 X102.147 Y111.765 E33.0135
G1 X101.605 Y111.719 E33.21641
G1 X101.014 Y111.701 E33.43696
G1 X100.411 Y111.718 E33.66198
G1 X99.868 Y111.767 E33.86536
G1 X99.236 Y111.86 E34.10364
G1 X98.652 Y111.987 E34.32658
G1 X98.069 Y112.148 E34.55219
G1 X97.538 Y112.335 E34.76219
G1 X96.992 Y112.559 E34.98233
G1 X96.444 Y112.824 E35.20939
G1 X95.928 Y113.115 E35.43037
G1 X95.442 Y113.429 E35.6462
G1 X94.971 Y113.776 E35.86442
G1 X94.511 Y114.159 E36.0877
G1 X94.069 Y114.573 E36.31361
G1 X93.674 Y114.993 E36.52868
G1 X93.294 Y115.448 E36.74981
G1 X92.933 Y115.936 E36.97623
G1 X92.613 Y116.432 E37.19641
G1 X92.328 Y116.936 E37.41239
G1 X92.072 Y117.463 E37.63094
G1 X91.838 Y118.028 E37.85906
G1 X91.655 Y118.555 E38.06715
G1 X91.491 Y119.14 E38.29378
G1 X91.363 Y119.723 E38.51643
G1 X91.265 Y120.353 E38.75426
G1 X91.219 Y120.895 E38.95716
G1 X91.201 Y121.488 E39.17847
G1 X91.218 Y122.089 E39.40274
G1 X91.267 Y122.632 E39.60611
G1 X91.36 Y123.265 E39.84477
G1 X91.485 Y123.843 E40.06536
G1 X91.648 Y124.431 E40.29297
G1 X91.833 Y124.958 E40.50131
G1 X92.059 Y125.508 E40.72311
G1 X92.323 Y126.054 E40.94934
G1 X92.613 Y126.568 E41.16948
G1 X92.925 Y127.052 E41.38429
G1 X93.276 Y127.528 E41.6049
G1 X93.656 Y127.985 E41.8266
G1 X94.069 Y128.427 E42.05225
G1 X94.491 Y128.824 E42.26837
G1 X94.946 Y129.205 E42.48974
G1 X95.43 Y129.563 E42.7143
G1 X95.928 Y129.885 E42.93552
G1 X96.432 Y130.17 E43.15149
G1 X96.963 Y130.428 E43.37171
G1 X97.524 Y130.66 E43.59816
G1 X98.055 Y130.845 E43.80791
G1 X98.64 Y131.009 E44.03454
G1 X99.223 Y131.137 E44.25719
G1 X99.853 Y131.235 E44.49502
G1 X100.395 Y131.281 E44.69792
G1 X100.986 Y131.299 E44.91848
G1 X101.589 Y131.282 E45.1435
G0 F6000 X101.788 Y131.265
G0 X101.788 Y130.536
;TYPE:FILL
G1 F2400 X102.399 Y130.443 E45.37404
G1 X92.053 Y120.097 E50.83186
G1 X92.092 Y119.854 E50.92366
G1 X92.095 Y119.841 E50.92864
G1 X99.344 Y112.592 E54.7527
G1 X98.835 Y112.705 E54.94718
G1 X98.369 Y112.833 E55.12745
G1 X109.665 Y124.128 E61.08616
G1 X109.636 Y124.229 E61.12535
G1 X109.472 Y124.704 E61.3128
G1 X109.256 Y125.228 E61.52422
G1 X97.272 Y113.244 E67.84613
G1 X97.1 Y113.327 E67.91736
G1 X92.827 Y117.6 E70.1715
G1 X92.986 Y117.275 E70.30646
G1 X93.243 Y116.821 E70.50106
G1 X93.265 Y116.782 E70.51776
G1 X105.715 Y129.232 E77.0855
G1 X106.143 Y128.958 E77.27507
G1 X106.568 Y128.645 E77.47195
G1 X106.604 Y128.612 E77.49017
G1 X93.885 Y115.893 E84.19981
G1 X94.232 Y115.479 E84.40131
G1 X94.588 Y115.102 E84.59473
G1 X94.596 Y115.095 E84.5987
G1 X107.404 Y127.903 E91.35529
G1 X107.412 Y127.898 E91.35881
G1 X107.768 Y127.521 E91.55223
G1 X108.114 Y127.104 E91.75435
G1 X95.395 Y114.385 E98.46399
G1 X95.432 Y114.355 E98.48176
G1 X95.858 Y114.042 E98.67895
G1 X96.317 Y113.745 E98.88288
G1 X96.284 Y113.765 E98.89728
G1 X108.733 Y126.215 E105.46475
G1 X108.757 Y126.179 E105.48089
G1 X109.018 Y125.717 E105.67882
G1 X109.172 Y125.399 E105.81062
G1 X104.9 Y129.67 E108.06396
G1 X104.727 Y129.753 E108.13554
G1 X92.744 Y117.77 E114.45692
G1 X92.744 Y117.772 E114.45766
G1 X92.528 Y118.296 E114.66908
G1 X92.364 Y118.771 E114.85653
G1 X92.335 Y118.87 E114.89501
G1 X103.63 Y130.165 E120.85345
G1 X103.165 Y130.295 E121.03356
G1 X102.657 Y130.404 E121.22736
G1 X109.905 Y123.156 E125.05089
G1 X109.908 Y123.146 E125.05479
G1 X109.947 Y122.901 E125.14733
G1 X99.6 Y112.554 E130.60567
G1 X100.212 Y112.464 E130.83641
G1 X100.996 Y112.441 E131.12899
G1 X110.059 Y121.504 E135.90998
G1 X110.058 Y121.495 E135.91336
G1 X100.994 Y130.558 E140.69462
G1 X100.986 Y130.559 E140.69763
G1 X100.145 Y130.532 E141.0115
G1 X99.598 Y130.446 E141.21805
G1 X109.945 Y120.099 E146.67639
G1 X109.91 Y119.86 E146.76649
G1 X109.907 Y119.843 E146.77293
G1 X102.657 Y112.594 E150.59726
G1 X103.175 Y112.708 E150.7951
G1 X103.629 Y112.834 E150.97086
G1 X92.333 Y124.13 E156.92982
G1 X92.353 Y124.203 E156.95806
G1 X92.523 Y124.69 E157.15047
G1 X92.732 Y125.2 E157.35606
G1 X92.745 Y125.227 E157.36724
G1 X104.729 Y113.243 E163.68915
G1 X104.736 Y113.248 E163.69236
G1 X104.898 Y113.325 E163.75927
G1 X109.172 Y117.599 E166.01393
G1 X109.017 Y117.281 E166.14589
G1 X108.755 Y116.817 E166.34465
G1 X108.733 Y116.783 E166.35976
G1 X96.283 Y129.233 E172.9275
G1 X95.851 Y128.953 E173.11953
G1 X95.4 Y128.62 E173.32865
G1 X95.393 Y128.614 E173.33209
G1 X108.113 Y115.894 E180.04226
G1 X107.782 Y115.496 E180.23535
G1 X107.404 Y115.095 E180.44092
G1 X94.595 Y127.904 E187.19804
G1 X94.594 Y127.904 E187.19841
G1 X94.212 Y127.496 E187.4069
G1 X93.887 Y127.103 E187.59713
G1 X106.605 Y114.385 E194.30624
G1 X106.59 Y114.373 E194.31341
G1 X106.141 Y114.042 E194.52148
G1 X105.715 Y113.765 E194.71103
G1 X93.267 Y126.214 E201.27798
G1 X93.244 Y126.181 E201.29298
G1 X92.981 Y125.714 E201.4929
G1 X92.828 Y125.399 E201.62353
G1 X97.1 Y129.671 E203.87714
G1 X97.265 Y129.752 E203.9457
G1 X97.271 Y129.754 E203.94806
G1 X109.255 Y117.771 E210.26971
G1 X109.262 Y117.785 E210.27554
G1 X109.472 Y118.296 E210.48163
G1 X109.643 Y118.785 E210.67486
G1 X109.665 Y118.869 E210.70725
G1 X98.371 Y130.164 E216.66543
G1 X98.825 Y130.292 E216.84138
G1 X99.343 Y130.405 E217.03915
G1 X92.092 Y123.154 E220.86427
G1 X92.089 Y123.134 E220.87181
G1 X92.054 Y122.9 E220.96007
G1 X102.402 Y112.552 E226.41894
G1 X101.855 Y112.468 E226.62537
G1 X101.014 Y112.441 E226.93924
G1 X101.005 Y112.44 E226.94262
G1 X91.941 Y121.504 E231.72414
G1 X91.94 Y121.493 E231.72826
G1 X101.005 Y130.558 E236.51032
G1 X101.788 Y130.536 E236.80251
G1 F1500 E235.80251
;MESH:NONMESH
G0 F600 X101.788 Y130.536 Z0.6
G0 F6000 X101.565 Y130.882
;TIME_ELAPSED:26.648829
;LAYER:1
;TYPE:WALL-INNER
;MESH:Sajad.stl
G1 F1500 E236.95793
G1 F1800 X102.085 Y130.835 E237.15269
G1 X102.692 Y130.746 E237.38153
G1 X103.252 Y130.625 E237.59525
G1 X103.825 Y130.466 E237.81706
G1 X104.333 Y130.287 E238.01798
G1 X104.861 Y130.069 E238.23106
G1 X105.37 Y129.823 E238.44194
G1 X105.865 Y129.543 E238.65407
G1 X106.342 Y129.234 E238.86608
G1 X106.794 Y128.9 E239.07572
G1 X107.234 Y128.532 E239.28968
G1 X107.648 Y128.144 E239.50133
G1 X108.036 Y127.731 E239.71271
G1 X108.4 Y127.294 E239.92486
G1 X108.738 Y126.836 E240.13719
G1 X109.045 Y126.361 E240.34816
G1 X109.325 Y125.866 E240.5603
G1 X109.569 Y125.361 E240.76951
G1 X109.788 Y124.831 E240.98342
G1 X109.963 Y124.325 E241.18314
G1 X110.127 Y123.745 E241.40798
G1 X110.246 Y123.192 E241.61898
G1 X110.339 Y122.585 E241.84804
G1 X110.382 Y122.067 E242.04193
G1 X110.399 Y121.498 E242.25427
G1 X110.382 Y120.93 E242.46624
G1 X110.335 Y120.415 E242.65915
G1 X110.246 Y119.806 E242.88873
G1 X110.125 Y119.248 E243.10171
G1 X109.966 Y118.675 E243.32353
G1 X109.787 Y118.167 E243.52444
G1 X109.569 Y117.639 E243.73752
G1 X109.323 Y117.13 E243.9484
G1 X109.043 Y116.635 E244.16054
G1 X108.734 Y116.158 E244.37254
G1 X108.4 Y115.706 E244.58218
G1 X108.032 Y115.266 E244.79615
G1 X107.644 Y114.852 E245.0078
G1 X107.231 Y114.464 E245.21918
G1 X106.794 Y114.1 E245.43133
G1 X106.336 Y113.762 E245.64366
G1 X105.861 Y113.455 E245.85463
G1 X105.366 Y113.175 E246.06677
G1 X104.861 Y112.931 E246.27598
G1 X104.335 Y112.714 E246.48823
G1 X103.825 Y112.537 E246.6896
G1 X103.25 Y112.375 E246.91243
G1 X102.69 Y112.254 E247.12614
G1 X102.085 Y112.161 E247.35447
G1 X101.567 Y112.118 E247.54836
G1 X101 Y112.101 E247.75996
G1 X100.435 Y112.118 E247.97081
G1 X99.915 Y112.165 E248.16557
G1 X99.308 Y112.254 E248.39441
G1 X98.748 Y112.375 E248.60812
G1 X98.175 Y112.534 E248.82994
G1 X97.667 Y112.713 E249.03085
G1 X97.139 Y112.931 E249.24394
G1 X96.63 Y113.177 E249.45481
G1 X96.135 Y113.457 E249.66695
G1 X95.658 Y113.766 E249.87895
G1 X95.206 Y114.1 E250.0886
G1 X94.766 Y114.468 E250.30256
G1 X94.352 Y114.856 E250.51421
G1 X93.964 Y115.269 E250.72559
G1 X93.6 Y115.706 E250.93774
G1 X93.262 Y116.164 E251.15007
G1 X92.955 Y116.639 E251.36104
G1 X92.675 Y117.134 E251.57318
G1 X92.431 Y117.639 E251.78239
G1 X92.212 Y118.169 E251.9963
G1 X92.037 Y118.675 E252.19602
G1 X91.873 Y119.255 E252.42085
G1 X91.754 Y119.808 E252.63186
G1 X91.661 Y120.415 E252.86092
G1 X91.618 Y120.933 E253.05481
G1 X91.601 Y121.501 E253.26678
G1 X91.618 Y122.065 E253.47726
G1 X91.665 Y122.585 E253.67202
G1 X91.754 Y123.194 E253.9016
G1 X91.873 Y123.747 E254.1126
G1 X92.034 Y124.325 E254.33642
G1 X92.211 Y124.829 E254.53567
G1 X92.431 Y125.361 E254.75042
G1 X92.675 Y125.866 E254.95963
G1 X92.955 Y126.361 E255.17177
G1 X93.262 Y126.836 E255.38274
G1 X93.6 Y127.294 E255.59507
G1 X93.964 Y127.731 E255.80722
G1 X94.352 Y128.144 E256.0186
G1 X94.766 Y128.532 E256.23025
G1 X95.206 Y128.9 E256.44421
G1 X95.658 Y129.234 E256.65385
G1 X96.136 Y129.543 E256.86617
G1 X96.63 Y129.823 E257.07798
G1 X97.139 Y130.069 E257.28886
G1 X97.665 Y130.286 E257.50111
G1 X98.175 Y130.463 E257.70248
G1 X98.75 Y130.625 E257.92532
G1 X99.31 Y130.746 E258.13903
G1 X99.915 Y130.839 E258.36736
G1 X100.433 Y130.882 E258.56125
G1 X101 Y130.899 E258.77284
G1 X101.565 Y130.882 E258.98369
G0 F6000 X101.589 Y131.282
;TYPE:WALL-OUTER
G1 F1800 X102.132 Y131.233 E259.18707
G1 X102.764 Y131.14 E259.42535
G1 X103.348 Y131.013 E259.64829
G1 X103.945 Y130.848 E259.87933
G1 X104.476 Y130.661 E260.08933
G1 X105.025 Y130.434 E260.31093
G1 X105.556 Y130.177 E260.53098
G1 X106.072 Y129.885 E260.75214
G1 X106.57 Y129.563 E260.97336
G1 X107.041 Y129.215 E261.1918
G1 X107.5 Y128.832 E261.41479
G1 X107.931 Y128.427 E261.63541
G1 X108.336 Y127.996 E261.85602
G1 X108.715 Y127.541 E262.07691
G1 X109.067 Y127.064 E262.29805
G1 X109.387 Y126.568 E262.51823
G1 X109.679 Y126.052 E262.73939
G1 X109.934 Y125.525 E262.95777
G1 X110.162 Y124.973 E263.18055
G1 X110.345 Y124.445 E263.389
G1 X110.515 Y123.842 E263.6227
G1 X110.64 Y123.264 E263.84329
G1 X110.737 Y122.632 E264.0818
G1 X110.782 Y122.089 E264.28504
G1 X110.799 Y121.498 E264.50559
G1 X110.782 Y120.906 E264.72651
G1 X110.733 Y120.368 E264.92802
G1 X110.64 Y119.734 E265.16705
G1 X110.513 Y119.152 E265.38925
G1 X110.348 Y118.555 E265.62029
G1 X110.161 Y118.024 E265.83029
G1 X109.934 Y117.475 E266.05189
G1 X109.677 Y116.944 E266.27195
G1 X109.385 Y116.428 E266.49311
G1 X109.063 Y115.93 E266.71432
G1 X108.715 Y115.459 E266.93276
G1 X108.332 Y115 E267.15576
G1 X107.927 Y114.569 E267.37637
G1 X107.496 Y114.164 E267.59698
G1 X107.041 Y113.785 E267.81788
G1 X106.564 Y113.433 E268.03901
G1 X106.068 Y113.113 E268.25919
G1 X105.552 Y112.821 E268.48035
G1 X105.025 Y112.566 E268.69873
G1 X104.477 Y112.34 E268.91985
G1 X103.945 Y112.155 E269.12995
G1 X103.347 Y111.987 E269.36165
G1 X102.763 Y111.86 E269.58459
G1 X102.132 Y111.763 E269.82273
G1 X101.589 Y111.718 E270.02597
G1 X101 Y111.701 E270.24577
G1 X100.411 Y111.718 E270.46557
G1 X99.868 Y111.767 E270.66895
G1 X99.236 Y111.86 E270.90723
G1 X98.652 Y111.987 E271.13017
G1 X98.055 Y112.152 E271.36121
G1 X97.524 Y112.339 E271.57121
G1 X96.975 Y112.566 E271.79281
