;FLAVOR:Marlin
;TIME:368
;Filament used: 3.51604m, 0m
;Layer height: 0.3
;MINX:91.201
;MINY:111.701
;MINZ:0.3
;MAXX:110.799
;MAXY:131.299
;MAXZ:7
;Generated with Cura_SteamEngine 5.0.1
T0
M140 S40
M105
M190 S40
M104 S200
M105
M109 S200
M82 ;absolute extrusion mode
M900 K0.020;
G28 ; home all axes
G1 Z5 F5000 ; lift nozzle
G1 X-45 Y70 F2500; go to glycerin roller;
G92 E0
G1 X-23 F5000; park to start
G92 E0; Extrude a small amount to clear nozzle
G1 E20 F4000
G4 P2000
G92 E0


G92 E0
G1 F1500 E-1
;LAYER_COUNT:20
;LAYER:0
M107
M204 S500
G1 F600 Z1.3
;MESH:Sajad.stl
G0 F6000 X101.565 Y130.882 Z1.3
;TYPE:WALL-INNER
G1 F600 Z0.3
G1 F1500 E0.15542
G1 F1800 X102.085 Y130.835 E0.35019
G1 X102.692 Y130.746 E0.57903
G1 X103.252 Y130.625 E0.79274
G1 X103.811 Y130.47 E1.00913
G1 X104.32 Y130.291 E1.21039
G1 X104.845 Y130.075 E1.42215
G1 X105.37 Y129.821 E1.6397
G1 X105.865 Y129.543 E1.85148
G1 X106.33 Y129.242 E2.0581
G1 X106.782 Y128.909 E2.26752
G1 X107.224 Y128.541 E2.48206
G1 X107.648 Y128.144 E2.69873
G1 X108.026 Y127.741 E2.90483
G1 X108.392 Y127.304 E3.11746
G1 X108.738 Y126.836 E3.33456
G1 X109.045 Y126.361 E3.54553
G1 X109.318 Y125.878 E3.75249
G1 X109.563 Y125.373 E3.96186
G1 X109.788 Y124.83 E4.18111
G1 X109.963 Y124.325 E4.38048
G1 X110.121 Y123.763 E4.59824
G1 X110.243 Y123.203 E4.81203
G1 X110.337 Y122.599 E5.04005
G1 X110.381 Y122.082 E5.2336
G1 X110.399 Y121.512 E5.44632
G1 X110.382 Y120.929 E5.66389
G1 X110.335 Y120.415 E5.85642
G1 X110.246 Y119.806 E6.086
G1 X110.125 Y119.248 E6.29898
G1 X109.97 Y118.689 E6.51537
G1 X109.792 Y118.18 E6.71651
G1 X109.574 Y117.653 E6.92925
G1 X109.322 Y117.13 E7.1458
G1 X109.043 Y116.635 E7.35775
G1 X108.742 Y116.17 E7.56438
G1 X108.409 Y115.718 E7.7738
G1 X108.041 Y115.276 E7.98834
G1 X107.644 Y114.852 E8.205
G1 X107.241 Y114.474 E8.41111
G1 X106.804 Y114.108 E8.62374
G1 X106.336 Y113.762 E8.84084
G1 X105.861 Y113.455 E9.05181
G1 X105.378 Y113.182 E9.25877
G1 X104.874 Y112.937 E9.46781
G1 X104.334 Y112.714 E9.68574
G1 X103.825 Y112.537 E9.88676
G1 X103.263 Y112.379 E10.10452
G1 X102.703 Y112.257 E10.31831
G1 X102.099 Y112.163 E10.54633
G1 X101.582 Y112.119 E10.73987
G1 X101.014 Y112.101 E10.95186
G1 X100.435 Y112.118 E11.16793
G1 X99.915 Y112.165 E11.36269
G1 X99.308 Y112.254 E11.59153
G1 X98.748 Y112.375 E11.80524
G1 X98.189 Y112.53 E12.02163
G1 X97.68 Y112.709 E12.22289
G1 X97.155 Y112.924 E12.43451
G1 X96.63 Y113.179 E12.65223
G1 X96.135 Y113.457 E12.864
G1 X95.67 Y113.758 E13.07062
G1 X95.218 Y114.091 E13.28004
G1 X94.776 Y114.459 E13.49458
G1 X94.352 Y114.856 E13.71125
G1 X93.974 Y115.259 E13.91736
G1 X93.608 Y115.696 E14.12998
G1 X93.262 Y116.164 E14.34709
G1 X92.955 Y116.639 E14.55806
G1 X92.682 Y117.122 E14.76501
G1 X92.437 Y117.627 E14.97439
G1 X92.212 Y118.17 E15.19364
G1 X92.037 Y118.675 E15.393
G1 X91.879 Y119.237 E15.61077
G1 X91.757 Y119.797 E15.82456
G1 X91.663 Y120.401 E16.05257
G1 X91.619 Y120.918 E16.24612
G1 X91.601 Y121.488 E16.45885
G1 X91.618 Y122.065 E16.67417
G1 X91.665 Y122.585 E16.86893
G1 X91.754 Y123.194 E17.09851
G1 X91.873 Y123.747 E17.30952
G1 X92.03 Y124.311 E17.5279
G1 X92.207 Y124.816 E17.72751
G1 X92.424 Y125.344 E17.94045
G1 X92.678 Y125.868 E18.15766
G1 X92.955 Y126.361 E18.3686
G1 X93.255 Y126.825 E18.57471
G1 X93.591 Y127.282 E18.78629
G1 X93.956 Y127.72 E18.99897
G1 X94.352 Y128.144 E19.21538
G1 X94.757 Y128.525 E19.4228
G1 X95.194 Y128.891 E19.63543
G1 X95.658 Y129.234 E19.85067
G1 X96.136 Y129.543 E20.06298
G1 X96.618 Y129.816 E20.26961
G1 X97.127 Y130.063 E20.48065
G1 X97.666 Y130.286 E20.69824
G1 X98.175 Y130.463 E20.89926
G1 X98.737 Y130.621 E21.11702
G1 X99.297 Y130.743 E21.33081
G1 X99.901 Y130.837 E21.55883
G1 X100.418 Y130.881 E21.75238
G1 X100.986 Y130.899 E21.96436
G1 X101.565 Y130.882 E22.18043
G0 F6000 X101.589 Y131.282
;TYPE:WALL-OUTER
G1 F1800 X102.132 Y131.233 E22.3838
G1 X102.764 Y131.14 E22.62209
G1 X103.348 Y131.013 E22.84502
G1 X103.931 Y130.852 E23.07064
G1 X104.462 Y130.665 E23.28063
G1 X105.008 Y130.441 E23.50077
G1 X105.556 Y130.176 E23.72784
G1 X106.072 Y129.885 E23.94881
G1 X106.558 Y129.571 E24.16465
G1 X107.029 Y129.224 E24.38287
G1 X107.489 Y128.841 E24.60615
G1 X107.931 Y128.427 E24.83205
G1 X108.326 Y128.007 E25.04712
G1 X108.706 Y127.552 E25.26825
G1 X109.067 Y127.064 E25.49468
G1 X109.387 Y126.568 E25.71486
G1 X109.672 Y126.064 E25.93084
G1 X109.928 Y125.537 E26.14939
G1 X110.162 Y124.972 E26.3775
G1 X110.345 Y124.445 E26.5856
G1 X110.509 Y123.86 E26.81223
G1 X110.637 Y123.277 E27.03488
G1 X110.735 Y122.647 E27.27271
G1 X110.781 Y122.105 E27.47561
G1 X110.799 Y121.512 E27.69691
G1 X110.782 Y120.905 E27.92342
G1 X110.733 Y120.368 E28.12457
G1 X110.64 Y119.734 E28.36359
G1 X110.513 Y119.152 E28.5858
G1 X110.352 Y118.569 E28.81141
G1 X110.166 Y118.038 E29.02128
G1 X109.94 Y117.489 E29.24274
G1 X109.676 Y116.944 E29.46863
G1 X109.385 Y116.428 E29.68961
G1 X109.071 Y115.942 E29.90544
G1 X108.724 Y115.471 E30.12367
G1 X108.341 Y115.011 E30.34695
G1 X107.927 Y114.569 E30.57285
G1 X107.507 Y114.174 E30.78792
G1 X107.052 Y113.794 E31.00905
G1 X106.564 Y113.433 E31.23548
G1 X106.068 Y113.113 E31.45566
G1 X105.564 Y112.828 E31.67164
G1 X105.038 Y112.572 E31.88985
G1 X104.476 Y112.34 E32.11665
G1 X103.945 Y112.155 E32.3264
G1 X103.36 Y111.991 E32.55303
G1 X102.777 Y111.863 E32.77568
G1 X102.147 Y111.765 E33.0135
G1 X101.605 Y111.719 E33.21641
G1 X101.014 Y111.701 E33.43696
G1 X100.411 Y111.718 E33.66198
G1 X99.868 Y111.767 E33.86536
G1 X99.236 Y111.86 E34.10364
G1 X98.652 Y111.987 E34.32658
G1 X98.069 Y112.148 E34.55219
G1 X97.538 Y112.335 E34.76219
G1 X96.992 Y112.559 E34.98233
G1 X96.444 Y112.824 E35.20939
G1 X95.928 Y113.115 E35.43037
G1 X95.442 Y113.429 E35.6462
G1 X94.971 Y113.776 E35.86442
G1 X94.511 Y114.159 E36.0877
G1 X94.069 Y114.573 E36.31361
G1 X93.674 Y114.993 E36.52868
G1 X93.294 Y115.448 E36.74981
G1 X92.933 Y115.936 E36.97623
G1 X92.613 Y116.432 E37.19641
G1 X92.328 Y116.936 E37.41239
G1 X92.072 Y117.463 E37.63094
G1 X91.838 Y118.028 E37.85906
G1 X91.655 Y118.555 E38.06715
G1 X91.491 Y119.14 E38.29378
G1 X91.363 Y119.723 E38.51643
G1 X91.265 Y120.353 E38.75426
G1 X91.219 Y120.895 E38.95716
G1 X91.201 Y121.488 E39.17847
G1 X91.218 Y122.089 E39.40274
G1 X91.267 Y122.632 E39.60611
G1 X91.36 Y123.265 E39.84477
G1 X91.485 Y123.843 E40.06536
G1 X91.648 Y124.431 E40.29297
G1 X91.833 Y124.958 E40.50131
G1 X92.059 Y125.508 E40.72311
G1 X92.323 Y126.054 E40.94934
G1 X92.613 Y126.568 E41.16948
G1 X92.925 Y127.052 E41.38429
G1 X93.276 Y127.528 E41.6049
G1 X93.656 Y127.985 E41.8266
G1 X94.069 Y128.427 E42.05225
G1 X94.491 Y128.824 E42.26837
G1 X94.946 Y129.205 E42.48974
G1 X95.43 Y129.563 E42.7143
G1 X95.928 Y129.885 E42.93552
G1 X96.432 Y130.17 E43.15149
G1 X96.963 Y130.428 E43.37171
G1 X97.524 Y130.66 E43.59816
G1 X98.055 Y130.845 E43.80791
G1 X98.64 Y131.009 E44.03454
G1 X99.223 Y131.137 E44.25719
G1 X99.853 Y131.235 E44.49502
G1 X100.395 Y131.281 E44.69792
G1 X100.986 Y131.299 E44.91848
G1 X101.589 Y131.282 E45.1435
G0 F6000 X101.788 Y131.265
G1 F1500 E44.1435
G1 F600 Z1.3
G0 F6000 X95.654 Y128.807 Z1.3
;TYPE:FILL
G1 F600 Z0.3
G1 F1500 E45.29893
G1 F2400 X108.307 Y116.155 E51.97349
G1 X108.554 Y116.507 E52.13389
G1 X95.999 Y129.063 E58.75728
G1 X95.4 Y128.62 E59.03519
G1 X94.987 Y128.274 E59.23616
G1 X94.594 Y127.904 E59.43751
G1 X94.212 Y127.496 E59.64599
G1 X93.68 Y126.856 E59.95644
G1 X106.345 Y114.191 E66.63759
G1 X105.992 Y113.944 E66.7983
G1 X93.428 Y126.508 E73.42618
G1 X92.981 Y125.714 E73.76606
G1 X92.732 Y125.2 E73.97911
G1 X92.493 Y124.606 E74.21795
G1 X97.89 Y130.002 E77.06476
G1 X98.724 Y130.263 E77.39073
G1 X109.764 Y119.223 E83.21465
G1 X109.506 Y118.391 E83.53959
G1 X104.11 Y112.995 E86.38613
G1 X103.275 Y112.735 E86.71235
G1 X92.248 Y123.761 E92.52915
G1 X98.76 Y130.273 E95.96442
G1 X99.21 Y130.377 E96.13671
G1 X109.877 Y119.71 E101.76386
G1 X109.776 Y119.261 E101.93553
G1 X103.24 Y112.725 E105.38346
G1 X102.789 Y112.622 E105.55602
G1 X92.113 Y123.298 E111.18792
G1 X91.964 Y122.288 E111.56875
G1 X91.941 Y121.494 E111.86505
G1 X91.968 Y120.646 E112.18153
G1 X92.116 Y119.703 E112.5376
G1 X102.788 Y130.375 E118.16739
G1 X103.239 Y130.274 E118.33979
G1 X109.774 Y123.739 E121.78719
G1 X109.877 Y123.288 E121.95975
G1 X99.211 Y112.622 E127.58638
G1 X98.761 Y112.724 E127.75849
G1 X92.248 Y119.236 E131.19403
G1 X103.275 Y130.263 E137.01109
G1 X104.109 Y130.003 E137.33696
G1 X109.504 Y124.608 E140.18298
G1 X109.764 Y123.774 E140.50884
G1 X98.724 Y112.735 E146.3325
G1 X97.891 Y112.994 E146.6579
G1 X92.495 Y118.39 E149.50444
G1 X92.744 Y117.772 E149.75298
G1 X92.986 Y117.275 E149.95918
G1 X93.43 Y116.492 E150.29494
G1 X105.992 Y129.054 E156.92176
G1 X106.345 Y128.807 E157.08247
G1 X93.68 Y116.142 E163.76363
G1 X94.232 Y115.479 E164.08544
G1 X94.588 Y115.102 E164.27885
G1 X94.996 Y114.718 E164.48785
G1 X95.643 Y114.179 E164.80197
G1 X108.308 Y126.844 E171.48313
G1 X108.555 Y126.491 E171.64384
G1 X96.008 Y113.944 E178.26274
G1 X96.317 Y113.745 E178.39984
G1 X96.401 Y113.691
G1 F1500 E177.39984
G1 F600 Z1.3
;MESH:NONMESH
G0 F6000 X101.565 Y130.882 Z1.3
;TIME_ELAPSED:21.295437
;LAYER:1
;MESH:Sajad.stl
G0 X101.565 Y130.882 Z1.6
;TYPE:WALL-INNER
G1 F600 Z0.6
G1 F1500 E178.55527
G1 F1800 X102.085 Y130.835 E178.75003
G1 X102.692 Y130.746 E178.97887
G1 X103.252 Y130.625 E179.19258
G1 X103.825 Y130.466 E179.4144
G1 X104.333 Y130.287 E179.61531
G1 X104.861 Y130.069 E179.82839
G1 X105.37 Y129.823 E180.03927
G1 X105.865 Y129.543 E180.25141
G1 X106.342 Y129.234 E180.46341
G1 X106.794 Y128.9 E180.67305
G1 X107.234 Y128.532 E180.88702
G1 X107.648 Y128.144 E181.09867
G1 X108.036 Y127.731 E181.31005
G1 X108.4 Y127.294 E181.5222
G1 X108.738 Y126.836 E181.73453
G1 X109.045 Y126.361 E181.9455
G1 X109.325 Y125.866 E182.15764
G1 X109.569 Y125.361 E182.36685
G1 X109.788 Y124.831 E182.58076
G1 X109.963 Y124.325 E182.78048
G1 X110.127 Y123.745 E183.00531
G1 X110.246 Y123.192 E183.21631
G1 X110.339 Y122.585 E183.44538
G1 X110.382 Y122.067 E183.63927
G1 X110.399 Y121.498 E183.85161
G1 X110.382 Y120.93 E184.06358
G1 X110.335 Y120.415 E184.25648
G1 X110.246 Y119.806 E184.48607
G1 X110.125 Y119.248 E184.69905
G1 X109.966 Y118.675 E184.92086
G1 X109.787 Y118.167 E185.12178
G1 X109.569 Y117.639 E185.33486
G1 X109.323 Y117.13 E185.54574
G1 X109.043 Y116.635 E185.75788
G1 X108.734 Y116.158 E185.96988
G1 X108.4 Y115.706 E186.17952
G1 X108.032 Y115.266 E186.39349
G1 X107.644 Y114.852 E186.60514
G1 X107.231 Y114.464 E186.81651
G1 X106.794 Y114.1 E187.02867
G1 X106.336 Y113.762 E187.24099
G1 X105.861 Y113.455 E187.45196
G1 X105.366 Y113.175 E187.6641
G1 X104.861 Y112.931 E187.87331
G1 X104.335 Y112.714 E188.08556
G1 X103.825 Y112.537 E188.28693
G1 X103.25 Y112.375 E188.50977
G1 X102.69 Y112.254 E188.72348
G1 X102.085 Y112.161 E188.95181
G1 X101.567 Y112.118 E189.1457
G1 X101 Y112.101 E189.35729
G1 X100.435 Y112.118 E189.56815
G1 X99.915 Y112.165 E189.76291
G1 X99.308 Y112.254 E189.99175
G1 X98.748 Y112.375 E190.20546
G1 X98.175 Y112.534 E190.42728
G1 X97.667 Y112.713 E190.62819
G1 X97.139 Y112.931 E190.84127
G1 X96.63 Y113.177 E191.05215
G1 X96.135 Y113.457 E191.26429
G1 X95.658 Y113.766 E191.47629
G1 X95.206 Y114.1 E191.68593
G1 X94.766 Y114.468 E191.8999
G1 X94.352 Y114.856 E192.11155
G1 X93.964 Y115.269 E192.32293
G1 X93.6 Y115.706 E192.53508
G1 X93.262 Y116.164 E192.74741
G1 X92.955 Y116.639 E192.95838
G1 X92.675 Y117.134 E193.17052
G1 X92.431 Y117.639 E193.37973
G1 X92.212 Y118.169 E193.59364
G1 X92.037 Y118.675 E193.79336
G1 X91.873 Y119.255 E194.01819
G1 X91.754 Y119.808 E194.22919
G1 X91.661 Y120.415 E194.45826
G1 X91.618 Y120.933 E194.65215
G1 X91.601 Y121.501 E194.86412
G1 X91.618 Y122.065 E195.07459
G1 X91.665 Y122.585 E195.26936
G1 X91.754 Y123.194 E195.49894
G1 X91.873 Y123.747 E195.70994
G1 X92.034 Y124.325 E195.93375
G1 X92.211 Y124.829 E196.13301
G1 X92.431 Y125.361 E196.34776
G1 X92.675 Y125.866 E196.55697
G1 X92.955 Y126.361 E196.7691
G1 X93.262 Y126.836 E196.98007
G1 X93.6 Y127.294 E197.1924
G1 X93.964 Y127.731 E197.40455
G1 X94.352 Y128.144 E197.61593
G1 X94.766 Y128.532 E197.82758
G1 X95.206 Y128.9 E198.04155
G1 X95.658 Y129.234 E198.25119
G1 X96.136 Y129.543 E198.46351
G1 X96.63 Y129.823 E198.67532
G1 X97.139 Y130.069 E198.8862
G1 X97.665 Y130.286 E199.09845
G1 X98.175 Y130.463 E199.29982
G1 X98.75 Y130.625 E199.52266
G1 X99.31 Y130.746 E199.73637
G1 X99.915 Y130.839 E199.96469
G1 X100.433 Y130.882 E200.15858
G1 X101 Y130.899 E200.37018
G1 X101.565 Y130.882 E200.58103
G0 F6000 X101.589 Y131.282
;TYPE:WALL-OUTER
G1 F1800 X102.132 Y131.233 E200.7844
G1 X102.764 Y131.14 E201.02269
G1 X103.348 Y131.013 E201.24563
G1 X103.945 Y130.848 E201.47667
G1 X104.476 Y130.661 E201.68666
G1 X105.025 Y130.434 E201.90827
G1 X105.556 Y130.177 E202.12832
G1 X106.072 Y129.885 E202.34948
G1 X106.57 Y129.563 E202.57069
G1 X107.041 Y129.215 E202.78914
G1 X107.5 Y128.832 E203.01213
G1 X107.931 Y128.427 E203.23275
G1 X108.336 Y127.996 E203.45336
G1 X108.715 Y127.541 E203.67425
G1 X109.067 Y127.064 E203.89538
G1 X109.387 Y126.568 E204.11556
G1 X109.679 Y126.052 E204.33672
G1 X109.934 Y125.525 E204.55511
G1 X110.162 Y124.973 E204.77789
G1 X110.345 Y124.445 E204.98634
G1 X110.515 Y123.842 E205.22004
G1 X110.64 Y123.264 E205.44063
G1 X110.737 Y122.632 E205.67913
G1 X110.782 Y122.089 E205.88238
G1 X110.799 Y121.498 E206.10292
G1 X110.782 Y120.906 E206.32384
G1 X110.733 Y120.368 E206.52536
G1 X110.64 Y119.734 E206.76438
G1 X110.513 Y119.152 E206.98659
G1 X110.348 Y118.555 E207.21763
G1 X110.161 Y118.024 E207.42763
G1 X109.934 Y117.475 E207.64923
G1 X109.677 Y116.944 E207.86928
G1 X109.385 Y116.428 E208.09044
G1 X109.063 Y115.93 E208.31166
G1 X108.715 Y115.459 E208.5301
G1 X108.332 Y115 E208.75309
G1 X107.927 Y114.569 E208.97371
G1 X107.496 Y114.164 E209.19432
G1 X107.041 Y113.785 E209.41521
G1 X106.564 Y113.433 E209.63634
G1 X106.068 Y113.113 E209.85653
G1 X105.552 Y112.821 E210.07769
G1 X105.025 Y112.566 E210.29607
G1 X104.477 Y112.34 E210.51719
G1 X103.945 Y112.155 E210.72729
G1 X103.347 Y111.987 E210.95899
G1 X102.763 Y111.86 E211.18193
G1 X102.132 Y111.763 E211.42007
G1 X101.589 Y111.718 E211.62331
G1 X101 Y111.701 E211.84311
G1 X100.411 Y111.718 E212.06291
G1 X99.868 Y111.767 E212.26628
G1 X99.236 Y111.86 E212.50457
G1 X98.652 Y111.987 E212.7275
G1 X98.055 Y112.152 E212.95855
G1 X97.524 Y112.339 E213.16854
G1 X96.975 Y112.566 E213.39015
G1 X96.444 Y112.823 E213.6102
G1 X95.928 Y113.115 E213.83136
G1 X95.43 Y113.437 E214.05257
G1 X94.959 Y113.785 E214.27102
G1 X94.5 Y114.168 E214.49401
G1 X94.069 Y114.573 E214.71462
G1 X93.664 Y115.004 E214.93524
G1 X93.285 Y115.459 E215.15613
G1 X92.933 Y115.936 E215.37726
G1 X92.613 Y116.432 E215.59744
G1 X92.321 Y116.948 E215.8186
G1 X92.066 Y117.475 E216.03699
G1 X91.838 Y118.027 E216.25977
G1 X91.655 Y118.555 E216.46822
G1 X91.485 Y119.158 E216.70191
G1 X91.36 Y119.736 E216.9225
G1 X91.263 Y120.368 E217.16101
G1 X91.218 Y120.911 E217.36426
G1 X91.201 Y121.501 E217.58443
G1 X91.218 Y122.089 E217.80386
G1 X91.267 Y122.632 E218.00723
G1 X91.36 Y123.265 E218.24588
G1 X91.485 Y123.843 E218.46647
G1 X91.652 Y124.445 E218.69951
G1 X91.837 Y124.972 E218.90785
G1 X92.066 Y125.525 E219.13112
G1 X92.321 Y126.052 E219.34951
G1 X92.613 Y126.568 E219.57067
G1 X92.933 Y127.064 E219.79085
G1 X93.285 Y127.541 E220.01198
G1 X93.664 Y127.996 E220.23287
G1 X94.069 Y128.427 E220.45348
G1 X94.5 Y128.832 E220.6741
G1 X94.959 Y129.215 E220.89709
G1 X95.43 Y129.563 E221.11554
G1 X95.928 Y129.885 E221.33675
G1 X96.444 Y130.177 E221.55791
G1 X96.975 Y130.434 E221.77796
G1 X97.523 Y130.66 E221.99908
G1 X98.055 Y130.845 E222.20918
G1 X98.653 Y131.013 E222.44088
G1 X99.237 Y131.14 E222.66382
G1 X99.868 Y131.237 E222.90196
G1 X100.411 Y131.282 E223.1052
G1 X101 Y131.299 E223.325
G1 X101.589 Y131.282 E223.5448
G0 F6000 X101.788 Y131.265
G1 F1500 E222.5448
G1 F600 Z1.6
G0 F6000 X95.482 Y128.68 Z1.6
;TYPE:FILL
G1 F600 Z0.6
G1 F1500 E223.70023
G1 F2400 X108.18 Y115.981 E230.39905
G1 X108.672 Y116.689 E230.72066
G1 X96.172 Y129.189 E237.31477
G1 X95.417 Y128.633 E237.66453
G1 X94.986 Y128.273 E237.874
