;FLAVOR:Marlin
;TIME:557
;Filament used: 5.4437m, 0m
;Layer height: 0.3
;MINX:91.201
;MINY:111.701
;MINZ:0.3
;MAXX:110.799
;MAXY:131.299
;MAXZ:7
;Generated with Cura_SteamEngine 5.0.1
T0
M140 S40
M105
M190 S40
M104 S200
M105
M109 S200
M82 ;absolute extrusion mode
M900 K0.020;
G28 ; home all axes
G1 Z5 F5000 ; lift nozzle
G1 X-45 Y70 F2500; go to glycerin roller;
G92 E0
G1 X-23 F5000; park to start
G92 E0; Extrude a small amount to clear nozzle
G1 E20 F4000
G4 P2000
G92 E0


G92 E0
G1 F1500 E-1
;LAYER_COUNT:20
;LAYER:0
M107
M204 S500
G1 F600 Z1.3
;MESH:Sajad.stl
G0 F6000 X101.565 Y130.882 Z1.3
;TYPE:WALL-INNER
G1 F600 Z0.3
G1 F1500 E0.15542
G1 F1800 X102.085 Y130.835 E0.35019
G1 X102.692 Y130.746 E0.57903
G1 X103.252 Y130.625 E0.79274
G1 X103.811 Y130.47 E1.00913
G1 X104.32 Y130.291 E1.21039
G1 X104.845 Y130.075 E1.42215
G1 X105.37 Y129.821 E1.6397
G1 X105.865 Y129.543 E1.85148
G1 X106.33 Y129.242 E2.0581
G1 X106.782 Y128.909 E2.26752
G1 X107.224 Y128.541 E2.48206
G1 X107.648 Y128.144 E2.69873
G1 X108.026 Y127.741 E2.90483
G1 X108.392 Y127.304 E3.11746
G1 X108.738 Y126.836 E3.33456
G1 X109.045 Y126.361 E3.54553
G1 X109.318 Y125.878 E3.75249
G1 X109.563 Y125.373 E3.96186
G1 X109.788 Y124.83 E4.18111
G1 X109.963 Y124.325 E4.38048
G1 X110.121 Y123.763 E4.59824
G1 X110.243 Y123.203 E4.81203
G1 X110.337 Y122.599 E5.04005
G1 X110.381 Y122.082 E5.2336
G1 X110.399 Y121.512 E5.44632
G1 X110.382 Y120.929 E5.66389
G1 X110.335 Y120.415 E5.85642
G1 X110.246 Y119.806 E6.086
G1 X110.125 Y119.248 E6.29898
G1 X109.97 Y118.689 E6.51537
G1 X109.792 Y118.18 E6.71651
G1 X109.574 Y117.653 E6.92925
G1 X109.322 Y117.13 E7.1458
G1 X109.043 Y116.635 E7.35775
G1 X108.742 Y116.17 E7.56438
G1 X108.409 Y115.718 E7.7738
G1 X108.041 Y115.276 E7.98834
G1 X107.644 Y114.852 E8.205
G1 X107.241 Y114.474 E8.41111
G1 X106.804 Y114.108 E8.62374
G1 X106.336 Y113.762 E8.84084
G1 X105.861 Y113.455 E9.05181
G1 X105.378 Y113.182 E9.25877
G1 X104.874 Y112.937 E9.46781
G1 X104.334 Y112.714 E9.68574
G1 X103.825 Y112.537 E9.88676
G1 X103.263 Y112.379 E10.10452
G1 X102.703 Y112.257 E10.31831
G1 X102.099 Y112.163 E10.54633
G1 X101.582 Y112.119 E10.73987
G1 X101.014 Y112.101 E10.95186
G1 X100.435 Y112.118 E11.16793
G1 X99.915 Y112.165 E11.36269
G1 X99.308 Y112.254 E11.59153
G1 X98.748 Y112.375 E11.80524
G1 X98.189 Y112.53 E12.02163
G1 X97.68 Y112.709 E12.22289
G1 X97.155 Y112.924 E12.43451
G1 X96.63 Y113.179 E12.65223
G1 X96.135 Y113.457 E12.864
G1 X95.67 Y113.758 E13.07062
G1 X95.218 Y114.091 E13.28004
G1 X94.776 Y114.459 E13.49458
G1 X94.352 Y114.856 E13.71125
G1 X93.974 Y115.259 E13.91736
G1 X93.608 Y115.696 E14.12998
G1 X93.262 Y116.164 E14.34709
G1 X92.955 Y116.639 E14.55806
G1 X92.682 Y117.122 E14.76501
G1 X92.437 Y117.627 E14.97439
G1 X92.212 Y118.17 E15.19364
G1 X92.037 Y118.675 E15.393
G1 X91.879 Y119.237 E15.61077
G1 X91.757 Y119.797 E15.82456
G1 X91.663 Y120.401 E16.05257
G1 X91.619 Y120.918 E16.24612
G1 X91.601 Y121.488 E16.45885
G1 X91.618 Y122.065 E16.67417
G1 X91.665 Y122.585 E16.86893
G1 X91.754 Y123.194 E17.09851
G1 X91.873 Y123.747 E17.30952
G1 X92.03 Y124.311 E17.5279
G1 X92.207 Y124.816 E17.72751
G1 X92.424 Y125.344 E17.94045
G1 X92.678 Y125.868 E18.15766
G1 X92.955 Y126.361 E18.3686
G1 X93.255 Y126.825 E18.57471
G1 X93.591 Y127.282 E18.78629
G1 X93.956 Y127.72 E18.99897
G1 X94.352 Y128.144 E19.21538
G1 X94.757 Y128.525 E19.4228
G1 X95.194 Y128.891 E19.63543
G1 X95.658 Y129.234 E19.85067
G1 X96.136 Y129.543 E20.06298
G1 X96.618 Y129.816 E20.26961
G1 X97.127 Y130.063 E20.48065
G1 X97.666 Y130.286 E20.69824
G1 X98.175 Y130.463 E20.89926
G1 X98.737 Y130.621 E21.11702
G1 X99.297 Y130.743 E21.33081
G1 X99.901 Y130.837 E21.55883
G1 X100.418 Y130.881 E21.75238
G1 X100.986 Y130.899 E21.96436
G1 X101.565 Y130.882 E22.18043
G0 F6000 X101.589 Y131.282
;TYPE:WALL-OUTER
G1 F1800 X102.132 Y131.233 E22.3838
G1 X102.764 Y131.14 E22.62209
G1 X103.348 Y131.013 E22.84502
G1 X103.931 Y130.852 E23.07064
G1 X104.462 Y130.665 E23.28063
G1 X105.008 Y130.441 E23.50077
G1 X105.556 Y130.176 E23.72784
G1 X106.072 Y129.885 E23.94881
G1 X106.558 Y129.571 E24.16465
G1 X107.029 Y129.224 E24.38287
G1 X107.489 Y128.841 E24.60615
G1 X107.931 Y128.427 E24.83205
G1 X108.326 Y128.007 E25.04712
G1 X108.706 Y127.552 E25.26825
G1 X109.067 Y127.064 E25.49468
G1 X109.387 Y126.568 E25.71486
G1 X109.672 Y126.064 E25.93084
G1 X109.928 Y125.537 E26.14939
G1 X110.162 Y124.972 E26.3775
G1 X110.345 Y124.445 E26.5856
G1 X110.509 Y123.86 E26.81223
G1 X110.637 Y123.277 E27.03488
G1 X110.735 Y122.647 E27.27271
G1 X110.781 Y122.105 E27.47561
G1 X110.799 Y121.512 E27.69691
G1 X110.782 Y120.905 E27.92342
G1 X110.733 Y120.368 E28.12457
G1 X110.64 Y119.734 E28.36359
G1 X110.513 Y119.152 E28.5858
G1 X110.352 Y118.569 E28.81141
G1 X110.166 Y118.038 E29.02128
G1 X109.94 Y117.489 E29.24274
G1 X109.676 Y116.944 E29.46863
G1 X109.385 Y116.428 E29.68961
G1 X109.071 Y115.942 E29.90544
G1 X108.724 Y115.471 E30.12367
G1 X108.341 Y115.011 E30.34695
G1 X107.927 Y114.569 E30.57285
G1 X107.507 Y114.174 E30.78792
G1 X107.052 Y113.794 E31.00905
G1 X106.564 Y113.433 E31.23548
G1 X106.068 Y113.113 E31.45566
G1 X105.564 Y112.828 E31.67164
G1 X105.038 Y112.572 E31.88985
G1 X104.476 Y112.34 E32.11665
G1 X103.945 Y112.155 E32.3264
G1 X103.36 Y111.991 E32.55303
G1 X102.777 Y111.863 E32.77568
G1 X102.147 Y111.765 E33.0135
G1 X101.605 Y111.719 E33.21641
G1 X101.014 Y111.701 E33.43696
G1 X100.411 Y111.718 E33.66198
G1 X99.868 Y111.767 E33.86536
G1 X99.236 Y111.86 E34.10364
G1 X98.652 Y111.987 E34.32658
G1 X98.069 Y112.148 E34.55219
G1 X97.538 Y112.335 E34.76219
G1 X96.992 Y112.559 E34.98233
G1 X96.444 Y112.824 E35.20939
G1 X95.928 Y113.115 E35.43037
G1 X95.442 Y113.429 E35.6462
G1 X94.971 Y113.776 E35.86442
G1 X94.511 Y114.159 E36.0877
G1 X94.069 Y114.573 E36.31361
G1 X93.674 Y114.993 E36.52868
G1 X93.294 Y115.448 E36.74981
G1 X92.933 Y115.936 E36.97623
G1 X92.613 Y116.432 E37.19641
G1 X92.328 Y116.936 E37.41239
G1 X92.072 Y117.463 E37.63094
G1 X91.838 Y118.028 E37.85906
G1 X91.655 Y118.555 E38.06715
G1 X91.491 Y119.14 E38.29378
G1 X91.363 Y119.723 E38.51643
G1 X91.265 Y120.353 E38.75426
G1 X91.219 Y120.895 E38.95716
G1 X91.201 Y121.488 E39.17847
G1 X91.218 Y122.089 E39.40274
G1 X91.267 Y122.632 E39.60611
G1 X91.36 Y123.265 E39.84477
G1 X91.485 Y123.843 E40.06536
G1 X91.648 Y124.431 E40.29297
G1 X91.833 Y124.958 E40.50131
G1 X92.059 Y125.508 E40.72311
G1 X92.323 Y126.054 E40.94934
G1 X92.613 Y126.568 E41.16948
G1 X92.925 Y127.052 E41.38429
G1 X93.276 Y127.528 E41.6049
G1 X93.656 Y127.985 E41.8266
G1 X94.069 Y128.427 E42.05225
G1 X94.491 Y128.824 E42.26837
G1 X94.946 Y129.205 E42.48974
G1 X95.43 Y129.563 E42.7143
G1 X95.928 Y129.885 E42.93552
G1 X96.432 Y130.17 E43.15149
G1 X96.963 Y130.428 E43.37171
G1 X97.524 Y130.66 E43.59816
G1 X98.055 Y130.845 E43.80791
G1 X98.64 Y131.009 E44.03454
G1 X99.223 Y131.137 E44.25719
G1 X99.853 Y131.235 E44.49502
G1 X100.395 Y131.281 E44.69792
G1 X100.986 Y131.299 E44.91848
G1 X101.589 Y131.282 E45.1435
G0 F6000 X101.788 Y131.265
G1 F1500 E44.1435
G1 F600 Z1.3
G0 F6000 X108.899 Y125.926 Z1.3
;TYPE:FILL
G1 F600 Z0.3
G1 F1500 E45.29893
G1 F2400 X96.573 Y113.6 E51.80125
G1 X96.966 Y113.393 E51.96694
G1 X109.116 Y125.543 E58.37642
G1 X108.757 Y126.179 E58.64884
G1 X108.457 Y126.643 E58.85495
G1 X108.135 Y127.077 E59.05653
G1 X95.421 Y114.363 E65.76354
G1 X95.094 Y114.636 E65.92243
G1 X107.871 Y127.412 E72.66241
G1 X107.412 Y127.898 E72.91177
G1 X106.912 Y128.368 E73.16774
G1 X94.136 Y115.592 E79.90745
G1 X93.864 Y115.92 E80.0664
G1 X106.578 Y128.634 E86.77341
G1 X106.143 Y128.958 E86.97573
G1 X105.44 Y129.411 E87.28769
G1 X93.099 Y117.07 E93.79793
G1 X92.893 Y117.463 E93.96345
G1 X105.034 Y129.604 E100.36818
G1 X104.335 Y129.916 E100.65371
G1 X109.434 Y124.817 E103.34358
G1 X109.653 Y124.166 E103.59979
G1 X98.33 Y112.843 E109.573
G1 X97.667 Y113.08 E109.83564
G1 X92.568 Y118.179 E112.52551
G1 X92.346 Y118.831 E112.78243
G1 X103.669 Y130.155 E118.75591
G1 X103.199 Y130.284 E118.93771
G1 X92.214 Y119.299 E124.73262
G1 X92.183 Y119.438 E124.78574
G1 X98.94 Y112.681 E128.35025
G1 X98.801 Y112.714 E128.40355
G1 X109.786 Y123.699 E134.19845
G1 X109.817 Y123.56 E134.25158
G1 X103.06 Y130.317 E137.81609
G1 X102.638 Y130.41 E137.97728
G1 X101.788 Y130.536 E138.29781
G1 X101.541 Y130.541 E138.38997
G1 X91.957 Y120.957 E143.44581
G1 X91.946 Y121.315 E143.57941
G1 X100.816 Y112.445 E148.25859
G1 X100.458 Y112.456 E148.3922
G1 X110.042 Y122.04 E153.44804
G1 X110.053 Y121.683 E153.58127
G1 X101.184 Y130.553 E158.26019
G1 X100.957 Y130.557 E158.34487
G1 X91.941 Y121.541 E163.10108
G1 X91.961 Y122.174 E163.33732
G1 X101.674 Y112.461 E168.46121
G1 X101.043 Y112.441 E168.6967
G1 X110.057 Y121.456 E173.45211
G1 X110.038 Y120.824 E173.68797
G1 X100.305 Y130.557 E178.82241
G1 X99.353 Y130.408 E179.18184
G1 X98.911 Y130.311 E179.35064
G1 X109.812 Y119.41 E185.10124
G1 X109.775 Y119.259 E185.15923
G1 X103.242 Y112.726 E188.60558
G1 X103.088 Y112.688 E188.66474
G1 X92.188 Y123.588 E194.41481
G1 X92.225 Y123.739 E194.4728
G1 X98.758 Y130.272 E197.91915
G1 X98.228 Y130.12 E198.12482
G1 X109.622 Y118.726 E204.13549
G1 X109.505 Y118.389 E204.26856
G1 X104.112 Y112.996 E207.11352
G1 X103.772 Y112.878 E207.24777
G1 X92.359 Y124.29 E213.26819
G1 X92.836 Y125.454 E213.73743
G1 X104.943 Y113.347 E220.12423
G1 X105.515 Y113.649 E220.36551
G1 X93.142 Y126.022 E226.89262
G1 X93.531 Y126.626 E227.16061
G1 X93.806 Y126.998 E227.33317
G1 X106.5 Y114.305 E234.02936
G1 X106.981 Y114.697 E234.26082
G1 X94.199 Y127.48 E241.00396
G1 X94.594 Y127.904 E241.22012
G1 X95.018 Y128.3 E241.43654
G1 X107.801 Y115.518 E248.17968
G1 X108.197 Y115.996 E248.41122
G1 X95.499 Y128.694 E255.10978
G1 X95.851 Y128.953 E255.2728
G1 X96.476 Y129.357 E255.5504
G1 X108.849 Y116.984 E262.07752
G1 X109.151 Y117.557 E262.31913
G1 X97.046 Y129.661 E268.70461
G1 X97.901 Y130.015 E269.04979
G1 X92.494 Y124.608 E271.90214
G1 X92.424 Y124.538
G1 F1500 E270.90214
G1 F600 Z1.3
;MESH:NONMESH
G0 F6000 X101.565 Y130.882 Z1.3
;TIME_ELAPSED:30.386292
;LAYER:1
;MESH:Sajad.stl
G0 X101.565 Y130.882 Z1.6
;TYPE:WALL-INNER
G1 F600 Z0.6
G1 F1500 E272.05757
G1 F1800 X102.085 Y130.835 E272.25233
G1 X102.692 Y130.746 E272.48117
G1 X103.252 Y130.625 E272.69488
G1 X103.825 Y130.466 E272.9167
G1 X104.333 Y130.287 E273.11761
G1 X104.861 Y130.069 E273.33069
G1 X105.37 Y129.823 E273.54157
G1 X105.865 Y129.543 E273.75371
G1 X106.342 Y129.234 E273.96571
G1 X106.794 Y128.9 E274.17536
G1 X107.234 Y128.532 E274.38932
G1 X107.648 Y128.144 E274.60097
G1 X108.036 Y127.731 E274.81235
G1 X108.4 Y127.294 E275.0245
G1 X108.738 Y126.836 E275.23683
G1 X109.045 Y126.361 E275.4478
G1 X109.325 Y125.866 E275.65994
G1 X109.569 Y125.361 E275.86915
G1 X109.788 Y124.831 E276.08306
G1 X109.963 Y124.325 E276.28278
G1 X110.127 Y123.745 E276.50761
G1 X110.246 Y123.192 E276.71861
G1 X110.339 Y122.585 E276.94768
G1 X110.382 Y122.067 E277.14157
G1 X110.399 Y121.498 E277.35391
G1 X110.382 Y120.93 E277.56588
G1 X110.335 Y120.415 E277.75878
G1 X110.246 Y119.806 E277.98837
G1 X110.125 Y119.248 E278.20135
G1 X109.966 Y118.675 E278.42317
G1 X109.787 Y118.167 E278.62408
G1 X109.569 Y117.639 E278.83716
G1 X109.323 Y117.13 E279.04804
G1 X109.043 Y116.635 E279.26018
G1 X108.734 Y116.158 E279.47218
G1 X108.4 Y115.706 E279.68182
G1 X108.032 Y115.266 E279.89579
G1 X107.644 Y114.852 E280.10744
G1 X107.231 Y114.464 E280.31882
G1 X106.794 Y114.1 E280.53097
G1 X106.336 Y113.762 E280.7433
G1 X105.861 Y113.455 E280.95427
G1 X105.366 Y113.175 E281.1664
G1 X104.861 Y112.931 E281.37561
G1 X104.335 Y112.714 E281.58786
G1 X103.825 Y112.537 E281.78923
G1 X103.25 Y112.375 E282.01207
G1 X102.69 Y112.254 E282.22578
G1 X102.085 Y112.161 E282.45411
G1 X101.567 Y112.118 E282.648
G1 X101 Y112.101 E282.8596
G1 X100.435 Y112.118 E283.07045
G1 X99.915 Y112.165 E283.26521
G1 X99.308 Y112.254 E283.49405
G1 X98.748 Y112.375 E283.70776
G1 X98.175 Y112.534 E283.92958
G1 X97.667 Y112.713 E284.13049
G1 X97.139 Y112.931 E284.34357
G1 X96.63 Y113.177 E284.55445
G1 X96.135 Y113.457 E284.76659
G1 X95.658 Y113.766 E284.97859
G1 X95.206 Y114.1 E285.18823
G1 X94.766 Y114.468 E285.4022
G1 X94.352 Y114.856 E285.61385
G1 X93.964 Y115.269 E285.82523
G1 X93.6 Y115.706 E286.03738
G1 X93.262 Y116.164 E286.24971
G1 X92.955 Y116.639 E286.46068
G1 X92.675 Y117.134 E286.67282
G1 X92.431 Y117.639 E286.88203
G1 X92.212 Y118.169 E287.09594
G1 X92.037 Y118.675 E287.29566
G1 X91.873 Y119.255 E287.52049
G1 X91.754 Y119.808 E287.73149
G1 X91.661 Y120.415 E287.96056
G1 X91.618 Y120.933 E288.15445
G1 X91.601 Y121.501 E288.36642
G1 X91.618 Y122.065 E288.5769
G1 X91.665 Y122.585 E288.77166
G1 X91.754 Y123.194 E289.00124
G1 X91.873 Y123.747 E289.21224
G1 X92.034 Y124.325 E289.43605
G1 X92.211 Y124.829 E289.63531
G1 X92.431 Y125.361 E289.85006
G1 X92.675 Y125.866 E290.05927
G1 X92.955 Y126.361 E290.27141
G1 X93.262 Y126.836 E290.48238
G1 X93.6 Y127.294 E290.6947
G1 X93.964 Y127.731 E290.90686
G1 X94.352 Y128.144 E291.11823
G1 X94.766 Y128.532 E291.32988
G1 X95.206 Y128.9 E291.54385
G1 X95.658 Y129.234 E291.75349
G1 X96.136 Y129.543 E291.96581
G1 X96.63 Y129.823 E292.17762
G1 X97.139 Y130.069 E292.3885
G1 X97.665 Y130.286 E292.60075
G1 X98.175 Y130.463 E292.80212
G1 X98.75 Y130.625 E293.02496
G1 X99.31 Y130.746 E293.23867
G1 X99.915 Y130.839 E293.467
G1 X100.433 Y130.882 E293.66088
G1 X101 Y130.899 E293.87248
G1 X101.565 Y130.882 E294.08333
G0 F6000 X101.589 Y131.282
;TYPE:WALL-OUTER
G1 F1800 X102.132 Y131.233 E294.2867
G1 X102.764 Y131.14 E294.52499
G1 X103.348 Y131.013 E294.74793
G1 X103.945 Y130.848 E294.97897
G1 X104.476 Y130.661 E295.18897
G1 X105.025 Y130.434 E295.41057
G1 X105.556 Y130.177 E295.63062
G1 X106.072 Y129.885 E295.85178
G1 X106.57 Y129.563 E296.07299
G1 X107.041 Y129.215 E296.29144
G1 X107.5 Y128.832 E296.51443
G1 X107.931 Y128.427 E296.73505
G1 X108.336 Y127.996 E296.95566
G1 X108.715 Y127.541 E297.17655
G1 X109.067 Y127.064 E297.39768
G1 X109.387 Y126.568 E297.61786
G1 X109.679 Y126.052 E297.83902
G1 X109.934 Y125.525 E298.05741
G1 X110.162 Y124.973 E298.28019
G1 X110.345 Y124.445 E298.48864
G1 X110.515 Y123.842 E298.72234
G1 X110.64 Y123.264 E298.94293
G1 X110.737 Y122.632 E299.18143
G1 X110.782 Y122.089 E299.38468
G1 X110.799 Y121.498 E299.60522
G1 X110.782 Y120.906 E299.82614
G1 X110.733 Y120.368 E300.02766
G1 X110.64 Y119.734 E300.26668
G1 X110.513 Y119.152 E300.48889
G1 X110.348 Y118.555 E300.71993
G1 X110.161 Y118.024 E300.92993
G1 X109.934 Y117.475 E301.15153
G1 X109.677 Y116.944 E301.37158
G1 X109.385 Y116.428 E301.59274
G1 X109.063 Y115.93 E301.81396
G1 X108.715 Y115.459 E302.0324
G1 X108.332 Y115 E302.25539
G1 X107.927 Y114.569 E302.47601
G1 X107.496 Y114.164 E302.69662
G1 X107.041 Y113.785 E302.91751
G1 X106.564 Y113.433 E303.13865
G1 X106.068 Y113.113 E303.35883
G1 X105.552 Y112.821 E303.57999
G1 X105.025 Y112.566 E303.79837
G1 X104.477 Y112.34 E304.01949
G1 X103.945 Y112.155 E304.22959
G1 X103.347 Y111.987 E304.46129
G1 X102.763 Y111.86 E304.68423
G1 X102.132 Y111.763 E304.92237
G1 X101.589 Y111.718 E305.12561
G1 X101 Y111.701 E305.34541
G1 X100.411 Y111.718 E305.56521
G1 X99.868 Y111.767 E305.76858
G1 X99.236 Y111.86 E306.00687
G1 X98.652 Y111.987 E306.2298
G1 X98.055 Y112.152 E306.46085
G1 X97.524 Y112.339 E306.67084
G1 X96.975 Y112.566 E306.89245
G1 X96.444 Y112.823 E307.1125
G1 X95.928 Y113.115 E307.33366
G1 X95.43 Y113.437 E307.55487
G1 X94.959 Y113.785 E307.77332
G1 X94.5 Y114.168 E307.99631
G1 X94.069 Y114.573 E308.21692
G1 X93.664 Y115.004 E308.43754
G1 X93.285 Y115.459 E308.65843
G1 X92.933 Y115.936 E308.87956
G1 X92.613 Y116.432 E309.09974
G1 X92.321 Y116.948 E309.3209
G1 X92.066 Y117.475 E309.53929
G1 X91.838 Y118.027 E309.76207
G1 X91.655 Y118.555 E309.97052
G1 X91.485 Y119.158 E310.20421
G1 X91.36 Y119.736 E310.4248
G1 X91.263 Y120.368 E310.66331
G1 X91.218 Y120.911 E310.86656
G1 X91.201 Y121.501 E311.08673
G1 X91.218 Y122.089 E311.30616
G1 X91.267 Y122.632 E311.50953
G1 X91.36 Y123.265 E311.74819
G1 X91.485 Y123.843 E311.96877
G1 X91.652 Y124.445 E312.20181
G1 X91.837 Y124.972 E312.41015
G1 X92.066 Y125.525 E312.63342
