;FLAVOR:Marlin
;TIME:419
;Filament used: 4.04026m, 0m
;Layer height: 0.3
;MINX:91.201
;MINY:111.701
;MINZ:0.3
;MAXX:110.799
;MAXY:131.299
;MAXZ:7
;Generated with Cura_SteamEngine 5.0.1
T0
M140 S40
M105
M190 S40
M104 S200
M105
M109 S200
M82 ;absolute extrusion mode
M900 K0.020;
G28 ; home all axes
G1 Z5 F5000 ; lift nozzle
G1 X-45 Y70 F2500; go to glycerin roller;
G92 E0
G1 X-23 F5000; park to start
G92 E0; Extrude a small amount to clear nozzle
G1 E20 F4000
G4 P2000
G92 E0


G92 E0
G1 F1500 E-1
;LAYER_COUNT:20
;LAYER:0
M107
M204 S500
G1 F600 Z1.3
;MESH:Sajad.stl
G0 F6000 X101.565 Y130.882 Z1.3
;TYPE:WALL-INNER
G1 F600 Z0.3
G1 F1500 E0.15542
G1 F1800 X102.085 Y130.835 E0.35019
G1 X102.692 Y130.746 E0.57903
G1 X103.252 Y130.625 E0.79274
G1 X103.811 Y130.47 E1.00913
G1 X104.32 Y130.291 E1.21039
G1 X104.845 Y130.075 E1.42215
G1 X105.37 Y129.821 E1.6397
G1 X105.865 Y129.543 E1.85148
G1 X106.33 Y129.242 E2.0581
G1 X106.782 Y128.909 E2.26752
G1 X107.224 Y128.541 E2.48206
G1 X107.648 Y128.144 E2.69873
G1 X108.026 Y127.741 E2.90483
G1 X108.392 Y127.304 E3.11746
G1 X108.738 Y126.836 E3.33456
G1 X109.045 Y126.361 E3.54553
G1 X109.318 Y125.878 E3.75249
G1 X109.563 Y125.373 E3.96186
G1 X109.788 Y124.83 E4.18111
G1 X109.963 Y124.325 E4.38048
G1 X110.121 Y123.763 E4.59824
G1 X110.243 Y123.203 E4.81203
G1 X110.337 Y122.599 E5.04005
G1 X110.381 Y122.082 E5.2336
G1 X110.399 Y121.512 E5.44632
G1 X110.382 Y120.929 E5.66389
G1 X110.335 Y120.415 E5.85642
G1 X110.246 Y119.806 E6.086
G1 X110.125 Y119.248 E6.29898
G1 X109.97 Y118.689 E6.51537
G1 X109.792 Y118.18 E6.71651
G1 X109.574 Y117.653 E6.92925
G1 X109.322 Y117.13 E7.1458
G1 X109.043 Y116.635 E7.35775
G1 X108.742 Y116.17 E7.56438
G1 X108.409 Y115.718 E7.7738
G1 X108.041 Y115.276 E7.98834
G1 X107.644 Y114.852 E8.205
G1 X107.241 Y114.474 E8.41111
G1 X106.804 Y114.108 E8.62374
G1 X106.336 Y113.762 E8.84084
G1 X105.861 Y113.455 E9.05181
G1 X105.378 Y113.182 E9.25877
G1 X104.874 Y112.937 E9.46781
G1 X104.334 Y112.714 E9.68574
G1 X103.825 Y112.537 E9.88676
G1 X103.263 Y112.379 E10.10452
G1 X102.703 Y112.257 E10.31831
G1 X102.099 Y112.163 E10.54633
G1 X101.582 Y112.119 E10.73987
G1 X101.014 Y112.101 E10.95186
G1 X100.435 Y112.118 E11.16793
G1 X99.915 Y112.165 E11.36269
G1 X99.308 Y112.254 E11.59153
G1 X98.748 Y112.375 E11.80524
G1 X98.189 Y112.53 E12.02163
G1 X97.68 Y112.709 E12.22289
G1 X97.155 Y112.924 E12.43451
G1 X96.63 Y113.179 E12.65223
G1 X96.135 Y113.457 E12.864
G1 X95.67 Y113.758 E13.07062
G1 X95.218 Y114.091 E13.28004
G1 X94.776 Y114.459 E13.49458
G1 X94.352 Y114.856 E13.71125
G1 X93.974 Y115.259 E13.91736
G1 X93.608 Y115.696 E14.12998
G1 X93.262 Y116.164 E14.34709
G1 X92.955 Y116.639 E14.55806
G1 X92.682 Y117.122 E14.76501
G1 X92.437 Y117.627 E14.97439
G1 X92.212 Y118.17 E15.19364
G1 X92.037 Y118.675 E15.393
G1 X91.879 Y119.237 E15.61077
G1 X91.757 Y119.797 E15.82456
G1 X91.663 Y120.401 E16.05257
G1 X91.619 Y120.918 E16.24612
G1 X91.601 Y121.488 E16.45885
G1 X91.618 Y122.065 E16.67417
G1 X91.665 Y122.585 E16.86893
G1 X91.754 Y123.194 E17.09851
G1 X91.873 Y123.747 E17.30952
G1 X92.03 Y124.311 E17.5279
G1 X92.207 Y124.816 E17.72751
G1 X92.424 Y125.344 E17.94045
G1 X92.678 Y125.868 E18.15766
G1 X92.955 Y126.361 E18.3686
G1 X93.255 Y126.825 E18.57471
G1 X93.591 Y127.282 E18.78629
G1 X93.956 Y127.72 E18.99897
G1 X94.352 Y128.144 E19.21538
G1 X94.757 Y128.525 E19.4228
G1 X95.194 Y128.891 E19.63543
G1 X95.658 Y129.234 E19.85067
G1 X96.136 Y129.543 E20.06298
G1 X96.618 Y129.816 E20.26961
G1 X97.127 Y130.063 E20.48065
G1 X97.666 Y130.286 E20.69824
G1 X98.175 Y130.463 E20.89926
G1 X98.737 Y130.621 E21.11702
G1 X99.297 Y130.743 E21.33081
G1 X99.901 Y130.837 E21.55883
G1 X100.418 Y130.881 E21.75238
G1 X100.986 Y130.899 E21.96436
G1 X101.565 Y130.882 E22.18043
G0 F6000 X101.589 Y131.282
;TYPE:WALL-OUTER
G1 F1800 X102.132 Y131.233 E22.3838
G1 X102.764 Y131.14 E22.62209
G1 X103.348 Y131.013 E22.84502
G1 X103.931 Y130.852 E23.07064
G1 X104.462 Y130.665 E23.28063
G1 X105.008 Y130.441 E23.50077
G1 X105.556 Y130.176 E23.72784
G1 X106.072 Y129.885 E23.94881
G1 X106.558 Y129.571 E24.16465
G1 X107.029 Y129.224 E24.38287
G1 X107.489 Y128.841 E24.60615
G1 X107.931 Y128.427 E24.83205
G1 X108.326 Y128.007 E25.04712
G1 X108.706 Y127.552 E25.26825
G1 X109.067 Y127.064 E25.49468
G1 X109.387 Y126.568 E25.71486
G1 X109.672 Y126.064 E25.93084
G1 X109.928 Y125.537 E26.14939
G1 X110.162 Y124.972 E26.3775
G1 X110.345 Y124.445 E26.5856
G1 X110.509 Y123.86 E26.81223
G1 X110.637 Y123.277 E27.03488
G1 X110.735 Y122.647 E27.27271
G1 X110.781 Y122.105 E27.47561
G1 X110.799 Y121.512 E27.69691
G1 X110.782 Y120.905 E27.92342
G1 X110.733 Y120.368 E28.12457
G1 X110.64 Y119.734 E28.36359
G1 X110.513 Y119.152 E28.5858
G1 X110.352 Y118.569 E28.81141
G1 X110.166 Y118.038 E29.02128
G1 X109.94 Y117.489 E29.24274
G1 X109.676 Y116.944 E29.46863
G1 X109.385 Y116.428 E29.68961
G1 X109.071 Y115.942 E29.90544
G1 X108.724 Y115.471 E30.12367
G1 X108.341 Y115.011 E30.34695
G1 X107.927 Y114.569 E30.57285
G1 X107.507 Y114.174 E30.78792
G1 X107.052 Y113.794 E31.00905
G1 X106.564 Y113.433 E31.23548
G1 X106.068 Y113.113 E31.45566
G1 X105.564 Y112.828 E31.67164
G1 X105.038 Y112.572 E31.88985
G1 X104.476 Y112.34 E32.11665
G1 X103.945 Y112.155 E32.3264
G1 X103.36 Y111.991 E32.55303
G1 X102.777 Y111.863 E32.77568
G1 X102.147 Y111.765 E33.0135
G1 X101.605 Y111.719 E33.21641
G1 X101.014 Y111.701 E33.43696
G1 X100.411 Y111.718 E33.66198
G1 X99.868 Y111.767 E33.86536
G1 X99.236 Y111.86 E34.10364
G1 X98.652 Y111.987 E34.32658
G1 X98.069 Y112.148 E34.55219
G1 X97.538 Y112.335 E34.76219
G1 X96.992 Y112.559 E34.98233
G1 X96.444 Y112.824 E35.20939
G1 X95.928 Y113.115 E35.43037
G1 X95.442 Y113.429 E35.6462
G1 X94.971 Y113.776 E35.86442
G1 X94.511 Y114.159 E36.0877
G1 X94.069 Y114.573 E36.31361
G1 X93.674 Y114.993 E36.52868
G1 X93.294 Y115.448 E36.74981
G1 X92.933 Y115.936 E36.97623
G1 X92.613 Y116.432 E37.19641
G1 X92.328 Y116.936 E37.41239
G1 X92.072 Y117.463 E37.63094
G1 X91.838 Y118.028 E37.85906
G1 X91.655 Y118.555 E38.06715
G1 X91.491 Y119.14 E38.29378
G1 X91.363 Y119.723 E38.51643
G1 X91.265 Y120.353 E38.75426
G1 X91.219 Y120.895 E38.95716
G1 X91.201 Y121.488 E39.17847
G1 X91.218 Y122.089 E39.40274
G1 X91.267 Y122.632 E39.60611
G1 X91.36 Y123.265 E39.84477
G1 X91.485 Y123.843 E40.06536
G1 X91.648 Y124.431 E40.29297
G1 X91.833 Y124.958 E40.50131
G1 X92.059 Y125.508 E40.72311
G1 X92.323 Y126.054 E40.94934
G1 X92.613 Y126.568 E41.16948
G1 X92.925 Y127.052 E41.38429
G1 X93.276 Y127.528 E41.6049
G1 X93.656 Y127.985 E41.8266
G1 X94.069 Y128.427 E42.05225
G1 X94.491 Y128.824 E42.26837
G1 X94.946 Y129.205 E42.48974
G1 X95.43 Y129.563 E42.7143
G1 X95.928 Y129.885 E42.93552
G1 X96.432 Y130.17 E43.15149
G1 X96.963 Y130.428 E43.37171
G1 X97.524 Y130.66 E43.59816
G1 X98.055 Y130.845 E43.80791
G1 X98.64 Y131.009 E44.03454
G1 X99.223 Y131.137 E44.25719
G1 X99.853 Y131.235 E44.49502
G1 X100.395 Y131.281 E44.69792
G1 X100.986 Y131.299 E44.91848
G1 X101.589 Y131.282 E45.1435
G0 F6000 X101.788 Y131.265
G1 F1500 E44.1435
G1 F600 Z1.3
G0 F6000 X93.449 Y126.497 Z1.3
;TYPE:FILL
G1 F600 Z0.3
G1 F1500 E45.29893
G1 F2400 X96.967 Y113.368 E50.36907
G1 X98.073 Y112.916 E50.81475
G1 X109.586 Y124.428 E56.88793
G1 X109.131 Y125.532 E57.33335
G1 X95.987 Y129.053 E62.40918
G1 X95.4 Y128.62 E62.68127
G1 X95.033 Y128.311 E62.86023
G1 X99.241 Y112.608 E68.92442
G1 X100.42 Y112.433 E69.36903
G1 X110.042 Y122.055 E74.44492
G1 X110.032 Y122.354 E74.55651
G1 X109.891 Y123.258 E74.8978
G1 X94.185 Y127.466 E80.96307
G1 X93.856 Y127.067 E81.15598
G1 X93.531 Y126.626 E81.36032
G1 X93.244 Y126.181 E81.55785
G1 X92.982 Y125.718 E81.75629
G1 X110.047 Y121.145 E88.34646
G1 X110.036 Y120.714 E88.50729
G1 X109.91 Y119.86 E88.82929
G1 X109.825 Y119.471 E88.97782
G1 X107.629 Y127.666 E92.14257
G1 X107.768 Y127.521 E92.21749
G1 X108.127 Y127.09 E92.42673
G1 X108.676 Y126.347 E92.77133
G1 X96.154 Y113.824 E99.37732
G1 X95.432 Y114.355 E99.71163
G1 X94.996 Y114.718 E99.92326
G1 X94.834 Y114.869 E100.00587
G1 X103.024 Y112.674 E103.16871
G1 X102.647 Y112.592 E103.31263
G1 X101.855 Y112.468 E103.61166
G1 X101.354 Y112.451 E103.79865
G1 X96.781 Y129.517 E110.38918
G1 X97.265 Y129.752 E110.58988
G1 X97.782 Y129.966 E110.7986
G1 X98.342 Y130.155 E111.01907
G1 X92.338 Y124.151 E114.18635
G1 X92.252 Y123.843 E114.30563
G1 X109.747 Y119.155 E121.06184
G1 X109.66 Y118.845 E121.18195
G1 X103.658 Y112.843 E124.34818
G1 X103.343 Y112.755 E124.47018
G1 X98.657 Y130.243 E131.22367
G1 X98.972 Y130.324 E131.34499
G1 X107.164 Y128.129 E134.50856
G1 X107.404 Y127.903 E134.63153
G1 X94.596 Y115.095 E141.38812
G1 X94.37 Y115.33 E141.50974
G1 X92.174 Y123.528 E144.67557
G1 X92.089 Y123.134 E144.82592
G1 X91.964 Y122.288 E145.14492
G1 X91.951 Y121.853 E145.30725
G1 X109.016 Y117.28 E151.89743
G1 X108.755 Y116.817 E152.09568
G1 X108.55 Y116.501 E152.23619
G1 X105.035 Y129.621 E157.3028
G1 X105.838 Y129.166 E157.64708
G1 X93.333 Y116.661 E164.24383
G1 X92.986 Y117.275 E164.50691
G1 X92.744 Y117.772 E164.71311
G1 X92.415 Y118.57 E165.03508
G1 X103.928 Y130.084 E171.10879
G1 X103.165 Y130.295 E171.40409
G1 X102.76 Y130.383 E171.55868
G1 X106.966 Y114.686 E177.62052
G1 X107.398 Y115.088 E177.84064
G1 X107.812 Y115.532 E178.06709
G1 X92.11 Y119.74 E184.13092
G1 X91.968 Y120.646 E184.473
G1 X91.957 Y120.942 E184.58349
G1 X101.556 Y130.541 E189.64725
G1 X100.64 Y130.57 E189.9891
G1 X105.218 Y113.482 E196.58805
G1 X105.682 Y113.745 E196.787
G1 X105.997 Y113.948 E196.92678
G1 X92.895 Y117.459 E201.98652
G1 X92.799 Y117.484
G1 F1500 E200.98652
G1 F600 Z1.3
;MESH:NONMESH
G0 F6000 X101.565 Y130.882 Z1.3
;TIME_ELAPSED:24.149067
;LAYER:1
;MESH:Sajad.stl
G0 X101.565 Y130.882 Z1.6
;TYPE:WALL-INNER
G1 F600 Z0.6
G1 F1500 E202.14195
G1 F1800 X102.085 Y130.835 E202.33671
G1 X102.692 Y130.746 E202.56555
G1 X103.252 Y130.625 E202.77926
G1 X103.825 Y130.466 E203.00108
G1 X104.333 Y130.287 E203.20199
G1 X104.861 Y130.069 E203.41507
G1 X105.37 Y129.823 E203.62595
G1 X105.865 Y129.543 E203.83809
G1 X106.342 Y129.234 E204.05009
G1 X106.794 Y128.9 E204.25973
G1 X107.234 Y128.532 E204.4737
G1 X107.648 Y128.144 E204.68535
G1 X108.036 Y127.731 E204.89673
G1 X108.4 Y127.294 E205.10888
G1 X108.738 Y126.836 E205.32121
G1 X109.045 Y126.361 E205.53218
G1 X109.325 Y125.866 E205.74432
G1 X109.569 Y125.361 E205.95353
G1 X109.788 Y124.831 E206.16744
G1 X109.963 Y124.325 E206.36716
G1 X110.127 Y123.745 E206.59199
G1 X110.246 Y123.192 E206.80299
G1 X110.339 Y122.585 E207.03206
G1 X110.382 Y122.067 E207.22595
G1 X110.399 Y121.498 E207.43829
G1 X110.382 Y120.93 E207.65026
G1 X110.335 Y120.415 E207.84316
G1 X110.246 Y119.806 E208.07274
G1 X110.125 Y119.248 E208.28573
G1 X109.966 Y118.675 E208.50754
G1 X109.787 Y118.167 E208.70846
G1 X109.569 Y117.639 E208.92154
G1 X109.323 Y117.13 E209.13242
G1 X109.043 Y116.635 E209.34455
G1 X108.734 Y116.158 E209.55656
G1 X108.4 Y115.706 E209.7662
G1 X108.032 Y115.266 E209.98016
G1 X107.644 Y114.852 E210.19181
G1 X107.231 Y114.464 E210.40319
G1 X106.794 Y114.1 E210.61534
G1 X106.336 Y113.762 E210.82767
G1 X105.861 Y113.455 E211.03864
G1 X105.366 Y113.175 E211.25078
G1 X104.861 Y112.931 E211.45999
G1 X104.335 Y112.714 E211.67224
G1 X103.825 Y112.537 E211.87361
G1 X103.25 Y112.375 E212.09645
G1 X102.69 Y112.254 E212.31016
G1 X102.085 Y112.161 E212.53849
G1 X101.567 Y112.118 E212.73238
G1 X101 Y112.101 E212.94397
G1 X100.435 Y112.118 E213.15482
G1 X99.915 Y112.165 E213.34959
G1 X99.308 Y112.254 E213.57843
G1 X98.748 Y112.375 E213.79214
G1 X98.175 Y112.534 E214.01396
G1 X97.667 Y112.713 E214.21487
G1 X97.139 Y112.931 E214.42795
G1 X96.63 Y113.177 E214.63883
G1 X96.135 Y113.457 E214.85097
G1 X95.658 Y113.766 E215.06297
G1 X95.206 Y114.1 E215.27261
G1 X94.766 Y114.468 E215.48658
G1 X94.352 Y114.856 E215.69823
G1 X93.964 Y115.269 E215.90961
G1 X93.6 Y115.706 E216.12176
G1 X93.262 Y116.164 E216.33409
G1 X92.955 Y116.639 E216.54506
G1 X92.675 Y117.134 E216.75719
G1 X92.431 Y117.639 E216.96641
G1 X92.212 Y118.169 E217.18032
G1 X92.037 Y118.675 E217.38004
G1 X91.873 Y119.255 E217.60487
G1 X91.754 Y119.808 E217.81587
G1 X91.661 Y120.415 E218.04494
G1 X91.618 Y120.933 E218.23883
G1 X91.601 Y121.501 E218.4508
G1 X91.618 Y122.065 E218.66127
G1 X91.665 Y122.585 E218.85603
G1 X91.754 Y123.194 E219.08562
G1 X91.873 Y123.747 E219.29662
G1 X92.034 Y124.325 E219.52043
G1 X92.211 Y124.829 E219.71969
G1 X92.431 Y125.361 E219.93443
G1 X92.675 Y125.866 E220.14365
G1 X92.955 Y126.361 E220.35578
G1 X93.262 Y126.836 E220.56675
G1 X93.6 Y127.294 E220.77908
G1 X93.964 Y127.731 E220.99123
G1 X94.352 Y128.144 E221.20261
G1 X94.766 Y128.532 E221.41426
G1 X95.206 Y128.9 E221.62823
G1 X95.658 Y129.234 E221.83787
G1 X96.136 Y129.543 E222.05019
G1 X96.63 Y129.823 E222.262
G1 X97.139 Y130.069 E222.47288
G1 X97.665 Y130.286 E222.68513
G1 X98.175 Y130.463 E222.8865
G1 X98.75 Y130.625 E223.10933
G1 X99.31 Y130.746 E223.32305
G1 X99.915 Y130.839 E223.55137
G1 X100.433 Y130.882 E223.74526
G1 X101 Y130.899 E223.95686
G1 X101.565 Y130.882 E224.16771
G0 F6000 X101.589 Y131.282
;TYPE:WALL-OUTER
G1 F1800 X102.132 Y131.233 E224.37108
G1 X102.764 Y131.14 E224.60937
G1 X103.348 Y131.013 E224.8323
G1 X103.945 Y130.848 E225.06335
G1 X104.476 Y130.661 E225.27334
G1 X105.025 Y130.434 E225.49495
G1 X105.556 Y130.177 E225.715
G1 X106.072 Y129.885 E225.93616
G1 X106.57 Y129.563 E226.15737
G1 X107.041 Y129.215 E226.37582
G1 X107.5 Y128.832 E226.59881
G1 X107.931 Y128.427 E226.81942
G1 X108.336 Y127.996 E227.04004
G1 X108.715 Y127.541 E227.26093
G1 X109.067 Y127.064 E227.48206
G1 X109.387 Y126.568 E227.70224
G1 X109.679 Y126.052 E227.9234
G1 X109.934 Y125.525 E228.14179
G1 X110.162 Y124.973 E228.36457
G1 X110.345 Y124.445 E228.57302
G1 X110.515 Y123.842 E228.80671
G1 X110.64 Y123.264 E229.0273
G1 X110.737 Y122.632 E229.26581
G1 X110.782 Y122.089 E229.46906
G1 X110.799 Y121.498 E229.6896
G1 X110.782 Y120.906 E229.91052
G1 X110.733 Y120.368 E230.11204
G1 X110.64 Y119.734 E230.35106
G1 X110.513 Y119.152 E230.57327
G1 X110.348 Y118.555 E230.80431
G1 X110.161 Y118.024 E231.01431
G1 X109.934 Y117.475 E231.23591
G1 X109.677 Y116.944 E231.45596
G1 X109.385 Y116.428 E231.67712
G1 X109.063 Y115.93 E231.89833
G1 X108.715 Y115.459 E232.11678
G1 X108.332 Y115 E232.33977
G1 X107.927 Y114.569 E232.56039
G1 X107.496 Y114.164 E232.781
G1 X107.041 Y113.785 E233.00189
G1 X106.564 Y113.433 E233.22302
G1 X106.068 Y113.113 E233.44321
G1 X105.552 Y112.821 E233.66437
G1 X105.025 Y112.566 E233.88275
G1 X104.477 Y112.34 E234.10387
G1 X103.945 Y112.155 E234.31397
G1 X103.347 Y111.987 E234.54567
G1 X102.763 Y111.86 E234.7686
G1 X102.132 Y111.763 E235.00674
G1 X101.589 Y111.718 E235.20999
G1 X101 Y111.701 E235.42979
G1 X100.411 Y111.718 E235.64959
G1 X99.868 Y111.767 E235.85296
G1 X99.236 Y111.86 E236.09125
G1 X98.652 Y111.987 E236.31418
G1 X98.055 Y112.152 E236.54522
G1 X97.524 Y112.339 E236.75522
G1 X96.975 Y112.566 E236.97682
G1 X96.444 Y112.823 E237.19688
G1 X95.928 Y113.115 E237.41804
G1 X95.43 Y113.437 E237.63925
G1 X94.959 Y113.785 E237.8577
G1 X94.5 Y114.168 E238.08069
G1 X94.069 Y114.573 E238.3013
G1 X93.664 Y115.004 E238.52192
G1 X93.285 Y115.459 E238.74281
G1 X92.933 Y115.936 E238.96394
G1 X92.613 Y116.432 E239.18412
G1 X92.321 Y116.948 E239.40528
G1 X92.066 Y117.475 E239.62367
G1 X91.838 Y118.027 E239.84645
G1 X91.655 Y118.555 E240.05489
G1 X91.485 Y119.158 E240.28859
G1 X91.36 Y119.736 E240.50918
G1 X91.263 Y120.368 E240.74769
G1 X91.218 Y120.911 E240.95093
G1 X91.201 Y121.501 E241.17111
G1 X91.218 Y122.089 E241.39053
G1 X91.267 Y122.632 E241.59391
G1 X91.36 Y123.265 E241.83256
G1 X91.485 Y123.843 E242.05315
G1 X91.652 Y124.445 E242.28619
G1 X91.837 Y124.972 E242.49453
G1 X92.066 Y125.525 E242.7178
G1 X92.321 Y126.052 E242.93618
G1 X92.613 Y126.568 E243.15734
G1 X92.933 Y127.064 E243.37753
G1 X93.285 Y127.541 E243.59866
G1 X93.664 Y127.996 E243.81955
G1 X94.069 Y128.427 E244.04016
G1 X94.5 Y128.832 E244.26078
G1 X94.959 Y129.215 E244.48377
G1 X95.43 Y129.563 E244.70222
G1 X95.928 Y129.885 E244.92343
G1 X96.444 Y130.177 E245.14459
G1 X96.975 Y130.434 E245.36464
