;FLAVOR:Marlin
;TIME:340
;Filament used: 3.01054m, 0m
;Layer height: 0.3
;MINX:91.201
;MINY:111.701
;MINZ:0.3
;MAXX:110.799
;MAXY:131.299
;MAXZ:7
;Generated with Cura_SteamEngine 5.0.1
T0
M140 S40
M105
M190 S40
M104 S200
M105
M109 S200
M82 ;absolute extrusion mode
M900 K0.020;
G28 ; home all axes
G1 Z5 F5000 ; lift nozzle
G1 X-45 Y70 F2500; go to glycerin roller;
G92 E0
G1 X-23 F5000; park to start
G92 E0; Extrude a small amount to clear nozzle
G1 E20 F4000
G4 P2000
G92 E0


G92 E0
G1 F1500 E-1
;LAYER_COUNT:20
;LAYER:0
M107
M204 S500
G1 F600 Z1.3
;MESH:Sajad.stl
G0 F6000 X101.565 Y130.882 Z1.3
;TYPE:WALL-INNER
G1 F600 Z0.3
G1 F1500 E0.15542
G1 F1800 X102.085 Y130.835 E0.35019
G1 X102.692 Y130.746 E0.57903
G1 X103.252 Y130.625 E0.79274
G1 X103.811 Y130.47 E1.00913
G1 X104.32 Y130.291 E1.21039
G1 X104.845 Y130.075 E1.42215
G1 X105.37 Y129.821 E1.6397
G1 X105.865 Y129.543 E1.85148
G1 X106.33 Y129.242 E2.0581
G1 X106.782 Y128.909 E2.26752
G1 X107.224 Y128.541 E2.48206
G1 X107.648 Y128.144 E2.69873
G1 X108.026 Y127.741 E2.90483
G1 X108.392 Y127.304 E3.11746
G1 X108.738 Y126.836 E3.33456
G1 X109.045 Y126.361 E3.54553
G1 X109.318 Y125.878 E3.75249
G1 X109.563 Y125.373 E3.96186
G1 X109.788 Y124.83 E4.18111
G1 X109.963 Y124.325 E4.38048
G1 X110.121 Y123.763 E4.59824
G1 X110.243 Y123.203 E4.81203
G1 X110.337 Y122.599 E5.04005
G1 X110.381 Y122.082 E5.2336
G1 X110.399 Y121.512 E5.44632
G1 X110.382 Y120.929 E5.66389
G1 X110.335 Y120.415 E5.85642
G1 X110.246 Y119.806 E6.086
G1 X110.125 Y119.248 E6.29898
G1 X109.97 Y118.689 E6.51537
G1 X109.792 Y118.18 E6.71651
G1 X109.574 Y117.653 E6.92925
G1 X109.322 Y117.13 E7.1458
G1 X109.043 Y116.635 E7.35775
G1 X108.742 Y116.17 E7.56438
G1 X108.409 Y115.718 E7.7738
G1 X108.041 Y115.276 E7.98834
G1 X107.644 Y114.852 E8.205
G1 X107.241 Y114.474 E8.41111
G1 X106.804 Y114.108 E8.62374
G1 X106.336 Y113.762 E8.84084
G1 X105.861 Y113.455 E9.05181
G1 X105.378 Y113.182 E9.25877
G1 X104.874 Y112.937 E9.46781
G1 X104.334 Y112.714 E9.68574
G1 X103.825 Y112.537 E9.88676
G1 X103.263 Y112.379 E10.10452
G1 X102.703 Y112.257 E10.31831
G1 X102.099 Y112.163 E10.54633
G1 X101.582 Y112.119 E10.73987
G1 X101.014 Y112.101 E10.95186
G1 X100.435 Y112.118 E11.16793
G1 X99.915 Y112.165 E11.36269
G1 X99.308 Y112.254 E11.59153
G1 X98.748 Y112.375 E11.80524
G1 X98.189 Y112.53 E12.02163
G1 X97.68 Y112.709 E12.22289
G1 X97.155 Y112.924 E12.43451
G1 X96.63 Y113.179 E12.65223
G1 X96.135 Y113.457 E12.864
G1 X95.67 Y113.758 E13.07062
G1 X95.218 Y114.091 E13.28004
G1 X94.776 Y114.459 E13.49458
G1 X94.352 Y114.856 E13.71125
G1 X93.974 Y115.259 E13.91736
G1 X93.608 Y115.696 E14.12998
G1 X93.262 Y116.164 E14.34709
G1 X92.955 Y116.639 E14.55806
G1 X92.682 Y117.122 E14.76501
G1 X92.437 Y117.627 E14.97439
G1 X92.212 Y118.17 E15.19364
G1 X92.037 Y118.675 E15.393
G1 X91.879 Y119.237 E15.61077
G1 X91.757 Y119.797 E15.82456
G1 X91.663 Y120.401 E16.05257
G1 X91.619 Y120.918 E16.24612
G1 X91.601 Y121.488 E16.45885
G1 X91.618 Y122.065 E16.67417
G1 X91.665 Y122.585 E16.86893
G1 X91.754 Y123.194 E17.09851
G1 X91.873 Y123.747 E17.30952
G1 X92.03 Y124.311 E17.5279
G1 X92.207 Y124.816 E17.72751
G1 X92.424 Y125.344 E17.94045
G1 X92.678 Y125.868 E18.15766
G1 X92.955 Y126.361 E18.3686
G1 X93.255 Y126.825 E18.57471
G1 X93.591 Y127.282 E18.78629
G1 X93.956 Y127.72 E18.99897
G1 X94.352 Y128.144 E19.21538
G1 X94.757 Y128.525 E19.4228
G1 X95.194 Y128.891 E19.63543
G1 X95.658 Y129.234 E19.85067
G1 X96.136 Y129.543 E20.06298
G1 X96.618 Y129.816 E20.26961
G1 X97.127 Y130.063 E20.48065
G1 X97.666 Y130.286 E20.69824
G1 X98.175 Y130.463 E20.89926
G1 X98.737 Y130.621 E21.11702
G1 X99.297 Y130.743 E21.33081
G1 X99.901 Y130.837 E21.55883
G1 X100.418 Y130.881 E21.75238
G1 X100.986 Y130.899 E21.96436
G1 X101.565 Y130.882 E22.18043
G0 F6000 X101.589 Y131.282
;TYPE:WALL-OUTER
G1 F1800 X102.132 Y131.233 E22.3838
G1 X102.764 Y131.14 E22.62209
G1 X103.348 Y131.013 E22.84502
G1 X103.931 Y130.852 E23.07064
G1 X104.462 Y130.665 E23.28063
G1 X105.008 Y130.441 E23.50077
G1 X105.556 Y130.176 E23.72784
G1 X106.072 Y129.885 E23.94881
G1 X106.558 Y129.571 E24.16465
G1 X107.029 Y129.224 E24.38287
G1 X107.489 Y128.841 E24.60615
G1 X107.931 Y128.427 E24.83205
G1 X108.326 Y128.007 E25.04712
G1 X108.706 Y127.552 E25.26825
G1 X109.067 Y127.064 E25.49468
G1 X109.387 Y126.568 E25.71486
G1 X109.672 Y126.064 E25.93084
G1 X109.928 Y125.537 E26.14939
G1 X110.162 Y124.972 E26.3775
G1 X110.345 Y124.445 E26.5856
G1 X110.509 Y123.86 E26.81223
G1 X110.637 Y123.277 E27.03488
G1 X110.735 Y122.647 E27.27271
G1 X110.781 Y122.105 E27.47561
G1 X110.799 Y121.512 E27.69691
G1 X110.782 Y120.905 E27.92342
G1 X110.733 Y120.368 E28.12457
G1 X110.64 Y119.734 E28.36359
G1 X110.513 Y119.152 E28.5858
G1 X110.352 Y118.569 E28.81141
G1 X110.166 Y118.038 E29.02128
G1 X109.94 Y117.489 E29.24274
G1 X109.676 Y116.944 E29.46863
G1 X109.385 Y116.428 E29.68961
G1 X109.071 Y115.942 E29.90544
G1 X108.724 Y115.471 E30.12367
G1 X108.341 Y115.011 E30.34695
G1 X107.927 Y114.569 E30.57285
G1 X107.507 Y114.174 E30.78792
G1 X107.052 Y113.794 E31.00905
G1 X106.564 Y113.433 E31.23548
G1 X106.068 Y113.113 E31.45566
G1 X105.564 Y112.828 E31.67164
G1 X105.038 Y112.572 E31.88985
G1 X104.476 Y112.34 E32.11665
G1 X103.945 Y112.155 E32.3264
G1 X103.36 Y111.991 E32.55303
G1 X102.777 Y111.863 E32.77568
G1 X102.147 Y111.765 E33.0135
G1 X101.605 Y111.719 E33.21641
G1 X101.014 Y111.701 E33.43696
G1 X100.411 Y111.718 E33.66198
G1 X99.868 Y111.767 E33.86536
G1 X99.236 Y111.86 E34.10364
G1 X98.652 Y111.987 E34.32658
G1 X98.069 Y112.148 E34.55219
G1 X97.538 Y112.335 E34.76219
G1 X96.992 Y112.559 E34.98233
G1 X96.444 Y112.824 E35.20939
G1 X95.928 Y113.115 E35.43037
G1 X95.442 Y113.429 E35.6462
G1 X94.971 Y113.776 E35.86442
G1 X94.511 Y114.159 E36.0877
G1 X94.069 Y114.573 E36.31361
G1 X93.674 Y114.993 E36.52868
G1 X93.294 Y115.448 E36.74981
G1 X92.933 Y115.936 E36.97623
G1 X92.613 Y116.432 E37.19641
G1 X92.328 Y116.936 E37.41239
G1 X92.072 Y117.463 E37.63094
G1 X91.838 Y118.028 E37.85906
G1 X91.655 Y118.555 E38.06715
G1 X91.491 Y119.14 E38.29378
G1 X91.363 Y119.723 E38.51643
G1 X91.265 Y120.353 E38.75426
G1 X91.219 Y120.895 E38.95716
G1 X91.201 Y121.488 E39.17847
G1 X91.218 Y122.089 E39.40274
G1 X91.267 Y122.632 E39.60611
G1 X91.36 Y123.265 E39.84477
G1 X91.485 Y123.843 E40.06536
G1 X91.648 Y124.431 E40.29297
G1 X91.833 Y124.958 E40.50131
G1 X92.059 Y125.508 E40.72311
G1 X92.323 Y126.054 E40.94934
G1 X92.613 Y126.568 E41.16948
G1 X92.925 Y127.052 E41.38429
G1 X93.276 Y127.528 E41.6049
G1 X93.656 Y127.985 E41.8266
G1 X94.069 Y128.427 E42.05225
G1 X94.491 Y128.824 E42.26837
G1 X94.946 Y129.205 E42.48974
G1 X95.43 Y129.563 E42.7143
G1 X95.928 Y129.885 E42.93552
G1 X96.432 Y130.17 E43.15149
G1 X96.963 Y130.428 E43.37171
G1 X97.524 Y130.66 E43.59816
G1 X98.055 Y130.845 E43.80791
G1 X98.64 Y131.009 E44.03454
G1 X99.223 Y131.137 E44.25719
G1 X99.853 Y131.235 E44.49502
G1 X100.395 Y131.281 E44.69792
G1 X100.986 Y131.299 E44.91848
G1 X101.589 Y131.282 E45.1435
G0 F6000 X101.788 Y131.265
G1 F1500 E44.1435
G1 F600 Z1.3
G0 F6000 X93.519 Y126.609 Z1.3
;TYPE:FILL
G1 F600 Z0.3
G1 F1500 E45.29893
G1 F2400 X110.036 Y122.183 E51.67746
G1 X110.042 Y122.055 E51.72526
G1 X100.443 Y112.456 E56.78901
G1 X101.014 Y112.441 E57.00207
G1 X101.867 Y112.468 E57.32042
G1 X97.239 Y129.738 E63.98977
G1 X96.78 Y129.517 E64.17979
G1 X96.313 Y129.252 E64.38009
G1 X96 Y129.05 E64.51904
G1 X109.103 Y125.539 E69.57914
G1 X109.163 Y125.419 E69.62919
G1 X97.08 Y113.337 E76.00306
G1 X97.714 Y113.062 E76.26084
G1 X99.621 Y112.551 E76.99728
G1 X99.362 Y112.59 E77.09499
G1 X98.689 Y112.737 E77.35195
G1 X94.619 Y127.927 E83.21798
G1 X94.987 Y128.274 E83.40665
G1 X95.355 Y128.582 E83.58566
G1 X93.901 Y127.128 E84.35268
G1 X93.531 Y126.626 E84.58531
G1 X93.244 Y126.181 E84.78283
G1 X92.981 Y125.714 E84.98275
G1 X92.732 Y125.2 E85.1958
G1 X92.436 Y124.479 E85.48653
G1 X95.069 Y114.655 E89.28041
G1 X94.596 Y115.095 E89.52138
G1 X107.404 Y127.903 E96.27797
G1 X106.927 Y128.355 E96.5231
G1 X109.557 Y118.54 E100.31345
G1 X109.747 Y119.155 E100.55355
G1 X92.243 Y123.845 E107.31319
G1 X92.089 Y123.134 E107.58456
G1 X91.964 Y122.288 E107.90356
G1 X91.941 Y121.494 E108.19986
G1 X91.957 Y120.942 E108.40586
G1 X101.556 Y130.541 E113.46961
G1 X100.986 Y130.559 E113.68234
G1 X100.133 Y130.53 E114.0007
G1 X104.76 Y113.26 E120.66995
G1 X105.214 Y113.48 E120.85814
G1 X105.682 Y113.745 E121.05876
G1 X105.997 Y113.948 E121.19854
G1 X92.87 Y117.466 E126.26797
G1 X92.528 Y118.296 E126.60282
G1 X92.364 Y118.771 E126.79027
G1 X92.208 Y119.325 E127.00496
G1 X92.092 Y119.854 E127.20698
G1 X91.941 Y120.82 E127.57169
G1 X108.478 Y116.389 E133.95791
G1 X108.096 Y115.867 E134.1992
G1 X106.657 Y114.428 E134.95831
G1 X107.381 Y115.072 E135.31976
G1 X103.31 Y130.263 E141.18624
G1 X102.638 Y130.41 E141.44284
G1 X102.37 Y130.449 E141.54386
G1 X104.29 Y129.935 E142.28528
G1 X104.919 Y129.66 E142.54135
G1 X92.837 Y117.579 E148.9147
G1 F1500 E147.9147
G1 F600 Z1.3
;MESH:NONMESH
G0 F6000 X101.565 Y130.882 Z1.3
;TIME_ELAPSED:19.446432
;LAYER:1
;MESH:Sajad.stl
G0 X101.565 Y130.882 Z1.6
;TYPE:WALL-INNER
G1 F600 Z0.6
G1 F1500 E149.07012
G1 F1800 X102.085 Y130.835 E149.26488
G1 X102.692 Y130.746 E149.49373
G1 X103.252 Y130.625 E149.70744
G1 X103.825 Y130.466 E149.92925
G1 X104.333 Y130.287 E150.13017
G1 X104.861 Y130.069 E150.34325
G1 X105.37 Y129.823 E150.55413
G1 X105.865 Y129.543 E150.76626
G1 X106.342 Y129.234 E150.97827
G1 X106.794 Y128.9 E151.18791
G1 X107.234 Y128.532 E151.40187
G1 X107.648 Y128.144 E151.61353
G1 X108.036 Y127.731 E151.8249
G1 X108.4 Y127.294 E152.03705
G1 X108.738 Y126.836 E152.24938
G1 X109.045 Y126.361 E152.46035
G1 X109.325 Y125.866 E152.67249
G1 X109.569 Y125.361 E152.8817
G1 X109.788 Y124.831 E153.09562
G1 X109.963 Y124.325 E153.29533
G1 X110.127 Y123.745 E153.52017
G1 X110.246 Y123.192 E153.73117
G1 X110.339 Y122.585 E153.96023
G1 X110.382 Y122.067 E154.15412
G1 X110.399 Y121.498 E154.36646
G1 X110.382 Y120.93 E154.57843
G1 X110.335 Y120.415 E154.77134
G1 X110.246 Y119.806 E155.00092
G1 X110.125 Y119.248 E155.2139
G1 X109.966 Y118.675 E155.43572
G1 X109.787 Y118.167 E155.63663
G1 X109.569 Y117.639 E155.84971
G1 X109.323 Y117.13 E156.06059
G1 X109.043 Y116.635 E156.27273
G1 X108.734 Y116.158 E156.48473
G1 X108.4 Y115.706 E156.69437
G1 X108.032 Y115.266 E156.90834
G1 X107.644 Y114.852 E157.11999
G1 X107.231 Y114.464 E157.33137
G1 X106.794 Y114.1 E157.54352
G1 X106.336 Y113.762 E157.75585
G1 X105.861 Y113.455 E157.96682
G1 X105.366 Y113.175 E158.17896
G1 X104.861 Y112.931 E158.38817
G1 X104.335 Y112.714 E158.60042
G1 X103.825 Y112.537 E158.80179
G1 X103.25 Y112.375 E159.02462
G1 X102.69 Y112.254 E159.23834
G1 X102.085 Y112.161 E159.46666
G1 X101.567 Y112.118 E159.66055
G1 X101 Y112.101 E159.87215
G1 X100.435 Y112.118 E160.083
G1 X99.915 Y112.165 E160.27776
G1 X99.308 Y112.254 E160.5066
G1 X98.748 Y112.375 E160.72032
G1 X98.175 Y112.534 E160.94213
G1 X97.667 Y112.713 E161.14305
G1 X97.139 Y112.931 E161.35613
G1 X96.63 Y113.177 E161.56701
G1 X96.135 Y113.457 E161.77914
G1 X95.658 Y113.766 E161.99115
G1 X95.206 Y114.1 E162.20079
G1 X94.766 Y114.468 E162.41475
G1 X94.352 Y114.856 E162.6264
G1 X93.964 Y115.269 E162.83778
G1 X93.6 Y115.706 E163.04993
G1 X93.262 Y116.164 E163.26226
G1 X92.955 Y116.639 E163.47323
G1 X92.675 Y117.134 E163.68537
G1 X92.431 Y117.639 E163.89458
G1 X92.212 Y118.169 E164.10849
G1 X92.037 Y118.675 E164.30821
G1 X91.873 Y119.255 E164.53305
G1 X91.754 Y119.808 E164.74405
G1 X91.661 Y120.415 E164.97311
G1 X91.618 Y120.933 E165.167
G1 X91.601 Y121.501 E165.37897
G1 X91.618 Y122.065 E165.58945
G1 X91.665 Y122.585 E165.78421
G1 X91.754 Y123.194 E166.01379
G1 X91.873 Y123.747 E166.22479
G1 X92.034 Y124.325 E166.44861
G1 X92.211 Y124.829 E166.64786
G1 X92.431 Y125.361 E166.86261
G1 X92.675 Y125.866 E167.07182
G1 X92.955 Y126.361 E167.28396
G1 X93.262 Y126.836 E167.49493
G1 X93.6 Y127.294 E167.70726
G1 X93.964 Y127.731 E167.91941
G1 X94.352 Y128.144 E168.13079
G1 X94.766 Y128.532 E168.34244
G1 X95.206 Y128.9 E168.5564
G1 X95.658 Y129.234 E168.76605
G1 X96.136 Y129.543 E168.97836
G1 X96.63 Y129.823 E169.19017
G1 X97.139 Y130.069 E169.40105
G1 X97.665 Y130.286 E169.6133
G1 X98.175 Y130.463 E169.81467
G1 X98.75 Y130.625 E170.03751
G1 X99.31 Y130.746 E170.25122
G1 X99.915 Y130.839 E170.47955
G1 X100.433 Y130.882 E170.67344
G1 X101 Y130.899 E170.88503
G1 X101.565 Y130.882 E171.09589
G0 F6000 X101.589 Y131.282
;TYPE:WALL-OUTER
G1 F1800 X102.132 Y131.233 E171.29926
G1 X102.764 Y131.14 E171.53755
G1 X103.348 Y131.013 E171.76048
G1 X103.945 Y130.848 E171.99152
G1 X104.476 Y130.661 E172.20152
G1 X105.025 Y130.434 E172.42312
G1 X105.556 Y130.177 E172.64317
G1 X106.072 Y129.885 E172.86433
G1 X106.57 Y129.563 E173.08555
G1 X107.041 Y129.215 E173.30399
G1 X107.5 Y128.832 E173.52699
G1 X107.931 Y128.427 E173.7476
G1 X108.336 Y127.996 E173.96821
G1 X108.715 Y127.541 E174.1891
G1 X109.067 Y127.064 E174.41024
G1 X109.387 Y126.568 E174.63042
G1 X109.679 Y126.052 E174.85158
G1 X109.934 Y125.525 E175.06996
G1 X110.162 Y124.973 E175.29274
G1 X110.345 Y124.445 E175.50119
G1 X110.515 Y123.842 E175.73489
G1 X110.64 Y123.264 E175.95548
G1 X110.737 Y122.632 E176.19399
G1 X110.782 Y122.089 E176.39723
G1 X110.799 Y121.498 E176.61778
G1 X110.782 Y120.906 E176.8387
G1 X110.733 Y120.368 E177.04021
G1 X110.64 Y119.734 E177.27924
G1 X110.513 Y119.152 E177.50144
G1 X110.348 Y118.555 E177.73248
G1 X110.161 Y118.024 E177.94248
G1 X109.934 Y117.475 E178.16408
G1 X109.677 Y116.944 E178.38414
G1 X109.385 Y116.428 E178.6053
G1 X109.063 Y115.93 E178.82651
G1 X108.715 Y115.459 E179.04496
G1 X108.332 Y115 E179.26795
G1 X107.927 Y114.569 E179.48856
G1 X107.496 Y114.164 E179.70918
G1 X107.041 Y113.785 E179.93007
G1 X106.564 Y113.433 E180.1512
G1 X106.068 Y113.113 E180.37138
G1 X105.552 Y112.821 E180.59254
G1 X105.025 Y112.566 E180.81093
G1 X104.477 Y112.34 E181.03204
G1 X103.945 Y112.155 E181.24214
G1 X103.347 Y111.987 E181.47384
G1 X102.763 Y111.86 E181.69678
G1 X102.132 Y111.763 E181.93492
G1 X101.589 Y111.718 E182.13816
G1 X101 Y111.701 E182.35796
G1 X100.411 Y111.718 E182.57776
G1 X99.868 Y111.767 E182.78114
G1 X99.236 Y111.86 E183.01942
G1 X98.652 Y111.987 E183.24236
G1 X98.055 Y112.152 E183.4734
G1 X97.524 Y112.339 E183.6834
G1 X96.975 Y112.566 E183.905
G1 X96.444 Y112.823 E184.12505
G1 X95.928 Y113.115 E184.34621
G1 X95.43 Y113.437 E184.56743
G1 X94.959 Y113.785 E184.78587
G1 X94.5 Y114.168 E185.00886
G1 X94.069 Y114.573 E185.22948
G1 X93.664 Y115.004 E185.45009
G1 X93.285 Y115.459 E185.67098
G1 X92.933 Y115.936 E185.89211
G1 X92.613 Y116.432 E186.1123
G1 X92.321 Y116.948 E186.33346
G1 X92.066 Y117.475 E186.55184
G1 X91.838 Y118.027 E186.77462
G1 X91.655 Y118.555 E186.98307
G1 X91.485 Y119.158 E187.21677
G1 X91.36 Y119.736 E187.43736
G1 X91.263 Y120.368 E187.67587
G1 X91.218 Y120.911 E187.87911
G1 X91.201 Y121.501 E188.09928
G1 X91.218 Y122.089 E188.31871
G1 X91.267 Y122.632 E188.52208
G1 X91.36 Y123.265 E188.76074
G1 X91.485 Y123.843 E188.98133
G1 X91.652 Y124.445 E189.21437
G1 X91.837 Y124.972 E189.42271
G1 X92.066 Y125.525 E189.64597
G1 X92.321 Y126.052 E189.86436
G1 X92.613 Y126.568 E190.08552
G1 X92.933 Y127.064 E190.3057
G1 X93.285 Y127.541 E190.52683
G1 X93.664 Y127.996 E190.74772
G1 X94.069 Y128.427 E190.96834
G1 X94.5 Y128.832 E191.18895
G1 X94.959 Y129.215 E191.41194
G1 X95.43 Y129.563 E191.63039
G1 X95.928 Y129.885 E191.8516
G1 X96.444 Y130.177 E192.07276
G1 X96.975 Y130.434 E192.29282
G1 X97.523 Y130.66 E192.51393
G1 X98.055 Y130.845 E192.72403
G1 X98.653 Y131.013 E192.95574
G1 X99.237 Y131.14 E193.17867
G1 X99.868 Y131.237 E193.41681
G1 X100.411 Y131.282 E193.62006
G1 X101 Y131.299 E193.83985
G1 X101.589 Y131.282 E194.05965
G0 F6000 X101.788 Y131.265
G1 F1500 E193.05965
G1 F600 Z1.6
G0 F6000 X91.969 Y120.632 Z1.6
;TYPE:FILL
G1 F600 Z0.6
G1 F1500 E194.21508
G1 F2400 X109.238 Y125.26 E200.88407
G1 X109.021 Y125.711 E201.07076
G1 X108.757 Y126.179 E201.27119
G1 X108.549 Y126.498 E201.41324
G1 X105.038 Y113.394 E206.4737
G1 X104.92 Y113.336 E206.52275
G1 X92.838 Y125.418 E212.89635
