; generated by PrusaSlicer 2.7.4+MacOS-x64 on 2024-07-12 at 16:01:14 UTC

; 

; external perimeters extrusion width = 0.45mm
; perimeters extrusion width = 0.45mm
; infill extrusion width = 0.45mm
; solid infill extrusion width = 0.45mm
; top infill extrusion width = 0.40mm
; support material extrusion width = 0.35mm
; first layer extrusion width = 0.42mm

;TYPE:Custom
M104 ; Prevent Pusaslicer from adding temperature commands
; Run custom start G-code
T-1  ; Clear tool selection
G29 S1   ; Activate Mesh Bed Compensation and Load Saved Heightmap
G10 P0 S210 ; set T0 extruder temp
G10 P0 R180 ; set T0 idle temp
G10 P1 S210 ; set T1 extruder temp
G10 P1 R180 ; set T1 idle temp
G10 P2 S210 ; set T2 extruder temp
G10 P2 R180 ; set T2 idle temp
G10 P3 S210 ; set T3 extruder temp
G10 P3 R180 ; set T3 idle temp
T-1 ; Clear tool selection
T0  ; Pick up current tool
M140 S60 ; set bed temp
M190 S60 ; wait for bed temp
M116 P0  ; wait for extruder to reach temp
M98 P"prime_T0.g" ; Prime extruder 



G21 ; set units to millimeters
G90 ; use absolute coordinates
M83 ; use relative distances for extrusion
; Filament gcode
M107
;LAYER_CHANGE
;Z:0.25
;HEIGHT:0.25
G1 E-8 F3000
G1 Z.3 F7800
G1 X128.312 Y86.352
G1 Z.25
G1 E8.25 F3000
;TYPE:Skirt/Brim
;WIDTH:0.42
G1 F1800
G1 X128.816 Y85.841 E.02733
G1 X129.126 Y85.648 E.0139
G1 X129.62 Y85.494 E.0197
G1 X135.336 Y85.489 E.21765
G1 X136.041 Y85.737 E.02846
G1 X136.628 Y86.279 E.03042
G1 X136.854 Y86.63 E.0159
G1 X137.015 Y87.178 E.02175
G1 X137.031 Y95.959 E.33436
G1 X137.195 Y96.428 E.01892
G1 X137.401 Y96.683 E.01248
G1 X137.823 Y96.947 E.01895
G1 X138.322 Y97.022 E.01921
G1 X138.808 Y96.889 E.01919
G1 X139.24 Y96.534 E.02129
G1 X146.608 Y87.816 E.43464
G1 X147.223 Y87.325 E.02997
G1 X147.881 Y86.942 E.02899
G1 X149.07 Y86.529 E.04793
G1 X149.918 Y86.415 E.03258
G1 X151.167 Y86.499 E.04767
G1 X152 Y86.728 E.0329
G1 X153.116 Y87.295 E.04766
G1 X153.714 Y87.761 E.02887
G1 X160.763 Y96.081 E.41522
G1 X161.052 Y96.351 E.01506
G1 X161.351 Y96.501 E.01274
G1 X161.852 Y96.562 E.01922
G1 X162.171 Y96.493 E.01243
G1 X162.709 Y96.109 E.02517
G1 X162.969 Y95.508 E.02493
G1 X162.985 Y87.203 E.31624
G1 X163.074 Y86.804 E.01557
G1 X163.349 Y86.301 E.02183
G1 X163.884 Y85.787 E.02825
G1 X164.677 Y85.485 E.03231
G1 X170.335 Y85.489 E.21544
G1 X170.695 Y85.574 E.01408
G1 X171.199 Y85.849 E.02186
G1 X171.713 Y86.384 E.02825
G1 X172.015 Y87.178 E.03235
G1 X172.015 Y112.797 E.97551
G1 X171.926 Y113.197 E.0156
G1 X171.683 Y113.655 E.01974
G1 X171.115 Y114.214 E.03035
G1 X170.322 Y114.515 E.0323
G1 X165.202 Y114.515 E.19496
G1 X164.681 Y114.396 E.02035
G1 X164.206 Y114.149 E.02039
G1 X163.952 Y113.93 E.01277
G1 X151.181 Y98.709 E.75656
G1 X150.754 Y98.357 E.02107
G1 X150.274 Y98.223 E.01898
G1 X149.634 Y98.353 E.02487
G1 X149.202 Y98.71 E.02134
G1 X136.29 Y114.062 E.76384
G1 X135.687 Y114.403 E.02638
G1 X135.181 Y114.515 E.01973
G1 X129.703 Y114.515 E.20859
G1 X129.303 Y114.426 E.0156
G1 X128.845 Y114.183 E.01974
G1 X128.286 Y113.615 E.03035
G1 X127.985 Y112.822 E.0323
G1 X127.985 Y87.207 E.97536
G1 X128.039 Y86.907 E.01161
G1 X128.286 Y86.405 E.0213
G1 X128.286 Y86.405 F7800
G1 X128.626 Y86.544
G1 F1800
G1 X128.627 Y86.541 E.00012
G1 X129.031 Y86.138 E.02173
G1 X129.651 Y85.861 E.02586
G1 X135.315 Y85.855 E.21567
G1 X135.857 Y86.056 E.02201
G1 X136.361 Y86.53 E.02634
G1 X136.649 Y87.206 E.02798
G1 X136.667 Y96.008 E.33516
G1 X136.882 Y96.618 E.02463
G1 X137.321 Y97.092 E.0246
G1 X137.912 Y97.353 E.0246
G1 X138.343 Y97.387 E.01646
G1 X138.967 Y97.22 E.0246
G1 X139.513 Y96.779 E.02672
G1 X146.865 Y88.078 E.43375
G1 X147.42 Y87.635 E.02704
G1 X148.033 Y87.276 E.02705
G1 X149.156 Y86.886 E.04527
G1 X149.928 Y86.782 E.02966
G1 X151.107 Y86.861 E.04499
G1 X151.866 Y87.07 E.02998
G1 X152.92 Y87.605 E.04501
G1 X153.479 Y88.042 E.02702
G1 X160.676 Y96.519 E.42343
G1 X161.033 Y96.763 E.01647
G1 X161.442 Y96.903 E.01646
G1 X161.874 Y96.928 E.01648
G1 X162.296 Y96.837 E.01644
G1 X162.679 Y96.635 E.01649
G1 X162.994 Y96.339 E.01646
G1 X163.217 Y95.968 E.01648
G1 X163.333 Y95.552 E.01644
G1 X163.351 Y87.222 E.31719
G1 X163.627 Y86.542 E.02794
G1 X164.09 Y86.09 E.02464
G1 X164.706 Y85.851 E.02516
G1 X170.278 Y85.851 E.21217
G1 X170.958 Y86.127 E.02794
G1 X171.41 Y86.59 E.02464
G1 X171.649 Y87.206 E.02516
G1 X171.649 Y112.778 E.97372
G1 X171.373 Y113.458 E.02794
G1 X170.91 Y113.91 E.02464
G1 X170.294 Y114.149 E.02516
G1 X165.222 Y114.149 E.19313
G1 X164.826 Y114.059 E.01546
G1 X164.426 Y113.855 E.0171
G1 X151.454 Y98.465 E.76642
G1 X150.915 Y98.027 E.02645
G1 X150.299 Y97.857 E.02433
G1 X149.872 Y97.886 E.0163
G1 X149.468 Y98.027 E.01629
G1 X148.929 Y98.465 E.02645
G1 X136.061 Y113.775 E.76153
G1 X135.551 Y114.062 E.02228
G1 X135.161 Y114.149 E.01522
G1 X129.722 Y114.149 E.2071
G1 X129.042 Y113.873 E.02794
G1 X128.59 Y113.41 E.02464
G1 X128.351 Y112.794 E.02516
G1 X128.351 Y87.22 E.9738
G1 X128.604 Y86.599 E.02553
G1 X128.604 Y86.599 F7800
G1 X128.908 Y86.778
G1 F1800
G1 X129.403 Y86.328 E.02547
G1 X129.737 Y86.218 E.01339
G1 X135.293 Y86.221 E.21156
G1 X135.672 Y86.373 E.01555
G1 X136.091 Y86.778 E.02219
G1 X136.282 Y87.237 E.01893
G1 X136.282 Y95.749 E.32412
G1 X136.357 Y96.319 E.02189
G1 X136.568 Y96.807 E.02024
G1 X137.107 Y97.391 E.03026
G1 X137.834 Y97.712 E.03026
G1 X138.364 Y97.754 E.02024
G1 X139.132 Y97.548 E.03028
G1 X139.785 Y97.024 E.03188
G1 X147.104 Y88.356 E.43198
G1 X148.186 Y87.609 E.05006
G1 X149.243 Y87.242 E.04261
G1 X149.939 Y87.148 E.02674
G1 X151.048 Y87.223 E.04232
G1 X151.732 Y87.411 E.02701
G1 X152.724 Y87.914 E.04235
G1 X153.242 Y88.322 E.02511
G1 X160.43 Y96.791 E.42297
G1 X160.868 Y97.091 E.02022
G1 X161.371 Y97.264 E.02025
G1 X161.902 Y97.295 E.02025
G1 X162.422 Y97.182 E.02026
G1 X162.893 Y96.934 E.02027
G1 X163.279 Y96.569 E.02023
G1 X163.554 Y96.114 E.02024
G1 X163.697 Y95.602 E.02024
G1 X163.718 Y87.24 E.31841
G1 X163.907 Y86.78 E.01894
G1 X164.303 Y86.389 E.02119
G1 X164.737 Y86.218 E.01776
G1 X170.407 Y86.249 E.2159
G1 X170.72 Y86.407 E.01335
G1 X171.111 Y86.803 E.02119
G1 X171.282 Y87.237 E.01776
G1 X171.282 Y112.76 E.97185
G1 X171.093 Y113.22 E.01894
G1 X170.697 Y113.611 E.02119
G1 X170.263 Y113.782 E.01776
G1 X165.242 Y113.782 E.19119
G1 X164.643 Y113.559 E.02434
G1 X151.727 Y98.22 E.76356
G1 X151.081 Y97.7 E.03158
G1 X150.323 Y97.491 E.02994
G1 X149.798 Y97.526 E.02004
G1 X149.302 Y97.7 E.02001
G1 X148.656 Y98.22 E.03158
G1 X135.83 Y113.49 E.75934
G1 X135.414 Y113.722 E.01814
G1 X135.141 Y113.782 E.01064
G1 X129.74 Y113.782 E.20566
G1 X129.28 Y113.593 E.01894
G1 X128.889 Y113.197 E.02119
G1 X128.718 Y112.763 E.01776
G1 X128.718 Y87.237 E.97197
G1 X128.885 Y86.834 E.01661
G1 X128.885 Y86.834 F7800
G1 X129.191 Y87.014
G1 F1800
G1 X129.524 Y86.681 E.01793
G1 X129.771 Y86.584 E.0101
G1 X135.243 Y86.584 E.20836
G1 X135.486 Y86.691 E.01011
G1 X135.819 Y87.024 E.01793
G1 X135.916 Y87.271 E.0101
G1 X135.916 Y95.761 E.32328
G1 X136.003 Y96.417 E.0252
G1 X136.253 Y96.997 E.02405
G1 X136.894 Y97.689 E.03592
G1 X137.756 Y98.071 E.0359
G1 X138.386 Y98.12 E.02406
G1 X139.297 Y97.876 E.03591
G1 X140.058 Y97.269 E.03707
G1 X147.36 Y88.618 E.43107
G1 X148.339 Y87.942 E.0453
G1 X149.328 Y87.598 E.03987
G1 X149.949 Y87.514 E.02386
G1 X150.987 Y87.584 E.03961
G1 X151.599 Y87.752 E.02417
G1 X152.526 Y88.223 E.03959
G1 X153.005 Y88.601 E.02323
G1 X160.183 Y97.063 E.42252
G1 X160.703 Y97.42 E.02402
G1 X161.301 Y97.624 E.02406
G1 X161.931 Y97.661 E.02403
G1 X162.548 Y97.527 E.02404
G1 X163.106 Y97.233 E.02402
G1 X163.565 Y96.8 E.02403
G1 X163.891 Y96.259 E.02405
G1 X164.061 Y95.651 E.02404
G1 X164.084 Y87.257 E.31962
G1 X164.191 Y87.014 E.01011
G1 X164.524 Y86.681 E.01793
G1 X164.771 Y86.584 E.0101
G1 X170.243 Y86.584 E.20836
G1 X170.486 Y86.691 E.01011
G1 X170.819 Y87.024 E.01793
G1 X170.916 Y87.271 E.0101
G1 X170.916 Y112.743 E.96991
G1 X170.809 Y112.986 E.01011
G1 X170.476 Y113.319 E.01793
G1 X170.229 Y113.416 E.0101
G1 X165.262 Y113.416 E.18913
G1 X164.855 Y113.26 E.0166
G1 X151.999 Y97.975 E.76051
G1 X151.247 Y97.372 E.0367
G1 X150.658 Y97.167 E.02375
G1 X150.035 Y97.125 E.02378
G1 X149.136 Y97.372 E.0355
G1 X148.384 Y97.975 E.0367
G1 X135.596 Y113.207 E.7573
G1 X135.121 Y113.416 E.01976
G1 X129.757 Y113.416 E.20425
G1 X129.514 Y113.309 E.01011
G1 X129.181 Y112.976 E.01793
G1 X129.084 Y112.729 E.0101
G1 X129.09 Y87.226 E.97109
G1 X129.165 Y87.068 E.00666
G1 X129.165 Y87.068 F7800
G1 X129.45 Y87.312
G1 F1800
G1 X129.812 Y86.95 E.01949
G1 X135.256 Y86.978 E.2073
G1 X135.55 Y87.312 E.01694
G1 X135.55 Y95.773 E.32217
G1 X135.65 Y96.516 E.02855
G1 X135.939 Y97.187 E.02782
G1 X136.68 Y97.988 E.04155
G1 X137.679 Y98.43 E.0416
G1 X138.407 Y98.487 E.02781
G1 X139.461 Y98.204 E.04156
G1 X140.064 Y97.791 E.02783
G1 X140.331 Y97.514 E.01465
G1 X147.616 Y88.88 E.43015
G1 X148.494 Y88.274 E.04062
G1 X149.414 Y87.955 E.03708
G1 X149.961 Y87.881 E.02102
G1 X150.927 Y87.946 E.03687
G1 X151.466 Y88.094 E.02128
G1 X152.329 Y88.532 E.03685
G1 X152.767 Y88.88 E.0213
G1 X159.669 Y97.057 E.40745
G1 X160.223 Y97.562 E.02854
G1 X160.876 Y97.889 E.02781
G1 X161.593 Y98.03 E.02782
G1 X162.673 Y97.872 E.04156
G1 X163.32 Y97.532 E.02783
G1 X163.851 Y97.03 E.02782
G1 X164.228 Y96.405 E.02779
G1 X164.424 Y95.701 E.02783
G1 X164.478 Y87.244 E.32203
G1 X164.812 Y86.95 E.01694
G1 X170.256 Y86.978 E.2073
G1 X170.55 Y87.312 E.01694
G1 X170.522 Y112.756 E.96885
G1 X170.188 Y113.05 E.01694
G1 X165.282 Y113.05 E.18681
G1 X165.027 Y112.931 E.01072
G1 X152.272 Y97.73 E.75559
G1 X152.008 Y97.455 E.01452
G1 X151.414 Y97.045 E.02748
G1 X150.731 Y96.807 E.02754
G1 X150.01 Y96.758 E.02752
G1 X148.969 Y97.045 E.04112
G1 X148.375 Y97.455 E.02748
G1 X148.111 Y97.73 E.01452
G1 X135.356 Y112.931 E.75559
G1 X135.101 Y113.05 E.01072
G1 X129.744 Y113.022 E.20398
G1 X129.45 Y112.688 E.01694
G1 X129.45 Y87.372 E.96397
G1 X129.45 Y87.372 F7800
G1 X129.817 Y87.424
G1 F1800
G1 X129.924 Y87.317 E.00576
G1 X135.076 Y87.317 E.19618
G1 X135.183 Y87.424 E.00576
G1 X135.183 Y95.786 E.3184
G1 X135.296 Y96.614 E.03182
G1 X135.625 Y97.376 E.0316
G1 X136.146 Y98.023 E.03163
G1 X136.467 Y98.287 E.01583
G1 X137.201 Y98.674 E.0316
G1 X137.601 Y98.789 E.01585
G1 X138.428 Y98.853 E.03158
G1 X139.243 Y98.693 E.03163
G1 X139.626 Y98.532 E.01582
G1 X140.311 Y98.063 E.03161
G1 X147.872 Y89.142 E.44528
G1 X148.648 Y88.607 E.03589
G1 X149.499 Y88.311 E.03431
G1 X149.974 Y88.247 E.01825
G1 X150.866 Y88.307 E.03404
G1 X151.334 Y88.436 E.01848
G1 X152.132 Y88.841 E.03408
G1 X152.511 Y89.143 E.01845
G1 X159.397 Y97.302 E.40653
G1 X160.016 Y97.864 E.03184
G1 X160.757 Y98.237 E.03159
G1 X161.572 Y98.397 E.03163
G1 X162.399 Y98.333 E.03158
G1 X162.799 Y98.217 E.01586
G1 X163.533 Y97.83 E.0316
G1 X164.137 Y97.261 E.0316
G1 X164.566 Y96.55 E.03162
G1 X164.788 Y95.751 E.03158
G1 X164.817 Y87.424 E.31707
G1 X164.924 Y87.317 E.00576
G1 X170.076 Y87.317 E.19618
G1 X170.183 Y87.424 E.00576
G1 X170.183 Y112.576 E.95773
G1 X170.076 Y112.683 E.00576
G1 X165.269 Y112.649 E.18304
G1 X152.545 Y97.485 E.75375
G1 X152.256 Y97.184 E.01589
G1 X151.58 Y96.718 E.03126
G1 X150.805 Y96.447 E.03126
G1 X149.986 Y96.392 E.03126
G1 X149.578 Y96.447 E.01568
G1 X148.803 Y96.718 E.03126
G1 X148.127 Y97.184 E.03126
G1 X147.838 Y97.485 E.01589
G1 X135.114 Y112.649 E.75375
G1 X129.924 Y112.683 E.19763
G1 X129.817 Y112.576 E.00576
G1 X129.817 Y87.484 E.95544
;WIPE_START
G1 F6240
G1 X129.817 Y87.424 E-.0274
G1 X129.924 Y87.317 E-.06911
G1 X135.076 Y87.317 E-2.35308
G1 X135.183 Y87.424 E-.06911
G1 X135.183 Y95.786 E-3.81918
G1 X135.296 Y96.614 E-.38168
G1 X135.625 Y97.376 E-.37908
G1 X136.146 Y98.023 E-.3794
G1 X136.467 Y98.287 E-.18982
G1 X137.11 Y98.626 E-.33214
;WIPE_END
G1 Z.3 F7800
G1 X165.576 Y88.076
G1 Z.25
G1 E8 F3000
;TYPE:Perimeter
;WIDTH:0.419999
G1 F1800
G1 X169.424 Y88.076 E.14652
G1 X169.424 Y90 E.07326
G1 X169.424 Y111.924 E.83481
G1 X165.652 Y111.924 E.14363
G1 X153.122 Y96.991 E.74226
G1 X152.794 Y96.648 E.01807
G1 X152.395 Y96.324 E.01957
G1 X151.956 Y96.058 E.01955
G1 X151.486 Y95.852 E.01954
G1 X150.993 Y95.711 E.01952
G1 X150.485 Y95.637 E.01955
G1 X149.972 Y95.633 E.01953
G1 X149.462 Y95.696 E.01957
G1 X148.966 Y95.828 E.01954
G1 X148.492 Y96.024 E.01953
G1 X148.049 Y96.283 E.01954
G1 X147.644 Y96.598 E.01954
G1 X147.261 Y96.991 E.0209
G1 X134.731 Y111.924 E.74226
G1 X130.576 Y111.924 E.15821
G1 X130.576 Y88.076 E.90807
G1 X134.424 Y88.076 E.14652
G1 X134.424 Y95.793 E.29384
G1 X134.455 Y96.273 E.01832
G1 X134.555 Y96.782 E.01975
G1 X134.723 Y97.273 E.01976
G1 X134.956 Y97.737 E.01977
G1 X135.249 Y98.165 E.01975
G1 X135.598 Y98.549 E.01976
G1 X135.995 Y98.882 E.01973
G1 X136.434 Y99.159 E.01977
G1 X136.907 Y99.374 E.01978
G1 X137.404 Y99.523 E.01976
G1 X137.916 Y99.603 E.01973
G1 X138.435 Y99.613 E.01977
G1 X138.951 Y99.553 E.01978
G1 X139.453 Y99.423 E.01975
G1 X139.933 Y99.227 E.01974
G1 X140.383 Y98.968 E.01977
G1 X140.793 Y98.65 E.01976
G1 X141.181 Y98.252 E.02116
G1 X147.758 Y90.414 E.3896
G1 X148.393 Y89.697 E.03647
G1 X148.829 Y89.381 E.0205
G1 X149.311 Y89.15 E.02035
G1 X149.836 Y89.03 E.02051
G1 X150.371 Y89.007 E.02039
G1 X150.899 Y89.102 E.02043
G1 X151.402 Y89.29 E.02045
G1 X151.85 Y89.585 E.02042
G1 X152.252 Y89.969 E.02117
G1 X158.819 Y97.796 E.38904
G1 X159.152 Y98.143 E.01831
G1 X159.556 Y98.469 E.01977
G1 X160 Y98.737 E.01975
G1 X160.476 Y98.943 E.01975
G1 X160.976 Y99.082 E.01976
G1 X161.49 Y99.152 E.01975
G1 X162.009 Y99.152 E.01976
G1 X162.523 Y99.082 E.01975
G1 X163.023 Y98.943 E.01976
G1 X163.5 Y98.737 E.01978
G1 X163.944 Y98.469 E.01975
G1 X164.348 Y98.143 E.01977
G1 X164.704 Y97.766 E.01974
G1 X165.006 Y97.344 E.01976
G1 X165.248 Y96.885 E.01976
G1 X165.425 Y96.397 E.01977
G1 X165.538 Y95.874 E.02037
G1 X165.576 Y95.337 E.0205
G1 X165.576 Y88.136 E.2742
G1 X165.576 Y88.136 F7800
G1 X165.21 Y87.71
;TYPE:External perimeter
G1 F1800
G1 X169.79 Y87.71 E.1744
G1 X169.79 Y90 E.0872
G1 X169.79 Y112.29 E.84875
G1 X165.481 Y112.29 E.16408
G1 X152.841 Y97.227 E.74875
G1 X152.529 Y96.901 E.01718
G1 X152.167 Y96.611 E.01766
G1 X151.769 Y96.372 E.01768
G1 X151.343 Y96.189 E.01765
G1 X150.871 Y96.059 E.01864
G1 X150.192 Y95.999 E.02596
G1 X149.512 Y96.059 E.02599
G1 X149.064 Y96.181 E.01768
G1 X148.636 Y96.361 E.01768
G1 X148.236 Y96.597 E.01768
G1 X147.872 Y96.885 E.01767
G1 X147.542 Y97.227 E.0181
G1 X134.902 Y112.29 E.74875
G1 X130.21 Y112.29 E.17866
G1 X130.21 Y87.71 E.93595
G1 X134.79 Y87.71 E.1744
G1 X134.79 Y95.793 E.30778
G1 X134.82 Y96.248 E.01736
G1 X134.914 Y96.708 E.01788
G1 X135.068 Y97.151 E.01786
G1 X135.282 Y97.569 E.01788
G1 X135.549 Y97.954 E.01784
G1 X135.867 Y98.3 E.01789
G1 X136.228 Y98.599 E.01785
G1 X136.627 Y98.847 E.01789
G1 X137.055 Y99.039 E.01786
G1 X137.505 Y99.171 E.01786
G1 X137.97 Y99.24 E.0179
G1 X138.439 Y99.247 E.01786
G1 X138.905 Y99.189 E.01788
G1 X139.358 Y99.069 E.01784
G1 X139.792 Y98.889 E.01789
G1 X140.197 Y98.652 E.01787
G1 X140.566 Y98.362 E.01787
G1 X140.9 Y98.017 E.01828
G1 X147.791 Y89.805 E.4082
G1 X148.146 Y89.425 E.0198
G1 X148.641 Y89.066 E.02328
G1 X149.19 Y88.803 E.02318
G1 X149.787 Y88.667 E.02331
G1 X150.395 Y88.64 E.02317
G1 X150.996 Y88.749 E.02326
G1 X151.568 Y88.963 E.02325
G1 X152.078 Y89.298 E.02323
G1 X152.525 Y89.724 E.02351
G1 X159.1 Y97.56 E.3895
G1 X159.416 Y97.889 E.01737
G1 X159.783 Y98.182 E.01788
G1 X160.186 Y98.422 E.01786
G1 X160.618 Y98.605 E.01786
G1 X161.071 Y98.728 E.01787
G1 X161.536 Y98.789 E.01786
G1 X162.006 Y98.786 E.0179
G1 X162.47 Y98.719 E.01785
G1 X162.922 Y98.591 E.01789
G1 X163.351 Y98.402 E.01785
G1 X163.752 Y98.157 E.01789
G1 X164.115 Y97.861 E.01783
G1 X164.435 Y97.517 E.01789
G1 X164.706 Y97.134 E.01787
G1 X164.922 Y96.717 E.01788
G1 X165.08 Y96.275 E.01787
G1 X165.176 Y95.816 E.01786
G1 X165.21 Y95.337 E.01829
G1 X165.21 Y87.77 E.28813
;WIPE_START
G1 F6240
G1 X165.21 Y87.71 E-.0274
G1 X169.79 Y87.71 E-2.09183
G1 X169.79 Y90 E-1.04591
G1 X169.79 Y100.586 E-4.83486
;WIPE_END
G1 Z.3 F7800
G1 X169.314 Y88.929
G1 Z.25
G1 E8 F3000
;TYPE:Solid infill
;WIDTH:0.420922
G1 F1800
G1 X168.736 Y88.351 E.0312
G1 X168.217 Y88.351 E.01981
G1 X169.149 Y89.283 E.05031
