;FLAVOR:Marlin
;TIME:841
;Filament used: 4.60011m, 0m
;Layer height: 0.3
;MINX:91.201
;MINY:111.701
;MINZ:0.3
;MAXX:110.799
;MAXY:131.299
;MAXZ:7
;Generated with Cura_SteamEngine 5.0.1
T0
M140 S40
M105
M190 S40
M104 S200
M105
M109 S200
M82 ;absolute extrusion mode
M900 K0.020;
G28 ; home all axes
G1 Z5 F5000 ; lift nozzle
G1 X-45 Y70 F2500; go to glycerin roller;
G92 E0
G1 X-23 F5000; park to start
G92 E0; Extrude a small amount to clear nozzle
G1 E20 F4000
G4 P2000
G92 E0


G92 E0
G1 F1500 E-1
;LAYER_COUNT:20
;LAYER:0
M107
M204 S500
G1 F600 Z1.3
;MESH:Sajad.stl
G0 F6000 X101.565 Y130.882 Z1.3
;TYPE:WALL-INNER
G1 F600 Z0.3
G1 F1500 E0.15542
G1 F1800 X102.085 Y130.835 E0.35019
G1 X102.692 Y130.746 E0.57903
G1 X103.252 Y130.625 E0.79274
G1 X103.811 Y130.47 E1.00913
G1 X104.32 Y130.291 E1.21039
G1 X104.845 Y130.075 E1.42215
G1 X105.37 Y129.821 E1.6397
G1 X105.865 Y129.543 E1.85148
G1 X106.33 Y129.242 E2.0581
G1 X106.782 Y128.909 E2.26752
G1 X107.224 Y128.541 E2.48206
G1 X107.648 Y128.144 E2.69873
G1 X108.026 Y127.741 E2.90483
G1 X108.392 Y127.304 E3.11746
G1 X108.738 Y126.836 E3.33456
G1 X109.045 Y126.361 E3.54553
G1 X109.318 Y125.878 E3.75249
G1 X109.563 Y125.373 E3.96186
G1 X109.788 Y124.83 E4.18111
G1 X109.963 Y124.325 E4.38048
G1 X110.121 Y123.763 E4.59824
G1 X110.243 Y123.203 E4.81203
G1 X110.337 Y122.599 E5.04005
G1 X110.381 Y122.082 E5.2336
G1 X110.399 Y121.512 E5.44632
G1 X110.382 Y120.929 E5.66389
G1 X110.335 Y120.415 E5.85642
G1 X110.246 Y119.806 E6.086
G1 X110.125 Y119.248 E6.29898
G1 X109.97 Y118.689 E6.51537
G1 X109.792 Y118.18 E6.71651
G1 X109.574 Y117.653 E6.92925
G1 X109.322 Y117.13 E7.1458
G1 X109.043 Y116.635 E7.35775
G1 X108.742 Y116.17 E7.56438
G1 X108.409 Y115.718 E7.7738
G1 X108.041 Y115.276 E7.98834
G1 X107.644 Y114.852 E8.205
G1 X107.241 Y114.474 E8.41111
G1 X106.804 Y114.108 E8.62374
G1 X106.336 Y113.762 E8.84084
G1 X105.861 Y113.455 E9.05181
G1 X105.378 Y113.182 E9.25877
G1 X104.874 Y112.937 E9.46781
G1 X104.334 Y112.714 E9.68574
G1 X103.825 Y112.537 E9.88676
G1 X103.263 Y112.379 E10.10452
G1 X102.703 Y112.257 E10.31831
G1 X102.099 Y112.163 E10.54633
G1 X101.582 Y112.119 E10.73987
G1 X101.014 Y112.101 E10.95186
G1 X100.435 Y112.118 E11.16793
G1 X99.915 Y112.165 E11.36269
G1 X99.308 Y112.254 E11.59153
G1 X98.748 Y112.375 E11.80524
G1 X98.189 Y112.53 E12.02163
G1 X97.68 Y112.709 E12.22289
G1 X97.155 Y112.924 E12.43451
G1 X96.63 Y113.179 E12.65223
G1 X96.135 Y113.457 E12.864
G1 X95.67 Y113.758 E13.07062
G1 X95.218 Y114.091 E13.28004
G1 X94.776 Y114.459 E13.49458
G1 X94.352 Y114.856 E13.71125
G1 X93.974 Y115.259 E13.91736
G1 X93.608 Y115.696 E14.12998
G1 X93.262 Y116.164 E14.34709
G1 X92.955 Y116.639 E14.55806
G1 X92.682 Y117.122 E14.76501
G1 X92.437 Y117.627 E14.97439
G1 X92.212 Y118.17 E15.19364
G1 X92.037 Y118.675 E15.393
G1 X91.879 Y119.237 E15.61077
G1 X91.757 Y119.797 E15.82456
G1 X91.663 Y120.401 E16.05257
G1 X91.619 Y120.918 E16.24612
G1 X91.601 Y121.488 E16.45885
G1 X91.618 Y122.065 E16.67417
G1 X91.665 Y122.585 E16.86893
G1 X91.754 Y123.194 E17.09851
G1 X91.873 Y123.747 E17.30952
G1 X92.03 Y124.311 E17.5279
G1 X92.207 Y124.816 E17.72751
G1 X92.424 Y125.344 E17.94045
G1 X92.678 Y125.868 E18.15766
G1 X92.955 Y126.361 E18.3686
G1 X93.255 Y126.825 E18.57471
G1 X93.591 Y127.282 E18.78629
G1 X93.956 Y127.72 E18.99897
G1 X94.352 Y128.144 E19.21538
G1 X94.757 Y128.525 E19.4228
G1 X95.194 Y128.891 E19.63543
G1 X95.658 Y129.234 E19.85067
G1 X96.136 Y129.543 E20.06298
G1 X96.618 Y129.816 E20.26961
G1 X97.127 Y130.063 E20.48065
G1 X97.666 Y130.286 E20.69824
G1 X98.175 Y130.463 E20.89926
G1 X98.737 Y130.621 E21.11702
G1 X99.297 Y130.743 E21.33081
G1 X99.901 Y130.837 E21.55883
G1 X100.418 Y130.881 E21.75238
G1 X100.986 Y130.899 E21.96436
G1 X101.565 Y130.882 E22.18043
G0 F6000 X101.589 Y131.282
;TYPE:WALL-OUTER
G1 F1800 X102.132 Y131.233 E22.3838
G1 X102.764 Y131.14 E22.62209
G1 X103.348 Y131.013 E22.84502
G1 X103.931 Y130.852 E23.07064
G1 X104.462 Y130.665 E23.28063
G1 X105.008 Y130.441 E23.50077
G1 X105.556 Y130.176 E23.72784
G1 X106.072 Y129.885 E23.94881
G1 X106.558 Y129.571 E24.16465
G1 X107.029 Y129.224 E24.38287
G1 X107.489 Y128.841 E24.60615
G1 X107.931 Y128.427 E24.83205
G1 X108.326 Y128.007 E25.04712
G1 X108.706 Y127.552 E25.26825
G1 X109.067 Y127.064 E25.49468
G1 X109.387 Y126.568 E25.71486
G1 X109.672 Y126.064 E25.93084
G1 X109.928 Y125.537 E26.14939
G1 X110.162 Y124.972 E26.3775
G1 X110.345 Y124.445 E26.5856
G1 X110.509 Y123.86 E26.81223
G1 X110.637 Y123.277 E27.03488
G1 X110.735 Y122.647 E27.27271
G1 X110.781 Y122.105 E27.47561
G1 X110.799 Y121.512 E27.69691
G1 X110.782 Y120.905 E27.92342
G1 X110.733 Y120.368 E28.12457
G1 X110.64 Y119.734 E28.36359
G1 X110.513 Y119.152 E28.5858
G1 X110.352 Y118.569 E28.81141
G1 X110.166 Y118.038 E29.02128
G1 X109.94 Y117.489 E29.24274
G1 X109.676 Y116.944 E29.46863
G1 X109.385 Y116.428 E29.68961
G1 X109.071 Y115.942 E29.90544
G1 X108.724 Y115.471 E30.12367
G1 X108.341 Y115.011 E30.34695
G1 X107.927 Y114.569 E30.57285
G1 X107.507 Y114.174 E30.78792
G1 X107.052 Y113.794 E31.00905
G1 X106.564 Y113.433 E31.23548
G1 X106.068 Y113.113 E31.45566
G1 X105.564 Y112.828 E31.67164
G1 X105.038 Y112.572 E31.88985
G1 X104.476 Y112.34 E32.11665
G1 X103.945 Y112.155 E32.3264
G1 X103.36 Y111.991 E32.55303
G1 X102.777 Y111.863 E32.77568
G1 X102.147 Y111.765 E33.0135
G1 X101.605 Y111.719 E33.21641
G1 X101.014 Y111.701 E33.43696
G1 X100.411 Y111.718 E33.66198
G1 X99.868 Y111.767 E33.86536
G1 X99.236 Y111.86 E34.10364
G1 X98.652 Y111.987 E34.32658
G1 X98.069 Y112.148 E34.55219
G1 X97.538 Y112.335 E34.76219
G1 X96.992 Y112.559 E34.98233
G1 X96.444 Y112.824 E35.20939
G1 X95.928 Y113.115 E35.43037
G1 X95.442 Y113.429 E35.6462
G1 X94.971 Y113.776 E35.86442
G1 X94.511 Y114.159 E36.0877
G1 X94.069 Y114.573 E36.31361
G1 X93.674 Y114.993 E36.52868
G1 X93.294 Y115.448 E36.74981
G1 X92.933 Y115.936 E36.97623
G1 X92.613 Y116.432 E37.19641
G1 X92.328 Y116.936 E37.41239
G1 X92.072 Y117.463 E37.63094
G1 X91.838 Y118.028 E37.85906
G1 X91.655 Y118.555 E38.06715
G1 X91.491 Y119.14 E38.29378
G1 X91.363 Y119.723 E38.51643
G1 X91.265 Y120.353 E38.75426
G1 X91.219 Y120.895 E38.95716
G1 X91.201 Y121.488 E39.17847
G1 X91.218 Y122.089 E39.40274
G1 X91.267 Y122.632 E39.60611
G1 X91.36 Y123.265 E39.84477
G1 X91.485 Y123.843 E40.06536
G1 X91.648 Y124.431 E40.29297
G1 X91.833 Y124.958 E40.50131
G1 X92.059 Y125.508 E40.72311
G1 X92.323 Y126.054 E40.94934
G1 X92.613 Y126.568 E41.16948
G1 X92.925 Y127.052 E41.38429
G1 X93.276 Y127.528 E41.6049
G1 X93.656 Y127.985 E41.8266
G1 X94.069 Y128.427 E42.05225
G1 X94.491 Y128.824 E42.26837
G1 X94.946 Y129.205 E42.48974
G1 X95.43 Y129.563 E42.7143
G1 X95.928 Y129.885 E42.93552
G1 X96.432 Y130.17 E43.15149
G1 X96.963 Y130.428 E43.37171
G1 X97.524 Y130.66 E43.59816
G1 X98.055 Y130.845 E43.80791
G1 X98.64 Y131.009 E44.03454
G1 X99.223 Y131.137 E44.25719
G1 X99.853 Y131.235 E44.49502
G1 X100.395 Y131.281 E44.69792
G1 X100.986 Y131.299 E44.91848
G1 X101.589 Y131.282 E45.1435
G0 F6000 X101.788 Y131.265
G0 X101.678 Y130.553
;TYPE:FILL
G1 F2400 X101.941 Y130.29 E45.28224
G1 X101.627 Y129.976 E45.44789
G1 X101.313 Y129.976 E45.56501
G1 X101.313 Y129.348 E45.79927
G1 X101.941 Y129.348 E46.03353
G1 X101.941 Y129.662 E46.15065
G1 X102.255 Y129.976 E46.3163
G1 X102.569 Y129.662 E46.48194
G1 X102.569 Y129.348 E46.59907
G1 X102.883 Y129.348 E46.7162
G1 X103.197 Y129.034 E46.88184
G1 X102.883 Y128.72 E47.04749
G1 X102.569 Y128.72 E47.16461
G1 X102.569 Y128.406 E47.28174
G1 X102.255 Y128.092 E47.44739
G1 X101.941 Y128.406 E47.61303
G1 X101.941 Y128.72 E47.73016
G1 X101.313 Y128.72 E47.96442
G1 X101.313 Y128.092 E48.19867
G1 X101.627 Y128.092 E48.3158
G1 X101.941 Y127.778 E48.48144
G1 X101.627 Y127.464 E48.64709
G1 X101.313 Y127.464 E48.76422
G1 X101.313 Y126.836 E48.99847
G1 X101.941 Y126.836 E49.23273
G1 X101.941 Y127.15 E49.34986
G1 X102.255 Y127.464 E49.5155
G1 X102.569 Y127.15 E49.68114
G1 X102.569 Y126.836 E49.79827
G1 X103.197 Y126.836 E50.03253
G1 X103.197 Y127.464 E50.26678
G1 X102.883 Y127.464 E50.38391
G1 X102.569 Y127.778 E50.54956
G1 X102.883 Y128.092 E50.7152
G1 X103.197 Y128.092 E50.83233
G1 X103.197 Y128.406 E50.94946
G1 X103.511 Y128.72 E51.1151
G1 X103.825 Y128.406 E51.28075
G1 X103.825 Y128.092 E51.39787
G1 X104.139 Y128.092 E51.515
G1 X104.453 Y127.778 E51.68065
G1 X104.139 Y127.464 E51.84629
G1 X103.825 Y127.464 E51.96342
G1 X103.825 Y126.836 E52.19767
G1 X104.453 Y126.836 E52.43193
G1 X104.453 Y127.15 E52.54906
G1 X104.767 Y127.464 E52.7147
G1 X105.081 Y127.15 E52.88035
G1 X105.081 Y126.836 E52.99748
G1 X105.395 Y126.836 E53.1146
G1 X105.709 Y126.523 E53.27998
G1 X105.395 Y126.209 E53.44563
G1 X105.081 Y126.209 E53.56276
G1 X105.081 Y125.895 E53.67988
G1 X104.767 Y125.581 E53.84553
G1 X104.453 Y125.895 E54.01117
G1 X104.453 Y126.209 E54.1283
G1 X103.825 Y126.209 E54.36256
G1 X103.825 Y125.581 E54.59681
G1 X104.139 Y125.581 E54.71394
G1 X104.453 Y125.267 E54.87959
G1 X104.139 Y124.953 E55.04523
G1 X103.825 Y124.953 E55.16236
G1 X103.825 Y124.639 E55.27949
G1 X103.511 Y124.325 E55.44513
G1 X103.197 Y124.639 E55.61077
G1 X103.197 Y124.953 E55.7279
G1 X102.883 Y124.953 E55.84503
G1 X102.569 Y125.267 E56.01067
G1 X102.883 Y125.581 E56.17632
G1 X103.197 Y125.581 E56.29345
G1 X103.197 Y126.209 E56.5277
G1 X102.569 Y126.209 E56.76196
G1 X102.569 Y125.895 E56.87909
G1 X102.255 Y125.581 E57.04473
G1 X101.941 Y125.895 E57.21037
G1 X101.941 Y126.209 E57.3275
G1 X101.313 Y126.209 E57.56176
G1 X101.313 Y125.581 E57.79602
G1 X101.627 Y125.581 E57.91314
G1 X101.941 Y125.267 E58.07879
G1 X101.627 Y124.953 E58.24443
G1 X101.313 Y124.953 E58.36156
G1 X101.313 Y124.325 E58.59582
G1 X101.941 Y124.325 E58.83007
G1 X101.941 Y124.639 E58.9472
G1 X102.255 Y124.953 E59.11284
G1 X102.569 Y124.639 E59.27849
G1 X102.569 Y124.325 E59.39562
G1 X102.883 Y124.325 E59.51274
G1 X103.197 Y124.011 E59.67839
G1 X102.883 Y123.697 E59.84403
G1 X102.569 Y123.697 E59.96116
G1 X102.569 Y123.383 E60.07829
G1 X102.255 Y123.069 E60.24393
G1 X101.941 Y123.383 E60.40958
G1 X101.941 Y123.697 E60.52671
G1 X101.313 Y123.697 E60.76096
G1 X101.313 Y123.069 E60.99522
G1 X101.627 Y123.069 E61.11235
G1 X101.941 Y122.755 E61.27799
G1 X101.627 Y122.441 E61.44363
G1 X101.313 Y122.441 E61.56076
G1 X101.313 Y122.127 E61.67789
G1 X101 Y121.813 E61.84327
G1 X100.686 Y122.127 E62.00892
G1 X100.686 Y122.441 E62.12604
G1 X100.372 Y122.441 E62.24317
G1 X100.058 Y122.755 E62.40882
G1 X100.372 Y123.069 E62.57446
G1 X100.686 Y123.069 E62.69159
G1 X100.686 Y123.697 E62.92584
G1 X100.058 Y123.697 E63.1601
G1 X100.058 Y123.383 E63.27723
G1 X99.744 Y123.069 E63.44287
G1 X99.43 Y123.383 E63.60852
G1 X99.43 Y123.697 E63.72564
G1 X99.116 Y123.697 E63.84277
G1 X98.802 Y124.011 E64.00842
G1 X99.116 Y124.325 E64.17406
G1 X99.43 Y124.325 E64.29119
G1 X99.43 Y124.639 E64.40832
G1 X99.744 Y124.953 E64.57396
G1 X100.058 Y124.639 E64.73961
G1 X100.058 Y124.325 E64.85673
G1 X100.686 Y124.325 E65.09099
G1 X100.686 Y124.953 E65.32525
G1 X100.372 Y124.953 E65.44237
G1 X100.058 Y125.267 E65.60802
G1 X100.372 Y125.581 E65.77366
G1 X100.686 Y125.581 E65.89079
G1 X100.686 Y126.209 E66.12505
G1 X100.058 Y126.209 E66.3593
G1 X100.058 Y125.895 E66.47643
G1 X99.744 Y125.581 E66.64207
G1 X99.43 Y125.895 E66.80772
G1 X99.43 Y126.209 E66.92485
G1 X98.802 Y126.209 E67.1591
G1 X98.802 Y125.581 E67.39336
G1 X99.116 Y125.581 E67.51049
G1 X99.43 Y125.267 E67.67613
G1 X99.116 Y124.953 E67.84178
G1 X98.802 Y124.953 E67.9589
G1 X98.802 Y124.639 E68.07603
G1 X98.488 Y124.325 E68.24168
G1 X98.174 Y124.639 E68.40732
G1 X98.174 Y124.953 E68.52445
G1 X97.86 Y124.953 E68.64158
G1 X97.546 Y125.267 E68.80722
G1 X97.86 Y125.581 E68.97286
G1 X98.174 Y125.581 E69.08999
G1 X98.174 Y126.209 E69.32425
G1 X97.546 Y126.209 E69.55851
G1 X97.546 Y125.895 E69.67563
G1 X97.232 Y125.581 E69.84128
G1 X96.918 Y125.895 E70.00692
G1 X96.918 Y126.209 E70.12405
G1 X96.604 Y126.209 E70.24118
G1 X96.29 Y126.523 E70.40682
G1 X96.604 Y126.836 E70.5722
G1 X96.918 Y126.836 E70.68933
G1 X96.918 Y127.15 E70.80646
G1 X97.232 Y127.464 E70.9721
G1 X97.546 Y127.15 E71.13775
G1 X97.546 Y126.836 E71.25487
G1 X98.174 Y126.836 E71.48913
G1 X98.174 Y127.464 E71.72339
G1 X97.86 Y127.464 E71.84052
G1 X97.546 Y127.778 E72.00616
G1 X97.86 Y128.092 E72.1718
G1 X98.174 Y128.092 E72.28893
G1 X98.174 Y128.406 E72.40606
G1 X98.488 Y128.72 E72.5717
G1 X98.802 Y128.406 E72.73735
G1 X98.802 Y128.092 E72.85448
G1 X99.116 Y128.092 E72.9716
G1 X99.43 Y127.778 E73.13725
G1 X99.116 Y127.464 E73.30289
G1 X98.802 Y127.464 E73.42002
G1 X98.802 Y126.836 E73.65428
G1 X99.43 Y126.836 E73.88853
G1 X99.43 Y127.15 E74.00566
G1 X99.744 Y127.464 E74.17131
G1 X100.058 Y127.15 E74.33695
G1 X100.058 Y126.836 E74.45408
G1 X100.686 Y126.836 E74.68833
G1 X100.686 Y127.464 E74.92259
G1 X100.372 Y127.464 E75.03972
G1 X100.058 Y127.778 E75.20536
G1 X100.372 Y128.092 E75.37101
G1 X100.686 Y128.092 E75.48813
G1 X100.686 Y128.72 E75.72239
G1 X100.058 Y128.72 E75.95665
G1 X100.058 Y128.406 E76.07377
G1 X99.744 Y128.092 E76.23942
G1 X99.43 Y128.406 E76.40506
G1 X99.43 Y128.72 E76.52219
G1 X99.116 Y128.72 E76.63932
G1 X98.802 Y129.034 E76.80496
G1 X99.116 Y129.348 E76.97061
G1 X99.43 Y129.348 E77.08774
G1 X99.43 Y129.662 E77.20486
G1 X99.744 Y129.976 E77.37051
G1 X100.058 Y129.662 E77.53615
G1 X100.058 Y129.348 E77.65328
G1 X100.686 Y129.348 E77.88754
G1 X100.686 Y129.976 E78.12179
G1 X100.372 Y129.976 E78.23892
G1 X100.058 Y130.29 E78.40456
G1 X100.305 Y130.537 E78.53486
G1 X100.145 Y130.532 E78.59458
G1 X99.319 Y130.401 E78.90654
G1 X99.43 Y130.29 E78.9651
G1 X99.116 Y129.976 E79.13074
G1 X98.802 Y129.976 E79.24787
G1 X98.802 Y129.662 E79.365
G1 X98.488 Y129.348 E79.53064
G1 X98.174 Y129.662 E79.69629
G1 X98.174 Y129.976 E79.81341
G1 X97.847 Y129.989 E79.93549
G1 X97.4 Y129.808 E80.11538
G1 X97.546 Y129.662 E80.1924
G1 X97.546 Y129.348 E80.30953
G1 X97.86 Y129.348 E80.42665
G1 X98.174 Y129.034 E80.5923
G1 X97.86 Y128.72 E80.75794
G1 X97.546 Y128.72 E80.87507
G1 X97.546 Y128.406 E80.9922
G1 X97.232 Y128.092 E81.15784
G1 X96.918 Y128.406 E81.32349
G1 X96.918 Y128.72 E81.44061
G1 X96.29 Y128.72 E81.67487
G1 X96.29 Y128.092 E81.90913
G1 X96.604 Y128.092 E82.02625
G1 X96.918 Y127.778 E82.1919
G1 X96.604 Y127.464 E82.35754
G1 X96.29 Y127.464 E82.47467
G1 X96.29 Y127.15 E82.5918
G1 X95.977 Y126.836 E82.75718
G1 X95.663 Y127.15 E82.92282
G1 X95.663 Y127.464 E83.03995
G1 X95.349 Y127.464 E83.15708
G1 X95.035 Y127.778 E83.32272
G1 X95.349 Y128.092 E83.48837
G1 X95.663 Y128.092 E83.6055
G1 X95.663 Y128.72 E83.83975
G1 X95.519 Y128.72 E83.89347
G1 X94.987 Y128.274 E84.15242
G1 X94.594 Y127.904 E84.35377
G1 X94.212 Y127.496 E84.56226
G1 X93.779 Y126.974 E84.81524
G1 X93.779 Y126.836 E84.86672
G1 X94.407 Y126.836 E85.10097
G1 X94.407 Y127.15 E85.2181
G1 X94.721 Y127.464 E85.38375
G1 X95.035 Y127.15 E85.54939
G1 X95.035 Y126.836 E85.66652
G1 X95.349 Y126.836 E85.78365
G1 X95.663 Y126.523 E85.94903
G1 X95.349 Y126.209 E86.11467
G1 X95.035 Y126.209 E86.2318
G1 X95.035 Y125.895 E86.34893
G1 X94.721 Y125.581 E86.51457
G1 X94.407 Y125.895 E86.68022
G1 X94.407 Y126.209 E86.79734
G1 X93.779 Y126.209 E87.0316
G1 X93.779 Y125.581 E87.26586
G1 X94.093 Y125.581 E87.38298
G1 X94.407 Y125.267 E87.54863
G1 X94.093 Y124.953 E87.71427
G1 X93.779 Y124.953 E87.8314
G1 X93.779 Y124.639 E87.94853
G1 X93.465 Y124.325 E88.11417
G1 X93.151 Y124.639 E88.27982
G1 X93.151 Y124.953 E88.39695
G1 X92.837 Y124.953 E88.51407
G1 X92.691 Y125.099 E88.59109
G1 X92.51 Y124.652 E88.77098
G1 X92.523 Y124.325 E88.89306
G1 X92.837 Y124.325 E89.01019
G1 X93.151 Y124.011 E89.17583
G1 X92.837 Y123.697 E89.34147
G1 X92.523 Y123.697 E89.4586
G1 X92.523 Y123.383 E89.57573
G1 X92.209 Y123.069 E89.74137
G1 X92.099 Y123.179 E89.7994
G1 X91.948 Y122.18 E90.17628
G1 X92.209 Y122.441 E90.31397
G1 X92.523 Y122.127 E90.47961
G1 X92.523 Y121.813 E90.59674
G1 X93.151 Y121.813 E90.83099
G1 X93.151 Y122.441 E91.06525
G1 X92.837 Y122.441 E91.18238
G1 X92.523 Y122.755 E91.34802
G1 X92.837 Y123.069 E91.51367
G1 X93.151 Y123.069 E91.6308
G1 X93.151 Y123.383 E91.74792
G1 X93.465 Y123.697 E91.91357
