;FLAVOR:Marlin
;TIME:274
;Filament used: 2.2744m, 0m
;Layer height: 0.3
;MINX:91.201
;MINY:111.701
;MINZ:0.3
;MAXX:110.799
;MAXY:131.299
;MAXZ:6
;Generated with Cura_SteamEngine 5.0.1
T0
M140 S40
M105
M190 S40
M104 S200
M105
M109 S200
M82 ;absolute extrusion mode
M900 K0.020;
G28 ; home all axes
G1 Z5 F5000 ; lift nozzle
G1 X-45 Y70 F2500; go to glycerin roller;
G92 E0
G1 X-23 F5000; park to start
G92 E0; Extrude a small amount to clear nozzle
G1 E20 F4000
G4 P2000
G92 E0


G92 E0
G1 F1500 E-1
;LAYER_COUNT:20
;LAYER:0
M107
M204 S500
G1 F600 Z1.3
;MESH:Sajad.stl
G0 F6000 X101.565 Y130.882 Z1.3
;TYPE:WALL-INNER
G1 F600 Z0.3
G1 F1500 E0.15542
G1 F1800 X102.085 Y130.835 E0.35019
G1 X102.692 Y130.746 E0.57903
G1 X103.252 Y130.625 E0.79274
G1 X103.811 Y130.47 E1.00913
G1 X104.32 Y130.291 E1.21039
G1 X104.845 Y130.075 E1.42215
G1 X105.37 Y129.821 E1.6397
G1 X105.865 Y129.543 E1.85148
G1 X106.33 Y129.242 E2.0581
G1 X106.782 Y128.909 E2.26752
G1 X107.224 Y128.541 E2.48206
G1 X107.648 Y128.144 E2.69873
G1 X108.026 Y127.741 E2.90483
G1 X108.392 Y127.304 E3.11746
G1 X108.738 Y126.836 E3.33456
G1 X109.045 Y126.361 E3.54553
G1 X109.318 Y125.878 E3.75249
G1 X109.563 Y125.373 E3.96186
G1 X109.788 Y124.83 E4.18111
G1 X109.963 Y124.325 E4.38048
G1 X110.121 Y123.763 E4.59824
G1 X110.243 Y123.203 E4.81203
G1 X110.337 Y122.599 E5.04005
G1 X110.381 Y122.082 E5.2336
G1 X110.399 Y121.512 E5.44632
G1 X110.382 Y120.929 E5.66389
G1 X110.335 Y120.415 E5.85642
G1 X110.246 Y119.806 E6.086
G1 X110.125 Y119.248 E6.29898
G1 X109.97 Y118.689 E6.51537
G1 X109.792 Y118.18 E6.71651
G1 X109.574 Y117.653 E6.92925
G1 X109.322 Y117.13 E7.1458
G1 X109.043 Y116.635 E7.35775
G1 X108.742 Y116.17 E7.56438
G1 X108.409 Y115.718 E7.7738
G1 X108.041 Y115.276 E7.98834
G1 X107.644 Y114.852 E8.205
G1 X107.241 Y114.474 E8.41111
G1 X106.804 Y114.108 E8.62374
G1 X106.336 Y113.762 E8.84084
G1 X105.861 Y113.455 E9.05181
G1 X105.378 Y113.182 E9.25877
G1 X104.874 Y112.937 E9.46781
G1 X104.334 Y112.714 E9.68574
G1 X103.825 Y112.537 E9.88676
G1 X103.263 Y112.379 E10.10452
G1 X102.703 Y112.257 E10.31831
G1 X102.099 Y112.163 E10.54633
G1 X101.582 Y112.119 E10.73987
G1 X101.014 Y112.101 E10.95186
G1 X100.435 Y112.118 E11.16793
G1 X99.915 Y112.165 E11.36269
G1 X99.308 Y112.254 E11.59153
G1 X98.748 Y112.375 E11.80524
G1 X98.189 Y112.53 E12.02163
G1 X97.68 Y112.709 E12.22289
G1 X97.155 Y112.924 E12.43451
G1 X96.63 Y113.179 E12.65223
G1 X96.135 Y113.457 E12.864
G1 X95.67 Y113.758 E13.07062
G1 X95.218 Y114.091 E13.28004
G1 X94.776 Y114.459 E13.49458
G1 X94.352 Y114.856 E13.71125
G1 X93.974 Y115.259 E13.91736
G1 X93.608 Y115.696 E14.12998
G1 X93.262 Y116.164 E14.34709
G1 X92.955 Y116.639 E14.55806
G1 X92.682 Y117.122 E14.76501
G1 X92.437 Y117.627 E14.97439
G1 X92.212 Y118.17 E15.19364
G1 X92.037 Y118.675 E15.393
G1 X91.879 Y119.237 E15.61077
G1 X91.757 Y119.797 E15.82456
G1 X91.663 Y120.401 E16.05257
G1 X91.619 Y120.918 E16.24612
G1 X91.601 Y121.488 E16.45885
G1 X91.618 Y122.065 E16.67417
G1 X91.665 Y122.585 E16.86893
G1 X91.754 Y123.194 E17.09851
G1 X91.873 Y123.747 E17.30952
G1 X92.03 Y124.311 E17.5279
G1 X92.207 Y124.816 E17.72751
G1 X92.424 Y125.344 E17.94045
G1 X92.678 Y125.868 E18.15766
G1 X92.955 Y126.361 E18.3686
G1 X93.255 Y126.825 E18.57471
G1 X93.591 Y127.282 E18.78629
G1 X93.956 Y127.72 E18.99897
G1 X94.352 Y128.144 E19.21538
G1 X94.757 Y128.525 E19.4228
G1 X95.194 Y128.891 E19.63543
G1 X95.658 Y129.234 E19.85067
G1 X96.136 Y129.543 E20.06298
G1 X96.618 Y129.816 E20.26961
G1 X97.127 Y130.063 E20.48065
G1 X97.666 Y130.286 E20.69824
G1 X98.175 Y130.463 E20.89926
G1 X98.737 Y130.621 E21.11702
G1 X99.297 Y130.743 E21.33081
G1 X99.901 Y130.837 E21.55883
G1 X100.418 Y130.881 E21.75238
G1 X100.986 Y130.899 E21.96436
G1 X101.565 Y130.882 E22.18043
G0 F6000 X101.589 Y131.282
;TYPE:WALL-OUTER
G1 F1800 X102.132 Y131.233 E22.3838
G1 X102.764 Y131.14 E22.62209
G1 X103.348 Y131.013 E22.84502
G1 X103.931 Y130.852 E23.07064
G1 X104.462 Y130.665 E23.28063
G1 X105.008 Y130.441 E23.50077
G1 X105.556 Y130.176 E23.72784
G1 X106.072 Y129.885 E23.94881
G1 X106.558 Y129.571 E24.16465
G1 X107.029 Y129.224 E24.38287
G1 X107.489 Y128.841 E24.60615
G1 X107.931 Y128.427 E24.83205
G1 X108.326 Y128.007 E25.04712
G1 X108.706 Y127.552 E25.26825
G1 X109.067 Y127.064 E25.49468
G1 X109.387 Y126.568 E25.71486
G1 X109.672 Y126.064 E25.93084
G1 X109.928 Y125.537 E26.14939
G1 X110.162 Y124.972 E26.3775
G1 X110.345 Y124.445 E26.5856
G1 X110.509 Y123.86 E26.81223
G1 X110.637 Y123.277 E27.03488
G1 X110.735 Y122.647 E27.27271
G1 X110.781 Y122.105 E27.47561
G1 X110.799 Y121.512 E27.69691
G1 X110.782 Y120.905 E27.92342
G1 X110.733 Y120.368 E28.12457
G1 X110.64 Y119.734 E28.36359
G1 X110.513 Y119.152 E28.5858
G1 X110.352 Y118.569 E28.81141
G1 X110.166 Y118.038 E29.02128
G1 X109.94 Y117.489 E29.24274
G1 X109.676 Y116.944 E29.46863
G1 X109.385 Y116.428 E29.68961
G1 X109.071 Y115.942 E29.90544
G1 X108.724 Y115.471 E30.12367
G1 X108.341 Y115.011 E30.34695
G1 X107.927 Y114.569 E30.57285
G1 X107.507 Y114.174 E30.78792
G1 X107.052 Y113.794 E31.00905
G1 X106.564 Y113.433 E31.23548
G1 X106.068 Y113.113 E31.45566
G1 X105.564 Y112.828 E31.67164
G1 X105.038 Y112.572 E31.88985
G1 X104.476 Y112.34 E32.11665
G1 X103.945 Y112.155 E32.3264
G1 X103.36 Y111.991 E32.55303
G1 X102.777 Y111.863 E32.77568
G1 X102.147 Y111.765 E33.0135
G1 X101.605 Y111.719 E33.21641
G1 X101.014 Y111.701 E33.43696
G1 X100.411 Y111.718 E33.66198
G1 X99.868 Y111.767 E33.86536
G1 X99.236 Y111.86 E34.10364
G1 X98.652 Y111.987 E34.32658
G1 X98.069 Y112.148 E34.55219
G1 X97.538 Y112.335 E34.76219
G1 X96.992 Y112.559 E34.98233
G1 X96.444 Y112.824 E35.20939
G1 X95.928 Y113.115 E35.43037
G1 X95.442 Y113.429 E35.6462
G1 X94.971 Y113.776 E35.86442
G1 X94.511 Y114.159 E36.0877
G1 X94.069 Y114.573 E36.31361
G1 X93.674 Y114.993 E36.52868
G1 X93.294 Y115.448 E36.74981
G1 X92.933 Y115.936 E36.97623
G1 X92.613 Y116.432 E37.19641
G1 X92.328 Y116.936 E37.41239
G1 X92.072 Y117.463 E37.63094
G1 X91.838 Y118.028 E37.85906
G1 X91.655 Y118.555 E38.06715
G1 X91.491 Y119.14 E38.29378
G1 X91.363 Y119.723 E38.51643
G1 X91.265 Y120.353 E38.75426
G1 X91.219 Y120.895 E38.95716
G1 X91.201 Y121.488 E39.17847
G1 X91.218 Y122.089 E39.40274
G1 X91.267 Y122.632 E39.60611
G1 X91.36 Y123.265 E39.84477
G1 X91.485 Y123.843 E40.06536
G1 X91.648 Y124.431 E40.29297
G1 X91.833 Y124.958 E40.50131
G1 X92.059 Y125.508 E40.72311
G1 X92.323 Y126.054 E40.94934
G1 X92.613 Y126.568 E41.16948
G1 X92.925 Y127.052 E41.38429
G1 X93.276 Y127.528 E41.6049
G1 X93.656 Y127.985 E41.8266
G1 X94.069 Y128.427 E42.05225
G1 X94.491 Y128.824 E42.26837
G1 X94.946 Y129.205 E42.48974
G1 X95.43 Y129.563 E42.7143
G1 X95.928 Y129.885 E42.93552
G1 X96.432 Y130.17 E43.15149
G1 X96.963 Y130.428 E43.37171
G1 X97.524 Y130.66 E43.59816
G1 X98.055 Y130.845 E43.80791
G1 X98.64 Y131.009 E44.03454
G1 X99.223 Y131.137 E44.25719
G1 X99.853 Y131.235 E44.49502
G1 X100.395 Y131.281 E44.69792
G1 X100.986 Y131.299 E44.91848
G1 X101.589 Y131.282 E45.1435
G0 F6000 X101.788 Y131.265
G0 X102.004 Y130.504
;TYPE:FILL
G1 F2400 X101.8 Y130.3 E45.25112
G1 X101.8 Y128.7 E45.84795
G1 X103.4 Y128.7 E46.44478
G1 X104.2 Y129.5 E46.8668
G1 X105.8 Y127.9 E47.71085
G1 X104.2 Y126.3 E48.5549
G1 X103.4 Y127.1 E48.97692
G1 X101.8 Y127.1 E49.57375
G1 X101.8 Y125.5 E50.17058
G1 X102.6 Y124.7 E50.5926
G1 X101 Y123.1 E51.43665
G1 X99.4 Y124.7 E52.2807
G1 X100.2 Y125.5 E52.70272
G1 X100.2 Y127.1 E53.29955
G1 X98.6 Y127.1 E53.89638
G1 X97.8 Y126.3 E54.31841
G1 X96.2 Y127.9 E55.16245
G1 X97.8 Y129.5 E56.0065
G1 X98.6 Y128.7 E56.42852
G1 X100.2 Y128.7 E57.02535
G1 X100.2 Y130.3 E57.62218
G1 X99.992 Y130.508 E57.73191
G1 X99.353 Y130.408 E57.97317
G1 X98.825 Y130.292 E58.17482
G1 X98.271 Y130.136 E58.38951
G1 X97.782 Y129.966 E58.58263
G1 X97.265 Y129.752 E58.79135
G1 X96.78 Y129.517 E58.99238
G1 X96.313 Y129.252 E59.19267
G1 X95.851 Y128.953 E59.39795
G1 X95.4 Y128.62 E59.60707
G1 X94.987 Y128.274 E59.80804
G1 X94.594 Y127.904 E60.00939
G1 X94.212 Y127.496 E60.21788
G1 X93.856 Y127.067 E60.42582
G1 X93.531 Y126.626 E60.63017
G1 X93.244 Y126.181 E60.82769
G1 X92.981 Y125.714 E61.02762
G1 X92.732 Y125.2 E61.24066
G1 X92.523 Y124.69 E61.44626
G1 X92.353 Y124.203 E61.63867
G1 X92.203 Y123.66 E61.8488
G1 X92.089 Y123.134 E62.04957
G1 X91.996 Y122.504 E62.28712
G1 X92.2 Y122.3 E62.39473
G1 X93.8 Y122.3 E62.99156
G1 X93.8 Y123.9 E63.58839
G1 X93 Y124.7 E64.01042
G1 X94.6 Y126.3 E64.85446
G1 X96.2 Y124.7 E65.69851
G1 X95.4 Y123.9 E66.12053
G1 X95.4 Y122.3 E66.71737
G1 X97 Y122.3 E67.3142
G1 X97.8 Y123.1 E67.73622
G1 X99.4 Y121.5 E68.58027
G1 X97.8 Y119.9 E69.42431
G1 X97 Y120.7 E69.84634
G1 X95.4 Y120.7 E70.44317
G1 X95.4 Y119.1 E71.04
G1 X96.2 Y118.3 E71.46202
G1 X94.6 Y116.7 E72.30607
G1 X93 Y118.3 E73.15011
G1 X93.8 Y119.1 E73.57214
G1 X93.8 Y120.7 E74.16897
G1 X92.2 Y120.7 E74.7658
G1 X91.992 Y120.492 E74.87553
G1 X92.092 Y119.854 E75.11642
G1 X92.208 Y119.325 E75.31843
G1 X92.364 Y118.771 E75.53312
G1 X92.528 Y118.296 E75.72057
G1 X92.744 Y117.772 E75.93199
G1 X92.986 Y117.275 E76.13819
G1 X93.243 Y116.821 E76.33279
G1 X93.546 Y116.353 E76.54076
G1 X93.873 Y115.91 E76.74615
G1 X94.232 Y115.479 E76.95539
G1 X94.588 Y115.102 E77.1488
G1 X94.996 Y114.718 E77.3578
G1 X95.432 Y114.355 E77.56943
G1 X95.858 Y114.042 E77.76662
G1 X96.317 Y113.745 E77.97055
G1 X96.781 Y113.483 E78.16932
G1 X97.293 Y113.235 E78.38153
G1 X97.796 Y113.029 E78.58428
G1 X98.292 Y112.855 E78.78035
G1 X98.835 Y112.705 E78.99049
G1 X99.362 Y112.59 E79.1917
G1 X99.996 Y112.496 E79.43077
G1 X100.2 Y112.7 E79.53839
G1 X100.2 Y114.3 E80.13522
G1 X98.6 Y114.3 E80.73205
G1 X97.8 Y113.5 E81.15408
G1 X96.2 Y115.1 E81.99812
G1 X97.8 Y116.7 E82.84217
G1 X98.6 Y115.9 E83.26419
G1 X100.2 Y115.9 E83.86102
G1 X100.2 Y117.5 E84.45785
G1 X99.4 Y118.3 E84.87988
G1 X101 Y119.9 E85.72392
G1 X102.6 Y118.3 E86.56797
G1 X101.8 Y117.5 E86.98999
G1 X101.8 Y115.9 E87.58683
G1 X103.4 Y115.9 E88.18366
G1 X104.2 Y116.7 E88.60568
G1 X105.8 Y115.1 E89.44973
G1 X104.2 Y113.5 E90.29377
G1 X103.4 Y114.3 E90.7158
G1 X101.8 Y114.3 E91.31263
G1 X101.8 Y112.7 E91.90946
G1 X102.008 Y112.492 E92.01918
G1 X102.647 Y112.592 E92.26044
G1 X103.175 Y112.708 E92.4621
G1 X103.729 Y112.864 E92.67679
G1 X104.218 Y113.034 E92.8699
G1 X104.736 Y113.248 E93.07896
G1 X105.214 Y113.48 E93.27716
G1 X105.682 Y113.745 E93.47778
G1 X106.141 Y114.042 E93.68171
G1 X106.59 Y114.373 E93.88979
G1 X107.021 Y114.732 E94.09902
G1 X107.398 Y115.088 E94.29244
G1 X107.782 Y115.496 E94.50144
G1 X108.137 Y115.923 E94.70858
G1 X108.458 Y116.358 E94.91024
G1 X108.755 Y116.817 E95.11417
G1 X109.017 Y117.281 E95.31294
G1 X109.262 Y117.785 E95.52197
G1 X109.472 Y118.296 E95.72806
G1 X109.643 Y118.785 E95.92129
G1 X109.797 Y119.336 E96.1347
G1 X109.91 Y119.86 E96.33466
G1 X110.004 Y120.496 E96.57448
G1 X109.8 Y120.7 E96.68209
G1 X108.2 Y120.7 E97.27892
G1 X108.2 Y119.1 E97.87575
G1 X109 Y118.3 E98.29778
G1 X107.4 Y116.7 E99.14182
G1 X105.8 Y118.3 E99.98587
G1 X106.6 Y119.1 E100.40789
G1 X106.6 Y120.7 E101.00473
G1 X105 Y120.7 E101.60156
G1 X104.2 Y119.9 E102.02358
G1 X102.6 Y121.5 E102.86763
G1 X104.2 Y123.1 E103.71167
G1 X105 Y122.3 E104.1337
G1 X106.6 Y122.3 E104.73053
G1 X106.6 Y123.9 E105.32736
G1 X105.8 Y124.7 E105.74938
G1 X107.4 Y126.3 E106.59343
G1 X109 Y124.7 E107.43747
G1 X108.2 Y123.9 E107.8595
G1 X108.2 Y122.3 E108.45633
G1 X109.8 Y122.3 E109.05316
G1 X110.008 Y122.508 E109.16289
G1 X109.908 Y123.146 E109.40378
G1 X109.792 Y123.675 E109.60579
G1 X109.636 Y124.229 E109.82048
G1 X109.472 Y124.704 E110.00793
G1 X109.256 Y125.228 E110.21935
G1 X109.018 Y125.717 E110.42221
G1 X108.757 Y126.179 E110.62015
G1 X108.457 Y126.643 E110.82625
G1 X108.127 Y127.09 E111.03351
G1 X107.768 Y127.521 E111.24275
G1 X107.412 Y127.898 E111.43616
G1 X107.004 Y128.282 E111.64516
G1 X106.568 Y128.645 E111.85679
G1 X106.143 Y128.958 E112.05368
G1 X105.692 Y129.249 E112.25389
G1 X105.219 Y129.517 E112.45668
G1 X104.707 Y129.765 E112.66889
G1 X104.204 Y129.971 E112.87164
G1 X103.708 Y130.145 E113.06772
G1 X103.165 Y130.295 E113.27785
G1 X102.638 Y130.41 E113.47906
G1 X102.004 Y130.504 E113.71814
G1 F1500 E112.71814
;MESH:NONMESH
G0 F600 X102.004 Y130.504 Z0.6
G0 F6000 X101.565 Y130.882
;TIME_ELAPSED:17.295342
;LAYER:1
;TYPE:WALL-INNER
;MESH:Sajad.stl
G1 F1500 E113.87356
G1 F1800 X102.085 Y130.835 E114.06832
G1 X102.692 Y130.746 E114.29717
G1 X103.252 Y130.625 E114.51088
G1 X103.825 Y130.466 E114.73269
G1 X104.333 Y130.287 E114.93361
G1 X104.861 Y130.069 E115.14669
G1 X105.37 Y129.823 E115.35757
G1 X105.865 Y129.543 E115.56971
G1 X106.342 Y129.234 E115.78171
G1 X106.794 Y128.9 E115.99135
G1 X107.234 Y128.532 E116.20532
G1 X107.648 Y128.144 E116.41697
G1 X108.036 Y127.731 E116.62834
G1 X108.4 Y127.294 E116.8405
G1 X108.738 Y126.836 E117.05282
G1 X109.045 Y126.361 E117.26379
G1 X109.325 Y125.866 E117.47593
G1 X109.569 Y125.361 E117.68514
G1 X109.788 Y124.831 E117.89906
G1 X109.963 Y124.325 E118.09877
G1 X110.127 Y123.745 E118.32361
G1 X110.246 Y123.192 E118.53461
G1 X110.339 Y122.585 E118.76367
G1 X110.382 Y122.067 E118.95756
G1 X110.399 Y121.498 E119.16991
G1 X110.382 Y120.93 E119.38188
G1 X110.335 Y120.415 E119.57478
G1 X110.246 Y119.806 E119.80436
G1 X110.125 Y119.248 E120.01734
G1 X109.966 Y118.675 E120.23916
G1 X109.787 Y118.167 E120.44007
G1 X109.569 Y117.639 E120.65315
G1 X109.323 Y117.13 E120.86403
G1 X109.043 Y116.635 E121.07617
G1 X108.734 Y116.158 E121.28817
G1 X108.4 Y115.706 E121.49782
G1 X108.032 Y115.266 E121.71178
G1 X107.644 Y114.852 E121.92343
G1 X107.231 Y114.464 E122.13481
G1 X106.794 Y114.1 E122.34696
G1 X106.336 Y113.762 E122.55929
G1 X105.861 Y113.455 E122.77026
G1 X105.366 Y113.175 E122.9824
G1 X104.861 Y112.931 E123.19161
G1 X104.335 Y112.714 E123.40386
G1 X103.825 Y112.537 E123.60523
G1 X103.25 Y112.375 E123.82807
G1 X102.69 Y112.254 E124.04178
G1 X102.085 Y112.161 E124.2701
G1 X101.567 Y112.118 E124.46399
G1 X101 Y112.101 E124.67559
G1 X100.435 Y112.118 E124.88644
G1 X99.915 Y112.165 E125.0812
G1 X99.308 Y112.254 E125.31005
G1 X98.748 Y112.375 E125.52376
G1 X98.175 Y112.534 E125.74557
G1 X97.667 Y112.713 E125.94649
G1 X97.139 Y112.931 E126.15957
G1 X96.63 Y113.177 E126.37045
G1 X96.135 Y113.457 E126.58259
G1 X95.658 Y113.766 E126.79459
G1 X95.206 Y114.1 E127.00423
G1 X94.766 Y114.468 E127.2182
G1 X94.352 Y114.856 E127.42985
G1 X93.964 Y115.269 E127.64122
G1 X93.6 Y115.706 E127.85337
G1 X93.262 Y116.164 E128.0657
G1 X92.955 Y116.639 E128.27667
G1 X92.675 Y117.134 E128.48881
G1 X92.431 Y117.639 E128.69802
G1 X92.212 Y118.169 E128.91194
G1 X92.037 Y118.675 E129.11165
G1 X91.873 Y119.255 E129.33649
G1 X91.754 Y119.808 E129.54749
G1 X91.661 Y120.415 E129.77655
G1 X91.618 Y120.933 E129.97044
G1 X91.601 Y121.501 E130.18241
G1 X91.618 Y122.065 E130.39289
G1 X91.665 Y122.585 E130.58765
G1 X91.754 Y123.194 E130.81723
G1 X91.873 Y123.747 E131.02823
G1 X92.034 Y124.325 E131.25205
G1 X92.211 Y124.829 E131.45131
G1 X92.431 Y125.361 E131.66605
G1 X92.675 Y125.866 E131.87526
G1 X92.955 Y126.361 E132.0874
G1 X93.262 Y126.836 E132.29837
G1 X93.6 Y127.294 E132.5107
G1 X93.964 Y127.731 E132.72285
G1 X94.352 Y128.144 E132.93423
G1 X94.766 Y128.532 E133.14588
G1 X95.206 Y128.9 E133.35984
G1 X95.658 Y129.234 E133.56949
G1 X96.136 Y129.543 E133.7818
G1 X96.63 Y129.823 E133.99362
G1 X97.139 Y130.069 E134.20449
G1 X97.665 Y130.286 E134.41674
G1 X98.175 Y130.463 E134.61811
G1 X98.75 Y130.625 E134.84095
G1 X99.31 Y130.746 E135.05466
G1 X99.915 Y130.839 E135.28299
G1 X100.433 Y130.882 E135.47688
G1 X101 Y130.899 E135.68848
G1 X101.565 Y130.882 E135.89933
G0 F6000 X101.589 Y131.282
;TYPE:WALL-OUTER
G1 F1800 X102.132 Y131.233 E136.1027
G1 X102.764 Y131.14 E136.34099
G1 X103.348 Y131.013 E136.56392
G1 X103.945 Y130.848 E136.79496
G1 X104.476 Y130.661 E137.00496
G1 X105.025 Y130.434 E137.22656
G1 X105.556 Y130.177 E137.44662
G1 X106.072 Y129.885 E137.66778
G1 X106.57 Y129.563 E137.88899
G1 X107.041 Y129.215 E138.10743
G1 X107.5 Y128.832 E138.33043
G1 X107.931 Y128.427 E138.55104
G1 X108.336 Y127.996 E138.77165
G1 X108.715 Y127.541 E138.99255
G1 X109.067 Y127.064 E139.21368
