;FLAVOR:Marlin
;TIME:262
;Filament used: 2.31245m, 0m
;Layer height: 0.3
;MINX:91.201
;MINY:111.701
;MINZ:0.3
;MAXX:110.799
;MAXY:131.299
;MAXZ:7
;Generated with Cura_SteamEngine 5.0.1
T0
M140 S40
M105
M190 S40
M104 S200
M105
M109 S200
M82 ;absolute extrusion mode
M900 K0.020;
G28 ; home all axes
G1 Z5 F5000 ; lift nozzle
G1 X-45 Y70 F2500; go to glycerin roller;
G92 E0
G1 X-23 F5000; park to start
G92 E0; Extrude a small amount to clear nozzle
G1 E20 F4000
G4 P2000
G92 E0


G92 E0
G1 F1500 E-1
;LAYER_COUNT:20
;LAYER:0
M107
M204 S500
G1 F600 Z1.3
;MESH:Sajad.stl
G0 F6000 X101.565 Y130.882 Z1.3
;TYPE:WALL-INNER
G1 F600 Z0.3
G1 F1500 E0.15542
G1 F1800 X102.085 Y130.835 E0.35019
G1 X102.692 Y130.746 E0.57903
G1 X103.252 Y130.625 E0.79274
G1 X103.811 Y130.47 E1.00913
G1 X104.32 Y130.291 E1.21039
G1 X104.845 Y130.075 E1.42215
G1 X105.37 Y129.821 E1.6397
G1 X105.865 Y129.543 E1.85148
G1 X106.33 Y129.242 E2.0581
G1 X106.782 Y128.909 E2.26752
G1 X107.224 Y128.541 E2.48206
G1 X107.648 Y128.144 E2.69873
G1 X108.026 Y127.741 E2.90483
G1 X108.392 Y127.304 E3.11746
G1 X108.738 Y126.836 E3.33456
G1 X109.045 Y126.361 E3.54553
G1 X109.318 Y125.878 E3.75249
G1 X109.563 Y125.373 E3.96186
G1 X109.788 Y124.83 E4.18111
G1 X109.963 Y124.325 E4.38048
G1 X110.121 Y123.763 E4.59824
G1 X110.243 Y123.203 E4.81203
G1 X110.337 Y122.599 E5.04005
G1 X110.381 Y122.082 E5.2336
G1 X110.399 Y121.512 E5.44632
G1 X110.382 Y120.929 E5.66389
G1 X110.335 Y120.415 E5.85642
G1 X110.246 Y119.806 E6.086
G1 X110.125 Y119.248 E6.29898
G1 X109.97 Y118.689 E6.51537
G1 X109.792 Y118.18 E6.71651
G1 X109.574 Y117.653 E6.92925
G1 X109.322 Y117.13 E7.1458
G1 X109.043 Y116.635 E7.35775
G1 X108.742 Y116.17 E7.56438
G1 X108.409 Y115.718 E7.7738
G1 X108.041 Y115.276 E7.98834
G1 X107.644 Y114.852 E8.205
G1 X107.241 Y114.474 E8.41111
G1 X106.804 Y114.108 E8.62374
G1 X106.336 Y113.762 E8.84084
G1 X105.861 Y113.455 E9.05181
G1 X105.378 Y113.182 E9.25877
G1 X104.874 Y112.937 E9.46781
G1 X104.334 Y112.714 E9.68574
G1 X103.825 Y112.537 E9.88676
G1 X103.263 Y112.379 E10.10452
G1 X102.703 Y112.257 E10.31831
G1 X102.099 Y112.163 E10.54633
G1 X101.582 Y112.119 E10.73987
G1 X101.014 Y112.101 E10.95186
G1 X100.435 Y112.118 E11.16793
G1 X99.915 Y112.165 E11.36269
G1 X99.308 Y112.254 E11.59153
G1 X98.748 Y112.375 E11.80524
G1 X98.189 Y112.53 E12.02163
G1 X97.68 Y112.709 E12.22289
G1 X97.155 Y112.924 E12.43451
G1 X96.63 Y113.179 E12.65223
G1 X96.135 Y113.457 E12.864
G1 X95.67 Y113.758 E13.07062
G1 X95.218 Y114.091 E13.28004
G1 X94.776 Y114.459 E13.49458
G1 X94.352 Y114.856 E13.71125
G1 X93.974 Y115.259 E13.91736
G1 X93.608 Y115.696 E14.12998
G1 X93.262 Y116.164 E14.34709
G1 X92.955 Y116.639 E14.55806
G1 X92.682 Y117.122 E14.76501
G1 X92.437 Y117.627 E14.97439
G1 X92.212 Y118.17 E15.19364
G1 X92.037 Y118.675 E15.393
G1 X91.879 Y119.237 E15.61077
G1 X91.757 Y119.797 E15.82456
G1 X91.663 Y120.401 E16.05257
G1 X91.619 Y120.918 E16.24612
G1 X91.601 Y121.488 E16.45885
G1 X91.618 Y122.065 E16.67417
G1 X91.665 Y122.585 E16.86893
G1 X91.754 Y123.194 E17.09851
G1 X91.873 Y123.747 E17.30952
G1 X92.03 Y124.311 E17.5279
G1 X92.207 Y124.816 E17.72751
G1 X92.424 Y125.344 E17.94045
G1 X92.678 Y125.868 E18.15766
G1 X92.955 Y126.361 E18.3686
G1 X93.255 Y126.825 E18.57471
G1 X93.591 Y127.282 E18.78629
G1 X93.956 Y127.72 E18.99897
G1 X94.352 Y128.144 E19.21538
G1 X94.757 Y128.525 E19.4228
G1 X95.194 Y128.891 E19.63543
G1 X95.658 Y129.234 E19.85067
G1 X96.136 Y129.543 E20.06298
G1 X96.618 Y129.816 E20.26961
G1 X97.127 Y130.063 E20.48065
G1 X97.666 Y130.286 E20.69824
G1 X98.175 Y130.463 E20.89926
G1 X98.737 Y130.621 E21.11702
G1 X99.297 Y130.743 E21.33081
G1 X99.901 Y130.837 E21.55883
G1 X100.418 Y130.881 E21.75238
G1 X100.986 Y130.899 E21.96436
G1 X101.565 Y130.882 E22.18043
G0 F6000 X101.589 Y131.282
;TYPE:WALL-OUTER
G1 F1800 X102.132 Y131.233 E22.3838
G1 X102.764 Y131.14 E22.62209
G1 X103.348 Y131.013 E22.84502
G1 X103.931 Y130.852 E23.07064
G1 X104.462 Y130.665 E23.28063
G1 X105.008 Y130.441 E23.50077
G1 X105.556 Y130.176 E23.72784
G1 X106.072 Y129.885 E23.94881
G1 X106.558 Y129.571 E24.16465
G1 X107.029 Y129.224 E24.38287
G1 X107.489 Y128.841 E24.60615
G1 X107.931 Y128.427 E24.83205
G1 X108.326 Y128.007 E25.04712
G1 X108.706 Y127.552 E25.26825
G1 X109.067 Y127.064 E25.49468
G1 X109.387 Y126.568 E25.71486
G1 X109.672 Y126.064 E25.93084
G1 X109.928 Y125.537 E26.14939
G1 X110.162 Y124.972 E26.3775
G1 X110.345 Y124.445 E26.5856
G1 X110.509 Y123.86 E26.81223
G1 X110.637 Y123.277 E27.03488
G1 X110.735 Y122.647 E27.27271
G1 X110.781 Y122.105 E27.47561
G1 X110.799 Y121.512 E27.69691
G1 X110.782 Y120.905 E27.92342
G1 X110.733 Y120.368 E28.12457
G1 X110.64 Y119.734 E28.36359
G1 X110.513 Y119.152 E28.5858
G1 X110.352 Y118.569 E28.81141
G1 X110.166 Y118.038 E29.02128
G1 X109.94 Y117.489 E29.24274
G1 X109.676 Y116.944 E29.46863
G1 X109.385 Y116.428 E29.68961
G1 X109.071 Y115.942 E29.90544
G1 X108.724 Y115.471 E30.12367
G1 X108.341 Y115.011 E30.34695
G1 X107.927 Y114.569 E30.57285
G1 X107.507 Y114.174 E30.78792
G1 X107.052 Y113.794 E31.00905
G1 X106.564 Y113.433 E31.23548
G1 X106.068 Y113.113 E31.45566
G1 X105.564 Y112.828 E31.67164
G1 X105.038 Y112.572 E31.88985
G1 X104.476 Y112.34 E32.11665
G1 X103.945 Y112.155 E32.3264
G1 X103.36 Y111.991 E32.55303
G1 X102.777 Y111.863 E32.77568
G1 X102.147 Y111.765 E33.0135
G1 X101.605 Y111.719 E33.21641
G1 X101.014 Y111.701 E33.43696
G1 X100.411 Y111.718 E33.66198
G1 X99.868 Y111.767 E33.86536
G1 X99.236 Y111.86 E34.10364
G1 X98.652 Y111.987 E34.32658
G1 X98.069 Y112.148 E34.55219
G1 X97.538 Y112.335 E34.76219
G1 X96.992 Y112.559 E34.98233
G1 X96.444 Y112.824 E35.20939
G1 X95.928 Y113.115 E35.43037
G1 X95.442 Y113.429 E35.6462
G1 X94.971 Y113.776 E35.86442
G1 X94.511 Y114.159 E36.0877
G1 X94.069 Y114.573 E36.31361
G1 X93.674 Y114.993 E36.52868
G1 X93.294 Y115.448 E36.74981
G1 X92.933 Y115.936 E36.97623
G1 X92.613 Y116.432 E37.19641
G1 X92.328 Y116.936 E37.41239
G1 X92.072 Y117.463 E37.63094
G1 X91.838 Y118.028 E37.85906
G1 X91.655 Y118.555 E38.06715
G1 X91.491 Y119.14 E38.29378
G1 X91.363 Y119.723 E38.51643
G1 X91.265 Y120.353 E38.75426
G1 X91.219 Y120.895 E38.95716
G1 X91.201 Y121.488 E39.17847
G1 X91.218 Y122.089 E39.40274
G1 X91.267 Y122.632 E39.60611
G1 X91.36 Y123.265 E39.84477
G1 X91.485 Y123.843 E40.06536
G1 X91.648 Y124.431 E40.29297
G1 X91.833 Y124.958 E40.50131
G1 X92.059 Y125.508 E40.72311
G1 X92.323 Y126.054 E40.94934
G1 X92.613 Y126.568 E41.16948
G1 X92.925 Y127.052 E41.38429
G1 X93.276 Y127.528 E41.6049
G1 X93.656 Y127.985 E41.8266
G1 X94.069 Y128.427 E42.05225
G1 X94.491 Y128.824 E42.26837
G1 X94.946 Y129.205 E42.48974
G1 X95.43 Y129.563 E42.7143
G1 X95.928 Y129.885 E42.93552
G1 X96.432 Y130.17 E43.15149
G1 X96.963 Y130.428 E43.37171
G1 X97.524 Y130.66 E43.59816
G1 X98.055 Y130.845 E43.80791
G1 X98.64 Y131.009 E44.03454
G1 X99.223 Y131.137 E44.25719
G1 X99.853 Y131.235 E44.49502
G1 X100.395 Y131.281 E44.69792
G1 X100.986 Y131.299 E44.91848
G1 X101.589 Y131.282 E45.1435
G0 F6000 X101.788 Y131.265
G1 F1500 E44.1435
G1 F600 Z1.3
G0 F6000 X109.901 Y119.82 Z1.3
;TYPE:FILL
G1 F600 Z0.3
G1 F1500 E45.29893
G1 F2400 X109.665 Y120.018 E45.41384
G1 X109.376 Y120.5 E45.62347
G1 X109.299 Y120.982 E45.80555
G1 X109.552 Y121.464 E46.00861
G1 X110.047 Y121.878 E46.24932
G1 X110.032 Y122.354 E46.42697
G1 X109.908 Y123.146 E46.726
G1 X109.767 Y123.788 E46.97118
G1 X109.665 Y123.874 E47.02095
G1 X109.376 Y124.356 E47.23059
G1 X109.299 Y124.838 E47.41266
G1 X109.375 Y124.983 E47.47373
G1 X109.018 Y125.717 E47.77819
G1 X108.757 Y126.179 E47.97613
G1 X108.457 Y126.643 E48.18223
G1 X108.127 Y127.09 E48.38949
G1 X107.768 Y127.521 E48.59873
G1 X107.4 Y127.91 E48.79847
G1 X107.371 Y127.73 E48.86648
G1 X107.624 Y127.248 E49.06954
G1 X108.2 Y126.766 E49.3497
G1 X108.489 Y126.284 E49.55934
G1 X108.566 Y125.802 E49.74142
G1 X108.313 Y125.32 E49.94447
G1 X107.737 Y124.838 E50.22464
G1 X107.448 Y124.356 E50.43427
G1 X107.371 Y123.874 E50.61635
G1 X107.624 Y123.392 E50.81941
G1 X108.2 Y122.91 E51.09957
G1 X108.489 Y122.428 E51.30921
G1 X108.566 Y121.946 E51.49128
G1 X108.313 Y121.464 E51.69434
G1 X107.737 Y120.982 E51.9745
G1 X107.448 Y120.5 E52.18414
G1 X107.371 Y120.018 E52.36621
G1 X107.624 Y119.536 E52.56927
G1 X108.2 Y119.054 E52.84944
G1 X108.489 Y118.572 E53.05907
G1 X108.566 Y118.09 E53.24115
G1 X108.313 Y117.608 E53.44421
G1 X107.737 Y117.126 E53.72437
G1 X107.448 Y116.644 E53.93401
G1 X107.371 Y116.162 E54.11608
G1 X107.624 Y115.68 E54.31914
G1 X107.807 Y115.527 E54.40812
G1 X107.398 Y115.088 E54.63193
G1 X107.021 Y114.732 E54.82535
G1 X106.59 Y114.373 E55.03459
G1 X106.141 Y114.042 E55.24266
G1 X105.707 Y113.761 E55.43552
G1 X106.272 Y114.234 E55.71038
G1 X106.561 Y114.716 E55.92002
G1 X106.638 Y115.198 E56.1021
G1 X106.385 Y115.68 E56.30516
G1 X105.809 Y116.162 E56.58532
G1 X105.52 Y116.644 E56.79496
G1 X105.443 Y117.126 E56.97703
G1 X105.696 Y117.608 E57.18009
G1 X106.272 Y118.09 E57.46025
G1 X106.561 Y118.572 E57.66989
G1 X106.638 Y119.054 E57.85196
G1 X106.385 Y119.536 E58.05502
G1 X105.809 Y120.018 E58.33518
G1 X105.52 Y120.5 E58.54482
G1 X105.443 Y120.982 E58.7269
G1 X105.696 Y121.464 E58.92996
G1 X106.272 Y121.946 E59.21012
G1 X106.561 Y122.428 E59.41975
G1 X106.638 Y122.91 E59.60183
G1 X106.385 Y123.392 E59.80489
G1 X105.809 Y123.874 E60.08505
G1 X105.52 Y124.356 E60.29469
G1 X105.443 Y124.838 E60.47676
G1 X105.696 Y125.32 E60.67982
G1 X106.272 Y125.802 E60.95998
G1 X106.561 Y126.284 E61.16962
G1 X106.638 Y126.766 E61.3517
G1 X106.385 Y127.248 E61.55475
G1 X105.809 Y127.73 E61.83492
G1 X105.52 Y128.212 E62.04455
G1 X105.443 Y128.694 E62.22663
G1 X105.723 Y129.228 E62.45154
G1 X105.219 Y129.517 E62.66826
G1 X104.692 Y129.771 E62.88648
G1 X104.71 Y129.658 E62.92917
G1 X104.457 Y129.176 E63.13222
G1 X103.881 Y128.694 E63.41239
G1 X103.592 Y128.212 E63.62202
G1 X103.515 Y127.73 E63.8041
G1 X103.768 Y127.248 E64.00716
G1 X104.344 Y126.766 E64.28732
G1 X104.633 Y126.284 E64.49696
G1 X104.71 Y125.802 E64.67903
G1 X104.457 Y125.32 E64.88209
G1 X103.881 Y124.838 E65.16225
G1 X103.592 Y124.356 E65.37189
G1 X103.515 Y123.874 E65.55396
G1 X103.768 Y123.392 E65.75702
G1 X104.344 Y122.91 E66.03719
G1 X104.633 Y122.428 E66.24682
G1 X104.71 Y121.946 E66.4289
G1 X104.457 Y121.464 E66.63196
G1 X103.881 Y120.982 E66.91212
G1 X103.592 Y120.5 E67.12176
G1 X103.515 Y120.018 E67.30383
G1 X103.768 Y119.536 E67.50689
G1 X104.344 Y119.054 E67.78705
G1 X104.633 Y118.572 E67.99669
G1 X104.71 Y118.09 E68.17876
G1 X104.457 Y117.608 E68.38182
G1 X103.881 Y117.126 E68.66198
G1 X103.592 Y116.644 E68.87162
G1 X103.515 Y116.162 E69.0537
G1 X103.768 Y115.68 E69.25676
G1 X104.344 Y115.198 E69.53692
G1 X104.633 Y114.716 E69.74656
G1 X104.71 Y114.234 E69.92863
G1 X104.457 Y113.752 E70.13169
G1 X103.881 Y113.27 E70.41185
G1 X103.619 Y112.833 E70.60191
G1 X103.175 Y112.708 E70.77397
G1 X102.647 Y112.592 E70.97562
G1 X101.856 Y112.468 E71.27428
G1 X101.664 Y112.788 E71.41349
G1 X101.587 Y113.27 E71.59556
G1 X101.84 Y113.752 E71.79862
G1 X102.416 Y114.234 E72.07878
G1 X102.705 Y114.716 E72.28842
G1 X102.782 Y115.198 E72.4705
G1 X102.529 Y115.68 E72.67356
G1 X101.953 Y116.162 E72.95372
G1 X101.664 Y116.644 E73.16335
G1 X101.587 Y117.126 E73.34543
G1 X101.84 Y117.608 E73.54849
G1 X102.416 Y118.09 E73.82865
G1 X102.705 Y118.572 E74.03829
G1 X102.782 Y119.054 E74.22036
G1 X102.529 Y119.536 E74.42342
G1 X101.953 Y120.018 E74.70358
G1 X101.664 Y120.5 E74.91322
G1 X101.587 Y120.982 E75.0953
G1 X101.84 Y121.464 E75.29835
G1 X102.416 Y121.946 E75.57852
G1 X102.705 Y122.428 E75.78815
G1 X102.782 Y122.91 E75.97023
G1 X102.529 Y123.392 E76.17329
G1 X101.953 Y123.874 E76.45345
G1 X101.664 Y124.356 E76.66309
G1 X101.587 Y124.838 E76.84516
G1 X101.84 Y125.32 E77.04822
G1 X102.416 Y125.802 E77.32838
G1 X102.705 Y126.284 E77.53802
G1 X102.782 Y126.766 E77.7201
G1 X102.529 Y127.248 E77.92315
G1 X101.953 Y127.73 E78.20332
G1 X101.664 Y128.212 E78.41295
G1 X101.587 Y128.694 E78.59503
G1 X101.84 Y129.176 E78.79809
G1 X102.416 Y129.658 E79.07825
G1 X102.705 Y130.14 E79.28789
G1 X102.745 Y130.394 E79.3838
G1 X101.788 Y130.536 E79.74469
G1 X100.986 Y130.559 E80.04397
G1 X100.534 Y130.545 E80.21266
G1 X100.777 Y130.14 E80.38884
G1 X100.854 Y129.658 E80.57091
G1 X100.601 Y129.176 E80.77397
G1 X100.025 Y128.694 E81.05414
G1 X99.736 Y128.212 E81.26377
G1 X99.659 Y127.73 E81.44585
G1 X99.912 Y127.248 E81.64891
G1 X100.488 Y126.766 E81.92907
G1 X100.777 Y126.284 E82.13871
G1 X100.854 Y125.802 E82.32078
G1 X100.601 Y125.32 E82.52384
G1 X100.025 Y124.838 E82.804
G1 X99.736 Y124.356 E83.01364
G1 X99.659 Y123.874 E83.19571
G1 X99.912 Y123.392 E83.39877
G1 X100.488 Y122.91 E83.67893
G1 X100.777 Y122.428 E83.88857
G1 X100.854 Y121.946 E84.07065
G1 X100.601 Y121.464 E84.27371
G1 X100.025 Y120.982 E84.55387
G1 X99.736 Y120.5 E84.7635
G1 X99.659 Y120.018 E84.94558
G1 X99.912 Y119.536 E85.14864
G1 X100.488 Y119.054 E85.4288
G1 X100.777 Y118.572 E85.63844
G1 X100.854 Y118.09 E85.82051
G1 X100.601 Y117.608 E86.02357
G1 X100.025 Y117.126 E86.30373
G1 X99.736 Y116.644 E86.51337
G1 X99.659 Y116.162 E86.69545
G1 X99.912 Y115.68 E86.8985
G1 X100.488 Y115.198 E87.17867
G1 X100.777 Y114.716 E87.3883
G1 X100.854 Y114.234 E87.57038
G1 X100.601 Y113.752 E87.77344
G1 X100.025 Y113.27 E88.0536
G1 X99.736 Y112.788 E88.26324
G1 X99.692 Y112.518 E88.36528
G1 X98.835 Y112.705 E88.69248
G1 X98.292 Y112.855 E88.90262
G1 X97.768 Y113.041 E89.11003
G1 X97.731 Y113.27 E89.19656
G1 X97.984 Y113.752 E89.39962
G1 X98.56 Y114.234 E89.67978
G1 X98.849 Y114.716 E89.88941
G1 X98.926 Y115.198 E90.07149
G1 X98.673 Y115.68 E90.27455
G1 X98.097 Y116.162 E90.55471
G1 X97.808 Y116.644 E90.76435
G1 X97.731 Y117.126 E90.94642
G1 X97.984 Y117.608 E91.14948
G1 X98.56 Y118.09 E91.42964
G1 X98.849 Y118.572 E91.63928
G1 X98.926 Y119.054 E91.82136
G1 X98.673 Y119.536 E92.02441
G1 X98.097 Y120.018 E92.30458
G1 X97.808 Y120.5 E92.51421
G1 X97.731 Y120.982 E92.69629
G1 X97.984 Y121.464 E92.89935
G1 X98.56 Y121.946 E93.17951
G1 X98.849 Y122.428 E93.38915
G1 X98.926 Y122.91 E93.57122
G1 X98.673 Y123.392 E93.77428
G1 X98.097 Y123.874 E94.05444
G1 X97.808 Y124.356 E94.26408
G1 X97.731 Y124.838 E94.44616
G1 X97.984 Y125.32 E94.64921
G1 X98.56 Y125.802 E94.92938
G1 X98.849 Y126.284 E95.13901
G1 X98.926 Y126.766 E95.32109
G1 X98.673 Y127.248 E95.52415
G1 X98.097 Y127.73 E95.80431
G1 X97.808 Y128.212 E96.01395
G1 X97.731 Y128.694 E96.19602
G1 X97.984 Y129.176 E96.39908
G1 X98.56 Y129.658 E96.67924
G1 X98.849 Y130.14 E96.88888
G1 X98.875 Y130.303 E96.95045
G1 X98.271 Y130.136 E97.18421
G1 X97.782 Y129.966 E97.37732
G1 X96.986 Y129.637 E97.69861
G1 X96.745 Y129.176 E97.89265
G1 X96.169 Y128.694 E98.17281
G1 X95.88 Y128.212 E98.38245
G1 X95.803 Y127.73 E98.56452
G1 X96.056 Y127.248 E98.76758
G1 X96.632 Y126.766 E99.04775
G1 X96.921 Y126.284 E99.25738
G1 X96.998 Y125.802 E99.43946
G1 X96.745 Y125.32 E99.64252
G1 X96.169 Y124.838 E99.92268
G1 X95.88 Y124.356 E100.13232
G1 X95.803 Y123.874 E100.31439
G1 X96.056 Y123.392 E100.51745
G1 X96.632 Y122.91 E100.79761
G1 X96.921 Y122.428 E101.00725
G1 X96.998 Y121.946 E101.18932
G1 X96.745 Y121.464 E101.39238
G1 X96.169 Y120.982 E101.67255
G1 X95.88 Y120.5 E101.88218
G1 X95.803 Y120.018 E102.06426
G1 X96.056 Y119.536 E102.26732
G1 X96.632 Y119.054 E102.54748
G1 X96.921 Y118.572 E102.75712
G1 X96.998 Y118.09 E102.93919
G1 X96.745 Y117.608 E103.14225
G1 X96.169 Y117.126 E103.42241
G1 X95.88 Y116.644 E103.63205
G1 X95.803 Y116.162 E103.81412
G1 X96.056 Y115.68 E104.01718
G1 X96.632 Y115.198 E104.29734
G1 X96.921 Y114.716 E104.50698
G1 X96.998 Y114.234 E104.68906
G1 X96.745 Y113.752 E104.89212
G1 X96.554 Y113.592 E104.98506
G1 X95.858 Y114.042 E105.29422
G1 X95.432 Y114.355 E105.4914
G1 X94.994 Y114.72 E105.70408
G1 X95.07 Y115.198 E105.88462
G1 X94.817 Y115.68 E106.08768
G1 X94.241 Y116.162 E106.36784
G1 X93.952 Y116.644 E106.57748
G1 X93.875 Y117.126 E106.75956
G1 X94.128 Y117.608 E106.96262
G1 X94.704 Y118.09 E107.24278
G1 X94.993 Y118.572 E107.45242
G1 X95.07 Y119.054 E107.63449
G1 X94.817 Y119.536 E107.83755
G1 X94.241 Y120.018 E108.11771
