;FLAVOR:Marlin
;TIME:383
;Filament used: 3.14154m, 0m
;Layer height: 0.3
;MINX:91.201
;MINY:111.701
;MINZ:0.3
;MAXX:110.799
;MAXY:131.299
;MAXZ:7
;Generated with Cura_SteamEngine 5.0.1
T0
M140 S40
M105
M190 S40
M104 S200
M105
M109 S200
M82 ;absolute extrusion mode
M900 K0.020;
G28 ; home all axes
G1 Z5 F5000 ; lift nozzle
G1 X-45 Y70 F2500; go to glycerin roller;
G92 E0
G1 X-23 F5000; park to start
G92 E0; Extrude a small amount to clear nozzle
G1 E20 F4000
G4 P2000
G92 E0


G92 E0
G1 F1500 E-1
;LAYER_COUNT:20
;LAYER:0
M107
M204 S500
G1 F600 Z1.3
;MESH:Sajad.stl
G0 F6000 X101.565 Y130.882 Z1.3
;TYPE:WALL-INNER
G1 F600 Z0.3
G1 F1500 E0.15542
G1 F1800 X102.085 Y130.835 E0.35019
G1 X102.692 Y130.746 E0.57903
G1 X103.252 Y130.625 E0.79274
G1 X103.811 Y130.47 E1.00913
G1 X104.32 Y130.291 E1.21039
G1 X104.845 Y130.075 E1.42215
G1 X105.37 Y129.821 E1.6397
G1 X105.865 Y129.543 E1.85148
G1 X106.33 Y129.242 E2.0581
G1 X106.782 Y128.909 E2.26752
G1 X107.224 Y128.541 E2.48206
G1 X107.648 Y128.144 E2.69873
G1 X108.026 Y127.741 E2.90483
G1 X108.392 Y127.304 E3.11746
G1 X108.738 Y126.836 E3.33456
G1 X109.045 Y126.361 E3.54553
G1 X109.318 Y125.878 E3.75249
G1 X109.563 Y125.373 E3.96186
G1 X109.788 Y124.83 E4.18111
G1 X109.963 Y124.325 E4.38048
G1 X110.121 Y123.763 E4.59824
G1 X110.243 Y123.203 E4.81203
G1 X110.337 Y122.599 E5.04005
G1 X110.381 Y122.082 E5.2336
G1 X110.399 Y121.512 E5.44632
G1 X110.382 Y120.929 E5.66389
G1 X110.335 Y120.415 E5.85642
G1 X110.246 Y119.806 E6.086
G1 X110.125 Y119.248 E6.29898
G1 X109.97 Y118.689 E6.51537
G1 X109.792 Y118.18 E6.71651
G1 X109.574 Y117.653 E6.92925
G1 X109.322 Y117.13 E7.1458
G1 X109.043 Y116.635 E7.35775
G1 X108.742 Y116.17 E7.56438
G1 X108.409 Y115.718 E7.7738
G1 X108.041 Y115.276 E7.98834
G1 X107.644 Y114.852 E8.205
G1 X107.241 Y114.474 E8.41111
G1 X106.804 Y114.108 E8.62374
G1 X106.336 Y113.762 E8.84084
G1 X105.861 Y113.455 E9.05181
G1 X105.378 Y113.182 E9.25877
G1 X104.874 Y112.937 E9.46781
G1 X104.334 Y112.714 E9.68574
G1 X103.825 Y112.537 E9.88676
G1 X103.263 Y112.379 E10.10452
G1 X102.703 Y112.257 E10.31831
G1 X102.099 Y112.163 E10.54633
G1 X101.582 Y112.119 E10.73987
G1 X101.014 Y112.101 E10.95186
G1 X100.435 Y112.118 E11.16793
G1 X99.915 Y112.165 E11.36269
G1 X99.308 Y112.254 E11.59153
G1 X98.748 Y112.375 E11.80524
G1 X98.189 Y112.53 E12.02163
G1 X97.68 Y112.709 E12.22289
G1 X97.155 Y112.924 E12.43451
G1 X96.63 Y113.179 E12.65223
G1 X96.135 Y113.457 E12.864
G1 X95.67 Y113.758 E13.07062
G1 X95.218 Y114.091 E13.28004
G1 X94.776 Y114.459 E13.49458
G1 X94.352 Y114.856 E13.71125
G1 X93.974 Y115.259 E13.91736
G1 X93.608 Y115.696 E14.12998
G1 X93.262 Y116.164 E14.34709
G1 X92.955 Y116.639 E14.55806
G1 X92.682 Y117.122 E14.76501
G1 X92.437 Y117.627 E14.97439
G1 X92.212 Y118.17 E15.19364
G1 X92.037 Y118.675 E15.393
G1 X91.879 Y119.237 E15.61077
G1 X91.757 Y119.797 E15.82456
G1 X91.663 Y120.401 E16.05257
G1 X91.619 Y120.918 E16.24612
G1 X91.601 Y121.488 E16.45885
G1 X91.618 Y122.065 E16.67417
G1 X91.665 Y122.585 E16.86893
G1 X91.754 Y123.194 E17.09851
G1 X91.873 Y123.747 E17.30952
G1 X92.03 Y124.311 E17.5279
G1 X92.207 Y124.816 E17.72751
G1 X92.424 Y125.344 E17.94045
G1 X92.678 Y125.868 E18.15766
G1 X92.955 Y126.361 E18.3686
G1 X93.255 Y126.825 E18.57471
G1 X93.591 Y127.282 E18.78629
G1 X93.956 Y127.72 E18.99897
G1 X94.352 Y128.144 E19.21538
G1 X94.757 Y128.525 E19.4228
G1 X95.194 Y128.891 E19.63543
G1 X95.658 Y129.234 E19.85067
G1 X96.136 Y129.543 E20.06298
G1 X96.618 Y129.816 E20.26961
G1 X97.127 Y130.063 E20.48065
G1 X97.666 Y130.286 E20.69824
G1 X98.175 Y130.463 E20.89926
G1 X98.737 Y130.621 E21.11702
G1 X99.297 Y130.743 E21.33081
G1 X99.901 Y130.837 E21.55883
G1 X100.418 Y130.881 E21.75238
G1 X100.986 Y130.899 E21.96436
G1 X101.565 Y130.882 E22.18043
G0 F6000 X101.589 Y131.282
;TYPE:WALL-OUTER
G1 F1800 X102.132 Y131.233 E22.3838
G1 X102.764 Y131.14 E22.62209
G1 X103.348 Y131.013 E22.84502
G1 X103.931 Y130.852 E23.07064
G1 X104.462 Y130.665 E23.28063
G1 X105.008 Y130.441 E23.50077
G1 X105.556 Y130.176 E23.72784
G1 X106.072 Y129.885 E23.94881
G1 X106.558 Y129.571 E24.16465
G1 X107.029 Y129.224 E24.38287
G1 X107.489 Y128.841 E24.60615
G1 X107.931 Y128.427 E24.83205
G1 X108.326 Y128.007 E25.04712
G1 X108.706 Y127.552 E25.26825
G1 X109.067 Y127.064 E25.49468
G1 X109.387 Y126.568 E25.71486
G1 X109.672 Y126.064 E25.93084
G1 X109.928 Y125.537 E26.14939
G1 X110.162 Y124.972 E26.3775
G1 X110.345 Y124.445 E26.5856
G1 X110.509 Y123.86 E26.81223
G1 X110.637 Y123.277 E27.03488
G1 X110.735 Y122.647 E27.27271
G1 X110.781 Y122.105 E27.47561
G1 X110.799 Y121.512 E27.69691
G1 X110.782 Y120.905 E27.92342
G1 X110.733 Y120.368 E28.12457
G1 X110.64 Y119.734 E28.36359
G1 X110.513 Y119.152 E28.5858
G1 X110.352 Y118.569 E28.81141
G1 X110.166 Y118.038 E29.02128
G1 X109.94 Y117.489 E29.24274
G1 X109.676 Y116.944 E29.46863
G1 X109.385 Y116.428 E29.68961
G1 X109.071 Y115.942 E29.90544
G1 X108.724 Y115.471 E30.12367
G1 X108.341 Y115.011 E30.34695
G1 X107.927 Y114.569 E30.57285
G1 X107.507 Y114.174 E30.78792
G1 X107.052 Y113.794 E31.00905
G1 X106.564 Y113.433 E31.23548
G1 X106.068 Y113.113 E31.45566
G1 X105.564 Y112.828 E31.67164
G1 X105.038 Y112.572 E31.88985
G1 X104.476 Y112.34 E32.11665
G1 X103.945 Y112.155 E32.3264
G1 X103.36 Y111.991 E32.55303
G1 X102.777 Y111.863 E32.77568
G1 X102.147 Y111.765 E33.0135
G1 X101.605 Y111.719 E33.21641
G1 X101.014 Y111.701 E33.43696
G1 X100.411 Y111.718 E33.66198
G1 X99.868 Y111.767 E33.86536
G1 X99.236 Y111.86 E34.10364
G1 X98.652 Y111.987 E34.32658
G1 X98.069 Y112.148 E34.55219
G1 X97.538 Y112.335 E34.76219
G1 X96.992 Y112.559 E34.98233
G1 X96.444 Y112.824 E35.20939
G1 X95.928 Y113.115 E35.43037
G1 X95.442 Y113.429 E35.6462
G1 X94.971 Y113.776 E35.86442
G1 X94.511 Y114.159 E36.0877
G1 X94.069 Y114.573 E36.31361
G1 X93.674 Y114.993 E36.52868
G1 X93.294 Y115.448 E36.74981
G1 X92.933 Y115.936 E36.97623
G1 X92.613 Y116.432 E37.19641
G1 X92.328 Y116.936 E37.41239
G1 X92.072 Y117.463 E37.63094
G1 X91.838 Y118.028 E37.85906
G1 X91.655 Y118.555 E38.06715
G1 X91.491 Y119.14 E38.29378
G1 X91.363 Y119.723 E38.51643
G1 X91.265 Y120.353 E38.75426
G1 X91.219 Y120.895 E38.95716
G1 X91.201 Y121.488 E39.17847
G1 X91.218 Y122.089 E39.40274
G1 X91.267 Y122.632 E39.60611
G1 X91.36 Y123.265 E39.84477
G1 X91.485 Y123.843 E40.06536
G1 X91.648 Y124.431 E40.29297
G1 X91.833 Y124.958 E40.50131
G1 X92.059 Y125.508 E40.72311
G1 X92.323 Y126.054 E40.94934
G1 X92.613 Y126.568 E41.16948
G1 X92.925 Y127.052 E41.38429
G1 X93.276 Y127.528 E41.6049
G1 X93.656 Y127.985 E41.8266
G1 X94.069 Y128.427 E42.05225
G1 X94.491 Y128.824 E42.26837
G1 X94.946 Y129.205 E42.48974
G1 X95.43 Y129.563 E42.7143
G1 X95.928 Y129.885 E42.93552
G1 X96.432 Y130.17 E43.15149
G1 X96.963 Y130.428 E43.37171
G1 X97.524 Y130.66 E43.59816
G1 X98.055 Y130.845 E43.80791
G1 X98.64 Y131.009 E44.03454
G1 X99.223 Y131.137 E44.25719
G1 X99.853 Y131.235 E44.49502
G1 X100.395 Y131.281 E44.69792
G1 X100.986 Y131.299 E44.91848
G1 X101.589 Y131.282 E45.1435
G0 F6000 X101.788 Y131.265
G1 F1500 E44.1435
G1 F600 Z1.3
G0 F6000 X92.836 Y125.414 Z1.3
;TYPE:FILL
G1 F600 Z0.3
G1 F1500 E45.29893
G1 F2400 X93.271 Y125.216 E45.47721
G1 X93.209 Y124.915 E45.59184
G1 X93.074 Y124.614 E45.7149
G1 X92.809 Y124.313 E45.86449
G1 X92.322 Y124.092 E46.06398
G1 X92.214 Y123.698 E46.21637
G1 X92.343 Y123.41 E46.33409
G1 X92.608 Y123.109 E46.48368
G1 X93.271 Y122.808 E46.75528
G1 X93.209 Y122.507 E46.86992
G1 X93.074 Y122.206 E46.99297
G1 X92.809 Y121.905 E47.14257
G1 X92.146 Y121.604 E47.41417
G1 X92.208 Y121.303 E47.52881
G1 X92.343 Y121.002 E47.65186
G1 X92.608 Y120.701 E47.80146
G1 X93.271 Y120.4 E48.07306
G1 X93.209 Y120.099 E48.1877
G1 X93.074 Y119.798 E48.31075
G1 X92.809 Y119.497 E48.46034
G1 X92.233 Y119.236 E48.69623
G1 X92.092 Y119.854 E48.93268
G1 X91.968 Y120.646 E49.23171
G1 X91.943 Y121.547 E49.56793
G1 X92.067 Y121.604 E49.61884
G1 X91.956 Y122.014 E49.77728
G1 F1500 E48.77728
G1 F600 Z1.3
G0 F6000 X92.478 Y118.441 Z1.3
G1 F600 Z0.3
G1 F1500 E49.93271
G1 F2400 X92.608 Y118.293 E50.00619
G1 X93.271 Y117.992 E50.27779
G1 X93.209 Y117.691 E50.39243
G1 X93.074 Y117.39 E50.51548
G1 X92.981 Y117.285 E50.56781
G1 X93.243 Y116.821 E50.76657
G1 X93.609 Y116.256 E51.01768
G1 X93.812 Y116.487 E51.1324
G1 X94.475 Y116.788 E51.404
G1 X94.413 Y117.089 E51.51864
G1 X94.278 Y117.39 E51.64169
G1 X94.013 Y117.691 E51.79129
G1 X93.35 Y117.992 E52.06289
G1 X93.412 Y118.293 E52.17753
G1 X93.547 Y118.594 E52.30058
G1 X93.812 Y118.895 E52.45017
G1 X94.475 Y119.196 E52.72178
G1 X94.413 Y119.497 E52.83642
G1 X94.278 Y119.798 E52.95947
G1 X94.013 Y120.099 E53.10906
G1 X93.35 Y120.4 E53.38067
G1 X93.412 Y120.701 E53.4953
G1 X93.547 Y121.002 E53.61836
G1 X93.812 Y121.303 E53.76795
G1 X94.475 Y121.604 E54.03956
G1 X94.413 Y121.905 E54.15419
G1 X94.278 Y122.206 E54.27725
G1 X94.013 Y122.507 E54.42684
G1 X93.35 Y122.808 E54.69845
G1 X93.412 Y123.109 E54.81308
G1 X93.547 Y123.41 E54.93614
G1 X93.812 Y123.711 E55.08573
G1 X94.475 Y124.012 E55.35733
G1 X94.413 Y124.313 E55.47197
G1 X94.278 Y124.614 E55.59503
G1 X94.013 Y124.915 E55.74462
G1 X93.35 Y125.216 E56.01622
G1 X93.412 Y125.517 E56.13086
G1 X93.547 Y125.818 E56.25391
G1 X93.812 Y126.119 E56.40351
G1 X94.475 Y126.42 E56.67511
G1 X94.413 Y126.721 E56.78975
G1 X94.278 Y127.022 E56.9128
G1 X94.031 Y127.303 E57.05236
G1 X94.821 Y128.147 E57.48359
G1 X95.016 Y127.925 E57.59381
G1 X95.679 Y127.624 E57.86541
G1 X95.617 Y127.323 E57.98005
G1 X95.482 Y127.022 E58.1031
G1 X95.217 Y126.721 E58.25269
G1 X94.554 Y126.42 E58.5243
G1 X94.616 Y126.119 E58.63894
G1 X94.751 Y125.818 E58.76199
G1 X95.016 Y125.517 E58.91158
G1 X95.679 Y125.216 E59.18319
G1 X95.617 Y124.915 E59.29782
G1 X95.482 Y124.614 E59.42088
G1 X95.217 Y124.313 E59.57047
G1 X94.554 Y124.012 E59.84208
G1 X94.616 Y123.711 E59.95671
G1 X94.751 Y123.41 E60.07977
G1 X95.016 Y123.109 E60.22936
G1 X95.679 Y122.808 E60.50097
G1 X95.617 Y122.507 E60.6156
G1 X95.482 Y122.206 E60.73866
G1 X95.217 Y121.905 E60.88825
G1 X94.554 Y121.604 E61.15985
G1 X94.616 Y121.303 E61.27449
G1 X94.751 Y121.002 E61.39755
G1 X95.016 Y120.701 E61.54714
G1 X95.679 Y120.4 E61.81874
G1 X95.617 Y120.099 E61.93338
G1 X95.482 Y119.798 E62.05643
G1 X95.217 Y119.497 E62.20603
G1 X94.554 Y119.196 E62.47763
G1 X94.616 Y118.895 E62.59227
G1 X94.751 Y118.594 E62.71532
G1 X95.016 Y118.293 E62.86492
G1 X95.679 Y117.992 E63.13652
G1 X95.617 Y117.691 E63.25116
G1 X95.482 Y117.39 E63.37421
G1 X95.217 Y117.089 E63.5238
G1 X94.554 Y116.788 E63.79541
G1 X94.616 Y116.487 E63.91005
G1 X94.751 Y116.186 E64.0331
G1 X95.016 Y115.885 E64.18269
G1 X95.679 Y115.584 E64.4543
G1 X95.617 Y115.283 E64.56893
G1 X95.482 Y114.982 E64.69199
G1 X95.217 Y114.681 E64.84158
G1 X95.103 Y114.629 E64.88832
G1 X95.432 Y114.355 E65.04803
G1 X96.058 Y113.895 E65.33781
G1 X96.22 Y114.079 E65.42925
G1 X96.883 Y114.38 E65.70086
G1 X96.821 Y114.681 E65.81549
G1 X96.686 Y114.982 E65.93855
G1 X96.421 Y115.283 E66.08814
G1 X95.758 Y115.584 E66.35975
G1 X95.82 Y115.885 E66.47438
G1 X95.955 Y116.186 E66.59744
G1 X96.22 Y116.487 E66.74703
G1 X96.883 Y116.788 E67.01864
G1 X96.821 Y117.089 E67.13327
G1 X96.686 Y117.39 E67.25633
G1 X96.421 Y117.691 E67.40592
G1 X95.758 Y117.992 E67.67752
G1 X95.82 Y118.293 E67.79216
G1 X95.955 Y118.594 E67.91522
G1 X96.22 Y118.895 E68.06481
G1 X96.883 Y119.196 E68.33641
G1 X96.821 Y119.497 E68.45105
G1 X96.686 Y119.798 E68.5741
G1 X96.421 Y120.099 E68.7237
G1 X95.758 Y120.4 E68.9953
G1 X95.82 Y120.701 E69.10994
G1 X95.955 Y121.002 E69.23299
G1 X96.22 Y121.303 E69.38259
G1 X96.883 Y121.604 E69.65419
G1 X96.821 Y121.905 E69.76883
G1 X96.686 Y122.206 E69.89188
G1 X96.421 Y122.507 E70.04147
G1 X95.758 Y122.808 E70.31308
G1 X95.82 Y123.109 E70.42772
G1 X95.955 Y123.41 E70.55077
G1 X96.22 Y123.711 E70.70036
G1 X96.883 Y124.012 E70.97197
G1 X96.821 Y124.313 E71.0866
G1 X96.686 Y124.614 E71.20966
G1 X96.421 Y124.915 E71.35925
G1 X95.758 Y125.216 E71.63086
G1 X95.82 Y125.517 E71.74549
G1 X95.955 Y125.818 E71.86855
G1 X96.22 Y126.119 E72.01814
G1 X96.883 Y126.42 E72.28975
G1 X96.821 Y126.721 E72.40438
G1 X96.686 Y127.022 E72.52744
G1 X96.421 Y127.323 E72.67703
G1 X95.758 Y127.624 E72.94863
G1 X95.82 Y127.925 E73.06327
G1 X95.955 Y128.226 E73.18632
G1 X96.22 Y128.527 E73.33592
G1 X96.883 Y128.828 E73.60752
G1 X96.821 Y129.129 E73.72216
G1 X96.66 Y129.459 E73.85912
G1 X97.265 Y129.752 E74.10987
G1 X98.018 Y130.064 E74.41391
G1 X98.087 Y130.032 E74.44229
G1 X98.025 Y129.731 E74.55692
G1 X97.89 Y129.43 E74.67998
G1 X97.625 Y129.129 E74.82957
G1 X96.962 Y128.828 E75.10117
G1 X97.024 Y128.527 E75.21581
G1 X97.159 Y128.226 E75.33886
G1 X97.424 Y127.925 E75.48846
G1 X98.087 Y127.624 E75.76006
G1 X98.025 Y127.323 E75.8747
G1 X97.89 Y127.022 E75.99775
G1 X97.625 Y126.721 E76.14735
G1 X96.962 Y126.42 E76.41895
G1 X97.024 Y126.119 E76.53359
G1 X97.159 Y125.818 E76.65664
G1 X97.424 Y125.517 E76.80623
G1 X98.087 Y125.216 E77.07784
G1 X98.025 Y124.915 E77.19248
G1 X97.89 Y124.614 E77.31553
G1 X97.625 Y124.313 E77.46512
G1 X96.962 Y124.012 E77.73673
G1 X97.024 Y123.711 E77.85137
G1 X97.159 Y123.41 E77.97442
G1 X97.424 Y123.109 E78.12401
G1 X98.087 Y122.808 E78.39562
G1 X98.025 Y122.507 E78.51025
G1 X97.89 Y122.206 E78.63331
G1 X97.625 Y121.905 E78.7829
G1 X96.962 Y121.604 E79.05451
G1 X97.024 Y121.303 E79.16914
G1 X97.159 Y121.002 E79.2922
G1 X97.424 Y120.701 E79.44179
G1 X98.087 Y120.4 E79.7134
G1 X98.025 Y120.099 E79.82803
G1 X97.89 Y119.798 E79.95109
G1 X97.625 Y119.497 E80.10068
G1 X96.962 Y119.196 E80.37228
G1 X97.024 Y118.895 E80.48692
G1 X97.159 Y118.594 E80.60997
G1 X97.424 Y118.293 E80.75957
G1 X98.087 Y117.992 E81.03117
G1 X98.025 Y117.691 E81.14581
G1 X97.89 Y117.39 E81.26886
G1 X97.625 Y117.089 E81.41846
G1 X96.962 Y116.788 E81.69006
G1 X97.024 Y116.487 E81.8047
G1 X97.159 Y116.186 E81.92775
G1 X97.424 Y115.885 E82.07734
G1 X98.087 Y115.584 E82.34895
G1 X98.025 Y115.283 E82.46359
G1 X97.89 Y114.982 E82.58664
G1 X97.625 Y114.681 E82.73623
G1 X96.962 Y114.38 E83.00784
G1 X97.024 Y114.079 E83.12247
G1 X97.159 Y113.778 E83.24553
G1 X97.424 Y113.477 E83.39512
G1 X98.087 Y113.176 E83.66673
G1 X98.035 Y112.926 E83.76198
G1 X99.025 Y112.653 E84.14505
G1 X98.829 Y112.875 E84.25552
G1 X98.166 Y113.176 E84.52712
G1 X98.228 Y113.477 E84.64176
G1 X98.363 Y113.778 E84.76481
G1 X98.628 Y114.079 E84.91441
G1 X99.291 Y114.38 E85.18601
G1 X99.229 Y114.681 E85.30065
G1 X99.094 Y114.982 E85.4237
G1 X98.829 Y115.283 E85.5733
G1 X98.166 Y115.584 E85.8449
G1 X98.228 Y115.885 E85.95954
G1 X98.363 Y116.186 E86.08259
G1 X98.628 Y116.487 E86.23218
G1 X99.291 Y116.788 E86.50379
G1 X99.229 Y117.089 E86.61843
G1 X99.094 Y117.39 E86.74148
G1 X98.829 Y117.691 E86.89107
G1 X98.166 Y117.992 E87.16268
G1 X98.228 Y118.293 E87.27731
G1 X98.363 Y118.594 E87.40037
G1 X98.628 Y118.895 E87.54996
G1 X99.291 Y119.196 E87.82157
G1 X99.229 Y119.497 E87.9362
G1 X99.094 Y119.798 E88.05926
G1 X98.829 Y120.099 E88.20885
G1 X98.166 Y120.4 E88.48046
G1 X98.228 Y120.701 E88.59509
G1 X98.363 Y121.002 E88.71815
G1 X98.628 Y121.303 E88.86774
G1 X99.291 Y121.604 E89.13934
G1 X99.229 Y121.905 E89.25398
G1 X99.094 Y122.206 E89.37703
G1 X98.829 Y122.507 E89.52663
G1 X98.166 Y122.808 E89.79823
G1 X98.228 Y123.109 E89.91287
G1 X98.363 Y123.41 E90.03592
G1 X98.628 Y123.711 E90.18552
G1 X99.291 Y124.012 E90.45712
G1 X99.229 Y124.313 E90.57176
G1 X99.094 Y124.614 E90.69481
G1 X98.829 Y124.915 E90.8444
G1 X98.166 Y125.216 E91.11601
G1 X98.228 Y125.517 E91.23065
G1 X98.363 Y125.818 E91.3537
G1 X98.628 Y126.119 E91.50329
G1 X99.291 Y126.42 E91.7749
G1 X99.229 Y126.721 E91.88954
G1 X99.094 Y127.022 E92.01259
G1 X98.829 Y127.323 E92.16218
G1 X98.166 Y127.624 E92.43379
G1 X98.228 Y127.925 E92.54842
G1 X98.363 Y128.226 E92.67148
G1 X98.628 Y128.527 E92.82107
G1 X99.291 Y128.828 E93.09268
G1 X99.229 Y129.129 E93.20731
G1 X99.094 Y129.43 E93.33037
G1 X98.829 Y129.731 E93.47996
G1 X98.166 Y130.032 E93.75157
G1 X98.181 Y130.105 E93.77936
G1 X98.825 Y130.292 E94.02951
G1 X99.699 Y130.484 E94.3633
G1 X99.832 Y130.333 E94.43836
G1 X100.495 Y130.032 E94.70997
G1 X100.433 Y129.731 E94.82461
