;FLAVOR:Marlin
;TIME:507
;Filament used: 3.97691m, 0m
;Layer height: 0.3
;MINX:91.201
;MINY:111.701
;MINZ:0.3
;MAXX:110.799
;MAXY:131.299
;MAXZ:7
;Generated with Cura_SteamEngine 5.0.1
T0
M140 S40
M105
M190 S40
M104 S200
M105
M109 S200
M82 ;absolute extrusion mode
M900 K0.020;
G28 ; home all axes
G1 Z5 F5000 ; lift nozzle
G1 X-45 Y70 F2500; go to glycerin roller;
G92 E0
G1 X-23 F5000; park to start
G92 E0; Extrude a small amount to clear nozzle
G1 E20 F4000
G4 P2000
G92 E0


G92 E0
G1 F1500 E-1
;LAYER_COUNT:20
;LAYER:0
M107
M204 S500
G1 F600 Z1.3
;MESH:Sajad.stl
G0 F6000 X101.565 Y130.882 Z1.3
;TYPE:WALL-INNER
G1 F600 Z0.3
G1 F1500 E0.15542
G1 F1800 X102.085 Y130.835 E0.35019
G1 X102.692 Y130.746 E0.57903
G1 X103.252 Y130.625 E0.79274
G1 X103.811 Y130.47 E1.00913
G1 X104.32 Y130.291 E1.21039
G1 X104.845 Y130.075 E1.42215
G1 X105.37 Y129.821 E1.6397
G1 X105.865 Y129.543 E1.85148
G1 X106.33 Y129.242 E2.0581
G1 X106.782 Y128.909 E2.26752
G1 X107.224 Y128.541 E2.48206
G1 X107.648 Y128.144 E2.69873
G1 X108.026 Y127.741 E2.90483
G1 X108.392 Y127.304 E3.11746
G1 X108.738 Y126.836 E3.33456
G1 X109.045 Y126.361 E3.54553
G1 X109.318 Y125.878 E3.75249
G1 X109.563 Y125.373 E3.96186
G1 X109.788 Y124.83 E4.18111
G1 X109.963 Y124.325 E4.38048
G1 X110.121 Y123.763 E4.59824
G1 X110.243 Y123.203 E4.81203
G1 X110.337 Y122.599 E5.04005
G1 X110.381 Y122.082 E5.2336
G1 X110.399 Y121.512 E5.44632
G1 X110.382 Y120.929 E5.66389
G1 X110.335 Y120.415 E5.85642
G1 X110.246 Y119.806 E6.086
G1 X110.125 Y119.248 E6.29898
G1 X109.97 Y118.689 E6.51537
G1 X109.792 Y118.18 E6.71651
G1 X109.574 Y117.653 E6.92925
G1 X109.322 Y117.13 E7.1458
G1 X109.043 Y116.635 E7.35775
G1 X108.742 Y116.17 E7.56438
G1 X108.409 Y115.718 E7.7738
G1 X108.041 Y115.276 E7.98834
G1 X107.644 Y114.852 E8.205
G1 X107.241 Y114.474 E8.41111
G1 X106.804 Y114.108 E8.62374
G1 X106.336 Y113.762 E8.84084
G1 X105.861 Y113.455 E9.05181
G1 X105.378 Y113.182 E9.25877
G1 X104.874 Y112.937 E9.46781
G1 X104.334 Y112.714 E9.68574
G1 X103.825 Y112.537 E9.88676
G1 X103.263 Y112.379 E10.10452
G1 X102.703 Y112.257 E10.31831
G1 X102.099 Y112.163 E10.54633
G1 X101.582 Y112.119 E10.73987
G1 X101.014 Y112.101 E10.95186
G1 X100.435 Y112.118 E11.16793
G1 X99.915 Y112.165 E11.36269
G1 X99.308 Y112.254 E11.59153
G1 X98.748 Y112.375 E11.80524
G1 X98.189 Y112.53 E12.02163
G1 X97.68 Y112.709 E12.22289
G1 X97.155 Y112.924 E12.43451
G1 X96.63 Y113.179 E12.65223
G1 X96.135 Y113.457 E12.864
G1 X95.67 Y113.758 E13.07062
G1 X95.218 Y114.091 E13.28004
G1 X94.776 Y114.459 E13.49458
G1 X94.352 Y114.856 E13.71125
G1 X93.974 Y115.259 E13.91736
G1 X93.608 Y115.696 E14.12998
G1 X93.262 Y116.164 E14.34709
G1 X92.955 Y116.639 E14.55806
G1 X92.682 Y117.122 E14.76501
G1 X92.437 Y117.627 E14.97439
G1 X92.212 Y118.17 E15.19364
G1 X92.037 Y118.675 E15.393
G1 X91.879 Y119.237 E15.61077
G1 X91.757 Y119.797 E15.82456
G1 X91.663 Y120.401 E16.05257
G1 X91.619 Y120.918 E16.24612
G1 X91.601 Y121.488 E16.45885
G1 X91.618 Y122.065 E16.67417
G1 X91.665 Y122.585 E16.86893
G1 X91.754 Y123.194 E17.09851
G1 X91.873 Y123.747 E17.30952
G1 X92.03 Y124.311 E17.5279
G1 X92.207 Y124.816 E17.72751
G1 X92.424 Y125.344 E17.94045
G1 X92.678 Y125.868 E18.15766
G1 X92.955 Y126.361 E18.3686
G1 X93.255 Y126.825 E18.57471
G1 X93.591 Y127.282 E18.78629
G1 X93.956 Y127.72 E18.99897
G1 X94.352 Y128.144 E19.21538
G1 X94.757 Y128.525 E19.4228
G1 X95.194 Y128.891 E19.63543
G1 X95.658 Y129.234 E19.85067
G1 X96.136 Y129.543 E20.06298
G1 X96.618 Y129.816 E20.26961
G1 X97.127 Y130.063 E20.48065
G1 X97.666 Y130.286 E20.69824
G1 X98.175 Y130.463 E20.89926
G1 X98.737 Y130.621 E21.11702
G1 X99.297 Y130.743 E21.33081
G1 X99.901 Y130.837 E21.55883
G1 X100.418 Y130.881 E21.75238
G1 X100.986 Y130.899 E21.96436
G1 X101.565 Y130.882 E22.18043
G0 F6000 X101.589 Y131.282
;TYPE:WALL-OUTER
G1 F1800 X102.132 Y131.233 E22.3838
G1 X102.764 Y131.14 E22.62209
G1 X103.348 Y131.013 E22.84502
G1 X103.931 Y130.852 E23.07064
G1 X104.462 Y130.665 E23.28063
G1 X105.008 Y130.441 E23.50077
G1 X105.556 Y130.176 E23.72784
G1 X106.072 Y129.885 E23.94881
G1 X106.558 Y129.571 E24.16465
G1 X107.029 Y129.224 E24.38287
G1 X107.489 Y128.841 E24.60615
G1 X107.931 Y128.427 E24.83205
G1 X108.326 Y128.007 E25.04712
G1 X108.706 Y127.552 E25.26825
G1 X109.067 Y127.064 E25.49468
G1 X109.387 Y126.568 E25.71486
G1 X109.672 Y126.064 E25.93084
G1 X109.928 Y125.537 E26.14939
G1 X110.162 Y124.972 E26.3775
G1 X110.345 Y124.445 E26.5856
G1 X110.509 Y123.86 E26.81223
G1 X110.637 Y123.277 E27.03488
G1 X110.735 Y122.647 E27.27271
G1 X110.781 Y122.105 E27.47561
G1 X110.799 Y121.512 E27.69691
G1 X110.782 Y120.905 E27.92342
G1 X110.733 Y120.368 E28.12457
G1 X110.64 Y119.734 E28.36359
G1 X110.513 Y119.152 E28.5858
G1 X110.352 Y118.569 E28.81141
G1 X110.166 Y118.038 E29.02128
G1 X109.94 Y117.489 E29.24274
G1 X109.676 Y116.944 E29.46863
G1 X109.385 Y116.428 E29.68961
G1 X109.071 Y115.942 E29.90544
G1 X108.724 Y115.471 E30.12367
G1 X108.341 Y115.011 E30.34695
G1 X107.927 Y114.569 E30.57285
G1 X107.507 Y114.174 E30.78792
G1 X107.052 Y113.794 E31.00905
G1 X106.564 Y113.433 E31.23548
G1 X106.068 Y113.113 E31.45566
G1 X105.564 Y112.828 E31.67164
G1 X105.038 Y112.572 E31.88985
G1 X104.476 Y112.34 E32.11665
G1 X103.945 Y112.155 E32.3264
G1 X103.36 Y111.991 E32.55303
G1 X102.777 Y111.863 E32.77568
G1 X102.147 Y111.765 E33.0135
G1 X101.605 Y111.719 E33.21641
G1 X101.014 Y111.701 E33.43696
G1 X100.411 Y111.718 E33.66198
G1 X99.868 Y111.767 E33.86536
G1 X99.236 Y111.86 E34.10364
G1 X98.652 Y111.987 E34.32658
G1 X98.069 Y112.148 E34.55219
G1 X97.538 Y112.335 E34.76219
G1 X96.992 Y112.559 E34.98233
G1 X96.444 Y112.824 E35.20939
G1 X95.928 Y113.115 E35.43037
G1 X95.442 Y113.429 E35.6462
G1 X94.971 Y113.776 E35.86442
G1 X94.511 Y114.159 E36.0877
G1 X94.069 Y114.573 E36.31361
G1 X93.674 Y114.993 E36.52868
G1 X93.294 Y115.448 E36.74981
G1 X92.933 Y115.936 E36.97623
G1 X92.613 Y116.432 E37.19641
G1 X92.328 Y116.936 E37.41239
G1 X92.072 Y117.463 E37.63094
G1 X91.838 Y118.028 E37.85906
G1 X91.655 Y118.555 E38.06715
G1 X91.491 Y119.14 E38.29378
G1 X91.363 Y119.723 E38.51643
G1 X91.265 Y120.353 E38.75426
G1 X91.219 Y120.895 E38.95716
G1 X91.201 Y121.488 E39.17847
G1 X91.218 Y122.089 E39.40274
G1 X91.267 Y122.632 E39.60611
G1 X91.36 Y123.265 E39.84477
G1 X91.485 Y123.843 E40.06536
G1 X91.648 Y124.431 E40.29297
G1 X91.833 Y124.958 E40.50131
G1 X92.059 Y125.508 E40.72311
G1 X92.323 Y126.054 E40.94934
G1 X92.613 Y126.568 E41.16948
G1 X92.925 Y127.052 E41.38429
G1 X93.276 Y127.528 E41.6049
G1 X93.656 Y127.985 E41.8266
G1 X94.069 Y128.427 E42.05225
G1 X94.491 Y128.824 E42.26837
G1 X94.946 Y129.205 E42.48974
G1 X95.43 Y129.563 E42.7143
G1 X95.928 Y129.885 E42.93552
G1 X96.432 Y130.17 E43.15149
G1 X96.963 Y130.428 E43.37171
G1 X97.524 Y130.66 E43.59816
G1 X98.055 Y130.845 E43.80791
G1 X98.64 Y131.009 E44.03454
G1 X99.223 Y131.137 E44.25719
G1 X99.853 Y131.235 E44.49502
G1 X100.395 Y131.281 E44.69792
G1 X100.986 Y131.299 E44.91848
G1 X101.589 Y131.282 E45.1435
G0 F6000 X101.788 Y131.265
G1 F1500 E44.1435
G1 F600 Z1.3
G0 F6000 X98.528 Y130.208 Z1.3
;TYPE:FILL
G1 F600 Z0.3
G1 F1500 E45.29893
G1 F2400 X98.646 Y130.114 E45.3552
G1 X99.047 Y130.215 E45.50945
G1 X99.264 Y130.389 E45.61321
G1 X99.723 Y130.466 E45.78682
G1 X99.849 Y130.434 E45.83531
G1 X100.25 Y130.114 E46.02668
G1 X100.651 Y130.215 E46.18093
G1 X101.052 Y130.535 E46.3723
G1 X101.453 Y130.434 E46.52655
G1 X101.854 Y130.114 E46.71792
G1 X102.255 Y130.215 E46.87218
G1 X102.53 Y130.434 E47.00331
G1 X103.266 Y130.267 E47.28483
G1 X103.458 Y130.114 E47.37641
G1 X103.647 Y130.162 E47.44915
G1 X104.204 Y129.971 E47.6688
G1 X104.707 Y129.765 E47.87155
G1 X105.277 Y129.484 E48.10861
G1 X105.062 Y129.312 E48.21131
G1 X104.661 Y129.413 E48.36556
G1 X104.26 Y129.733 E48.55693
G1 X103.859 Y129.632 E48.71119
G1 X103.458 Y129.312 E48.90256
G1 X103.057 Y129.413 E49.05681
G1 X102.656 Y129.733 E49.24818
G1 X102.255 Y129.632 E49.40243
G1 X101.854 Y129.312 E49.5938
G1 X101.453 Y129.413 E49.74805
G1 X101.052 Y129.733 E49.93943
G1 X100.651 Y129.632 E50.09368
G1 X100.25 Y129.312 E50.28505
G1 X99.849 Y129.413 E50.4393
G1 X99.448 Y129.733 E50.63067
G1 X99.047 Y129.632 E50.78492
G1 X98.646 Y129.312 E50.97629
G1 X98.245 Y129.413 E51.13055
G1 X97.844 Y129.733 E51.32192
G1 X97.443 Y129.632 E51.47617
G1 X97.042 Y129.312 E51.66754
G1 X96.596 Y129.435 E51.84012
G1 X95.851 Y128.953 E52.17111
G1 X95.351 Y128.579 E52.40402
G1 X95.438 Y128.51 E52.44544
G1 X95.839 Y128.611 E52.59969
G1 X96.24 Y128.931 E52.79106
G1 X96.641 Y128.83 E52.94532
G1 X97.042 Y128.51 E53.13669
G1 X97.443 Y128.611 E53.29094
G1 X97.844 Y128.931 E53.48231
G1 X98.245 Y128.83 E53.63656
G1 X98.646 Y128.51 E53.82793
G1 X99.047 Y128.611 E53.98219
G1 X99.448 Y128.931 E54.17356
G1 X99.849 Y128.83 E54.32781
G1 X100.25 Y128.51 E54.51918
G1 X100.651 Y128.611 E54.67343
G1 X101.052 Y128.931 E54.8648
G1 X101.453 Y128.83 E55.01906
G1 X101.854 Y128.51 E55.21043
G1 X102.255 Y128.611 E55.36468
G1 X102.656 Y128.931 E55.55605
G1 X103.057 Y128.83 E55.7103
G1 X103.458 Y128.51 E55.90167
G1 X103.859 Y128.611 E56.05592
G1 X104.26 Y128.931 E56.2473
G1 X104.661 Y128.83 E56.40155
G1 X105.062 Y128.51 E56.59292
G1 X105.463 Y128.611 E56.74717
G1 X105.864 Y128.931 E56.93854
G1 X106.265 Y128.83 E57.09279
G1 X106.666 Y128.51 E57.28416
G1 X106.715 Y128.522 E57.30298
G1 X107.23 Y128.069 E57.55883
G1 X107.067 Y128.028 E57.62153
G1 X106.666 Y127.708 E57.8129
G1 X106.265 Y127.809 E57.96715
G1 X105.864 Y128.129 E58.15852
G1 X105.463 Y128.028 E58.31277
G1 X105.062 Y127.708 E58.50414
G1 X104.661 Y127.809 E58.65839
G1 X104.26 Y128.129 E58.84977
G1 X103.859 Y128.028 E59.00402
G1 X103.458 Y127.708 E59.19539
G1 X103.057 Y127.809 E59.34964
G1 X102.656 Y128.129 E59.54101
G1 X102.255 Y128.028 E59.69526
G1 X101.854 Y127.708 E59.88663
G1 X101.453 Y127.809 E60.04089
G1 X101.052 Y128.129 E60.23226
G1 X100.651 Y128.028 E60.38651
G1 X100.25 Y127.708 E60.57788
G1 X99.849 Y127.809 E60.73213
G1 X99.448 Y128.129 E60.9235
G1 X99.047 Y128.028 E61.07776
G1 X98.646 Y127.708 E61.26913
G1 X98.245 Y127.809 E61.42338
G1 X97.844 Y128.129 E61.61475
G1 X97.443 Y128.028 E61.769
G1 X97.042 Y127.708 E61.96037
G1 X96.641 Y127.809 E62.11462
G1 X96.24 Y128.129 E62.306
G1 X95.839 Y128.028 E62.46025
G1 X95.438 Y127.708 E62.65162
G1 X95.037 Y127.809 E62.80587
G1 X94.733 Y128.052 E62.95104
G1 X94.212 Y127.496 E63.23527
G1 X93.767 Y126.96 E63.49513
G1 X93.834 Y126.906 E63.52723
G1 X94.235 Y127.007 E63.68148
G1 X94.636 Y127.327 E63.87285
G1 X95.037 Y127.226 E64.02711
G1 X95.438 Y126.906 E64.21848
G1 X95.839 Y127.007 E64.37273
G1 X96.24 Y127.327 E64.5641
G1 X96.641 Y127.226 E64.71835
G1 X97.042 Y126.906 E64.90972
G1 X97.443 Y127.007 E65.06398
G1 X97.844 Y127.327 E65.25535
G1 X98.245 Y127.226 E65.4096
G1 X98.646 Y126.906 E65.60097
G1 X99.047 Y127.007 E65.75522
G1 X99.448 Y127.327 E65.94659
G1 X99.849 Y127.226 E66.10085
G1 X100.25 Y126.906 E66.29222
G1 X100.651 Y127.007 E66.44647
G1 X101.052 Y127.327 E66.63784
G1 X101.453 Y127.226 E66.79209
G1 X101.854 Y126.906 E66.98346
G1 X102.255 Y127.007 E67.13771
G1 X102.656 Y127.327 E67.32908
G1 X103.057 Y127.226 E67.48334
G1 X103.458 Y126.906 E67.67471
G1 X103.859 Y127.007 E67.82896
G1 X104.26 Y127.327 E68.02033
G1 X104.661 Y127.226 E68.17458
G1 X105.062 Y126.906 E68.36595
G1 X105.463 Y127.007 E68.52021
G1 X105.864 Y127.327 E68.71158
G1 X106.265 Y127.226 E68.86583
G1 X106.666 Y126.906 E69.0572
G1 X107.067 Y127.007 E69.21145
G1 X107.468 Y127.327 E69.40282
G1 X107.869 Y127.226 E69.55708
G1 X108.253 Y126.92 E69.74023
G1 X108.623 Y126.386 E69.98257
G1 X108.27 Y126.104 E70.1511
G1 X107.869 Y126.205 E70.30535
G1 X107.468 Y126.525 E70.49672
G1 X107.067 Y126.424 E70.65098
G1 X106.666 Y126.104 E70.84235
G1 X106.265 Y126.205 E70.9966
G1 X105.864 Y126.525 E71.18797
G1 X105.463 Y126.424 E71.34222
G1 X105.062 Y126.104 E71.53359
G1 X104.661 Y126.205 E71.68785
G1 X104.26 Y126.525 E71.87922
G1 X103.859 Y126.424 E72.03347
G1 X103.458 Y126.104 E72.22484
G1 X103.057 Y126.205 E72.37909
G1 X102.656 Y126.525 E72.57046
G1 X102.255 Y126.424 E72.72472
G1 X101.854 Y126.104 E72.91609
G1 X101.453 Y126.205 E73.07034
G1 X101.052 Y126.525 E73.26171
G1 X100.651 Y126.424 E73.41596
G1 X100.25 Y126.104 E73.60733
G1 X99.849 Y126.205 E73.76158
G1 X99.448 Y126.525 E73.95295
G1 X99.047 Y126.424 E74.10721
G1 X98.646 Y126.104 E74.29858
G1 X98.245 Y126.205 E74.45283
G1 X97.844 Y126.525 E74.6442
G1 X97.443 Y126.424 E74.79845
G1 X97.042 Y126.104 E74.98982
G1 X96.641 Y126.205 E75.14408
G1 X96.24 Y126.525 E75.33545
G1 X95.839 Y126.424 E75.4897
G1 X95.438 Y126.104 E75.68107
G1 X95.037 Y126.205 E75.83532
G1 X94.636 Y126.525 E76.02669
G1 X94.235 Y126.424 E76.18095
G1 X93.834 Y126.104 E76.37232
G1 X93.433 Y126.205 E76.52657
G1 X93.311 Y126.302 E76.58471
G1 X92.956 Y125.662 E76.85771
G1 X93.032 Y125.723 E76.89406
G1 X93.433 Y125.622 E77.04831
G1 X93.834 Y125.302 E77.23968
G1 X94.235 Y125.403 E77.39393
G1 X94.636 Y125.723 E77.58531
G1 X95.037 Y125.622 E77.73956
G1 X95.438 Y125.302 E77.93093
G1 X95.839 Y125.403 E78.08518
G1 X96.24 Y125.723 E78.27655
G1 X96.641 Y125.622 E78.4308
G1 X97.042 Y125.302 E78.62217
G1 X97.443 Y125.403 E78.77643
G1 X97.844 Y125.723 E78.9678
G1 X98.245 Y125.622 E79.12205
G1 X98.646 Y125.302 E79.31342
G1 X99.047 Y125.403 E79.46767
G1 X99.448 Y125.723 E79.65904
G1 X99.849 Y125.622 E79.8133
G1 X100.25 Y125.302 E80.00467
G1 X100.651 Y125.403 E80.15892
G1 X101.052 Y125.723 E80.35029
G1 X101.453 Y125.622 E80.50454
G1 X101.854 Y125.302 E80.69591
G1 X102.255 Y125.403 E80.85016
G1 X102.656 Y125.723 E81.04154
G1 X103.057 Y125.622 E81.19579
G1 X103.458 Y125.302 E81.38716
G1 X103.859 Y125.403 E81.54141
G1 X104.26 Y125.723 E81.73278
G1 X104.661 Y125.622 E81.88703
G1 X105.062 Y125.302 E82.0784
G1 X105.463 Y125.403 E82.23266
G1 X105.864 Y125.723 E82.42403
G1 X106.265 Y125.622 E82.57828
G1 X106.666 Y125.302 E82.76965
G1 X107.067 Y125.403 E82.9239
G1 X107.468 Y125.723 E83.11527
G1 X107.869 Y125.622 E83.26953
G1 X108.27 Y125.302 E83.4609
G1 X108.671 Y125.403 E83.61515
G1 X109.031 Y125.69 E83.78689
G1 X109.256 Y125.228 E83.97857
G1 X109.52 Y124.589 E84.23647
G1 X109.473 Y124.601 E84.25457
G1 X109.072 Y124.921 E84.44594
G1 X108.671 Y124.82 E84.60019
G1 X108.27 Y124.5 E84.79156
G1 X107.869 Y124.601 E84.94581
G1 X107.468 Y124.921 E85.13718
G1 X107.067 Y124.82 E85.29144
G1 X106.666 Y124.5 E85.48281
G1 X106.265 Y124.601 E85.63706
G1 X105.864 Y124.921 E85.82843
G1 X105.463 Y124.82 E85.98268
G1 X105.062 Y124.5 E86.17405
G1 X104.661 Y124.601 E86.32831
G1 X104.26 Y124.921 E86.51968
G1 X103.859 Y124.82 E86.67393
G1 X103.458 Y124.5 E86.8653
G1 X103.057 Y124.601 E87.01955
G1 X102.656 Y124.921 E87.21092
G1 X102.255 Y124.82 E87.36518
G1 X101.854 Y124.5 E87.55655
G1 X101.453 Y124.601 E87.7108
G1 X101.052 Y124.921 E87.90217
G1 X100.651 Y124.82 E88.05642
G1 X100.25 Y124.5 E88.24779
G1 X99.849 Y124.601 E88.40204
G1 X99.448 Y124.921 E88.59342
G1 X99.047 Y124.82 E88.74767
G1 X98.646 Y124.5 E88.93904
G1 X98.245 Y124.601 E89.09329
G1 X97.844 Y124.921 E89.28466
G1 X97.443 Y124.82 E89.43891
G1 X97.042 Y124.5 E89.63028
G1 X96.641 Y124.601 E89.78454
G1 X96.24 Y124.921 E89.97591
G1 X95.839 Y124.82 E90.13016
G1 X95.438 Y124.5 E90.32153
G1 X95.037 Y124.601 E90.47578
G1 X94.636 Y124.921 E90.66715
G1 X94.235 Y124.82 E90.82141
G1 X93.834 Y124.5 E91.01278
G1 X93.433 Y124.601 E91.16703
G1 X93.032 Y124.921 E91.3584
G1 X92.631 Y124.82 E91.51265
G1 X92.55 Y124.755 E91.55139
G1 X92.353 Y124.203 E91.77002
G1 X92.216 Y123.709 E91.96125
G1 X92.631 Y123.799 E92.11965
G1 X93.032 Y124.119 E92.31102
G1 X93.433 Y124.018 E92.46527
G1 X93.834 Y123.698 E92.65664
G1 X94.235 Y123.799 E92.81089
G1 X94.636 Y124.119 E93.00226
G1 X95.037 Y124.018 E93.15652
G1 X95.438 Y123.698 E93.34789
G1 X95.839 Y123.799 E93.50214
G1 X96.24 Y124.119 E93.69351
G1 X96.641 Y124.018 E93.84776
G1 X97.042 Y123.698 E94.03913
G1 X97.443 Y123.799 E94.19338
G1 X97.844 Y124.119 E94.38476
G1 X98.245 Y124.018 E94.53901
G1 X98.646 Y123.698 E94.73038
G1 X99.047 Y123.799 E94.88463
G1 X99.448 Y124.119 E95.076
G1 X99.849 Y124.018 E95.23025
G1 X100.25 Y123.698 E95.42162
G1 X100.651 Y123.799 E95.57588
