;FLAVOR:Marlin
;TIME:185
;Filament used: 1.60397m, 0m
;Layer height: 0.3
;MINX:91.201
;MINY:111.701
;MINZ:0.3
;MAXX:110.799
;MAXY:131.299
;MAXZ:7
;Generated with Cura_SteamEngine 5.0.1
T0
M140 S40
M105
M190 S40
M104 S200
M105
M109 S200
M82 ;absolute extrusion mode
M900 K0.020;
G28 ; home all axes
G1 Z5 F5000 ; lift nozzle
G1 X-45 Y70 F2500; go to glycerin roller;
G92 E0
G1 X-23 F5000; park to start
G92 E0; Extrude a small amount to clear nozzle
G1 E20 F4000
G4 P2000
G92 E0


G92 E0
G1 F1500 E-1
;LAYER_COUNT:20
;LAYER:0
M107
M204 S500
G1 F600 Z1.3
;MESH:Sajad.stl
G0 F6000 X101.565 Y130.882 Z1.3
;TYPE:WALL-INNER
G1 F600 Z0.3
G1 F1500 E0.15542
G1 F1800 X102.085 Y130.835 E0.35019
G1 X102.692 Y130.746 E0.57903
G1 X103.252 Y130.625 E0.79274
G1 X103.811 Y130.47 E1.00913
G1 X104.32 Y130.291 E1.21039
G1 X104.845 Y130.075 E1.42215
G1 X105.37 Y129.821 E1.6397
G1 X105.865 Y129.543 E1.85148
G1 X106.33 Y129.242 E2.0581
G1 X106.782 Y128.909 E2.26752
G1 X107.224 Y128.541 E2.48206
G1 X107.648 Y128.144 E2.69873
G1 X108.026 Y127.741 E2.90483
G1 X108.392 Y127.304 E3.11746
G1 X108.738 Y126.836 E3.33456
G1 X109.045 Y126.361 E3.54553
G1 X109.318 Y125.878 E3.75249
G1 X109.563 Y125.373 E3.96186
G1 X109.788 Y124.83 E4.18111
G1 X109.963 Y124.325 E4.38048
G1 X110.121 Y123.763 E4.59824
G1 X110.243 Y123.203 E4.81203
G1 X110.337 Y122.599 E5.04005
G1 X110.381 Y122.082 E5.2336
G1 X110.399 Y121.512 E5.44632
G1 X110.382 Y120.929 E5.66389
G1 X110.335 Y120.415 E5.85642
G1 X110.246 Y119.806 E6.086
G1 X110.125 Y119.248 E6.29898
G1 X109.97 Y118.689 E6.51537
G1 X109.792 Y118.18 E6.71651
G1 X109.574 Y117.653 E6.92925
G1 X109.322 Y117.13 E7.1458
G1 X109.043 Y116.635 E7.35775
G1 X108.742 Y116.17 E7.56438
G1 X108.409 Y115.718 E7.7738
G1 X108.041 Y115.276 E7.98834
G1 X107.644 Y114.852 E8.205
G1 X107.241 Y114.474 E8.41111
G1 X106.804 Y114.108 E8.62374
G1 X106.336 Y113.762 E8.84084
G1 X105.861 Y113.455 E9.05181
G1 X105.378 Y113.182 E9.25877
G1 X104.874 Y112.937 E9.46781
G1 X104.334 Y112.714 E9.68574
G1 X103.825 Y112.537 E9.88676
G1 X103.263 Y112.379 E10.10452
G1 X102.703 Y112.257 E10.31831
G1 X102.099 Y112.163 E10.54633
G1 X101.582 Y112.119 E10.73987
G1 X101.014 Y112.101 E10.95186
G1 X100.435 Y112.118 E11.16793
G1 X99.915 Y112.165 E11.36269
G1 X99.308 Y112.254 E11.59153
G1 X98.748 Y112.375 E11.80524
G1 X98.189 Y112.53 E12.02163
G1 X97.68 Y112.709 E12.22289
G1 X97.155 Y112.924 E12.43451
G1 X96.63 Y113.179 E12.65223
G1 X96.135 Y113.457 E12.864
G1 X95.67 Y113.758 E13.07062
G1 X95.218 Y114.091 E13.28004
G1 X94.776 Y114.459 E13.49458
G1 X94.352 Y114.856 E13.71125
G1 X93.974 Y115.259 E13.91736
G1 X93.608 Y115.696 E14.12998
G1 X93.262 Y116.164 E14.34709
G1 X92.955 Y116.639 E14.55806
G1 X92.682 Y117.122 E14.76501
G1 X92.437 Y117.627 E14.97439
G1 X92.212 Y118.17 E15.19364
G1 X92.037 Y118.675 E15.393
G1 X91.879 Y119.237 E15.61077
G1 X91.757 Y119.797 E15.82456
G1 X91.663 Y120.401 E16.05257
G1 X91.619 Y120.918 E16.24612
G1 X91.601 Y121.488 E16.45885
G1 X91.618 Y122.065 E16.67417
G1 X91.665 Y122.585 E16.86893
G1 X91.754 Y123.194 E17.09851
G1 X91.873 Y123.747 E17.30952
G1 X92.03 Y124.311 E17.5279
G1 X92.207 Y124.816 E17.72751
G1 X92.424 Y125.344 E17.94045
G1 X92.678 Y125.868 E18.15766
G1 X92.955 Y126.361 E18.3686
G1 X93.255 Y126.825 E18.57471
G1 X93.591 Y127.282 E18.78629
G1 X93.956 Y127.72 E18.99897
G1 X94.352 Y128.144 E19.21538
G1 X94.757 Y128.525 E19.4228
G1 X95.194 Y128.891 E19.63543
G1 X95.658 Y129.234 E19.85067
G1 X96.136 Y129.543 E20.06298
G1 X96.618 Y129.816 E20.26961
G1 X97.127 Y130.063 E20.48065
G1 X97.666 Y130.286 E20.69824
G1 X98.175 Y130.463 E20.89926
G1 X98.737 Y130.621 E21.11702
G1 X99.297 Y130.743 E21.33081
G1 X99.901 Y130.837 E21.55883
G1 X100.418 Y130.881 E21.75238
G1 X100.986 Y130.899 E21.96436
G1 X101.565 Y130.882 E22.18043
G0 F6000 X101.589 Y131.282
;TYPE:WALL-OUTER
G1 F1800 X102.132 Y131.233 E22.3838
G1 X102.764 Y131.14 E22.62209
G1 X103.348 Y131.013 E22.84502
G1 X103.931 Y130.852 E23.07064
G1 X104.462 Y130.665 E23.28063
G1 X105.008 Y130.441 E23.50077
G1 X105.556 Y130.176 E23.72784
G1 X106.072 Y129.885 E23.94881
G1 X106.558 Y129.571 E24.16465
G1 X107.029 Y129.224 E24.38287
G1 X107.489 Y128.841 E24.60615
G1 X107.931 Y128.427 E24.83205
G1 X108.326 Y128.007 E25.04712
G1 X108.706 Y127.552 E25.26825
G1 X109.067 Y127.064 E25.49468
G1 X109.387 Y126.568 E25.71486
G1 X109.672 Y126.064 E25.93084
G1 X109.928 Y125.537 E26.14939
G1 X110.162 Y124.972 E26.3775
G1 X110.345 Y124.445 E26.5856
G1 X110.509 Y123.86 E26.81223
G1 X110.637 Y123.277 E27.03488
G1 X110.735 Y122.647 E27.27271
G1 X110.781 Y122.105 E27.47561
G1 X110.799 Y121.512 E27.69691
G1 X110.782 Y120.905 E27.92342
G1 X110.733 Y120.368 E28.12457
G1 X110.64 Y119.734 E28.36359
G1 X110.513 Y119.152 E28.5858
G1 X110.352 Y118.569 E28.81141
G1 X110.166 Y118.038 E29.02128
G1 X109.94 Y117.489 E29.24274
G1 X109.676 Y116.944 E29.46863
G1 X109.385 Y116.428 E29.68961
G1 X109.071 Y115.942 E29.90544
G1 X108.724 Y115.471 E30.12367
G1 X108.341 Y115.011 E30.34695
G1 X107.927 Y114.569 E30.57285
G1 X107.507 Y114.174 E30.78792
G1 X107.052 Y113.794 E31.00905
G1 X106.564 Y113.433 E31.23548
G1 X106.068 Y113.113 E31.45566
G1 X105.564 Y112.828 E31.67164
G1 X105.038 Y112.572 E31.88985
G1 X104.476 Y112.34 E32.11665
G1 X103.945 Y112.155 E32.3264
G1 X103.36 Y111.991 E32.55303
G1 X102.777 Y111.863 E32.77568
G1 X102.147 Y111.765 E33.0135
G1 X101.605 Y111.719 E33.21641
G1 X101.014 Y111.701 E33.43696
G1 X100.411 Y111.718 E33.66198
G1 X99.868 Y111.767 E33.86536
G1 X99.236 Y111.86 E34.10364
G1 X98.652 Y111.987 E34.32658
G1 X98.069 Y112.148 E34.55219
G1 X97.538 Y112.335 E34.76219
G1 X96.992 Y112.559 E34.98233
G1 X96.444 Y112.824 E35.20939
G1 X95.928 Y113.115 E35.43037
G1 X95.442 Y113.429 E35.6462
G1 X94.971 Y113.776 E35.86442
G1 X94.511 Y114.159 E36.0877
G1 X94.069 Y114.573 E36.31361
G1 X93.674 Y114.993 E36.52868
G1 X93.294 Y115.448 E36.74981
G1 X92.933 Y115.936 E36.97623
G1 X92.613 Y116.432 E37.19641
G1 X92.328 Y116.936 E37.41239
G1 X92.072 Y117.463 E37.63094
G1 X91.838 Y118.028 E37.85906
G1 X91.655 Y118.555 E38.06715
G1 X91.491 Y119.14 E38.29378
G1 X91.363 Y119.723 E38.51643
G1 X91.265 Y120.353 E38.75426
G1 X91.219 Y120.895 E38.95716
G1 X91.201 Y121.488 E39.17847
G1 X91.218 Y122.089 E39.40274
G1 X91.267 Y122.632 E39.60611
G1 X91.36 Y123.265 E39.84477
G1 X91.485 Y123.843 E40.06536
G1 X91.648 Y124.431 E40.29297
G1 X91.833 Y124.958 E40.50131
G1 X92.059 Y125.508 E40.72311
G1 X92.323 Y126.054 E40.94934
G1 X92.613 Y126.568 E41.16948
G1 X92.925 Y127.052 E41.38429
G1 X93.276 Y127.528 E41.6049
G1 X93.656 Y127.985 E41.8266
G1 X94.069 Y128.427 E42.05225
G1 X94.491 Y128.824 E42.26837
G1 X94.946 Y129.205 E42.48974
G1 X95.43 Y129.563 E42.7143
G1 X95.928 Y129.885 E42.93552
G1 X96.432 Y130.17 E43.15149
G1 X96.963 Y130.428 E43.37171
G1 X97.524 Y130.66 E43.59816
G1 X98.055 Y130.845 E43.80791
G1 X98.64 Y131.009 E44.03454
G1 X99.223 Y131.137 E44.25719
G1 X99.853 Y131.235 E44.49502
G1 X100.395 Y131.281 E44.69792
G1 X100.986 Y131.299 E44.91848
G1 X101.589 Y131.282 E45.1435
G0 F6000 X101.788 Y131.265
G1 F1500 E44.1435
G1 F600 Z1.3
G0 F6000 X91.951 Y121.178 Z1.3
;TYPE:FILL
G1 F600 Z0.3
G1 F1500 E45.29893
G1 F2400 X92.287 Y121.604 E45.50131
G1 X92.578 Y122.206 E45.75073
G1 X92.723 Y122.808 E45.98171
G1 X92.747 Y123.41 E46.20644
G1 X92.637 Y124.012 E46.43472
G1 X92.422 Y124.444 E46.61472
G1 X92.732 Y125.2 E46.91951
G1 X92.981 Y125.714 E47.13255
G1 X93.244 Y126.181 E47.33248
G1 X93.531 Y126.626 E47.53
G1 X93.856 Y127.067 E47.73435
G1 X94.212 Y127.496 E47.9423
G1 X94.594 Y127.904 E48.15078
G1 X94.987 Y128.274 E48.35213
G1 X95.458 Y128.663 E48.57999
G1 X95.247 Y128.226 E48.76101
G1 X95.102 Y127.624 E48.99199
G1 X95.078 Y127.022 E49.21673
G1 X95.188 Y126.42 E49.445
G1 X95.487 Y125.818 E49.69573
G1 X96.015 Y125.216 E49.99442
G1 X96.628 Y124.614 E50.31491
G1 X97.103 Y124.012 E50.60095
G1 X97.394 Y123.41 E50.85037
G1 X97.539 Y122.808 E51.08135
G1 X97.563 Y122.206 E51.30609
G1 X97.453 Y121.604 E51.53436
G1 X97.154 Y121.002 E51.78509
G1 X96.626 Y120.4 E52.08379
G1 X96.013 Y119.798 E52.40427
G1 X95.538 Y119.196 E52.69032
G1 X95.247 Y118.594 E52.93973
G1 X95.102 Y117.992 E53.17071
G1 X95.078 Y117.39 E53.39545
G1 X95.188 Y116.788 E53.62372
G1 X95.487 Y116.186 E53.87445
G1 X96.015 Y115.584 E54.17315
G1 X96.628 Y114.982 E54.49363
G1 X97.103 Y114.38 E54.77968
G1 X97.394 Y113.778 E55.02909
G1 X97.554 Y113.114 E55.28387
G1 X98.292 Y112.855 E55.57562
G1 X98.835 Y112.705 E55.78575
G1 X99.362 Y112.59 E55.98696
G1 X100.212 Y112.464 E56.30749
G1 X101.014 Y112.441 E56.60678
G1 X101.855 Y112.468 E56.92065
G1 X102.197 Y112.521 E57.04974
G1 X102.355 Y113.176 E57.30108
G1 X102.379 Y113.778 E57.52581
G1 X102.269 Y114.38 E57.75409
G1 X101.97 Y114.982 E58.00482
G1 X101.442 Y115.584 E58.30351
G1 X100.829 Y116.186 E58.624
G1 X100.354 Y116.788 E58.91004
G1 X100.063 Y117.39 E59.15946
G1 X99.918 Y117.992 E59.39044
G1 X99.894 Y118.594 E59.61517
G1 X100.004 Y119.196 E59.84345
G1 X100.303 Y119.798 E60.09418
G1 X100.831 Y120.4 E60.39287
G1 X101.444 Y121.002 E60.71336
G1 X101.919 Y121.604 E60.9994
G1 X102.21 Y122.206 E61.24882
G1 X102.355 Y122.808 E61.4798
G1 X102.379 Y123.41 E61.70454
G1 X102.269 Y124.012 E61.93281
G1 X101.97 Y124.614 E62.18354
G1 X101.442 Y125.216 E62.48223
G1 X100.829 Y125.818 E62.80272
G1 X100.354 Y126.42 E63.08876
G1 X100.063 Y127.022 E63.33818
G1 X99.918 Y127.624 E63.56916
G1 X99.894 Y128.226 E63.7939
G1 X100.004 Y128.828 E64.02217
G1 X100.303 Y129.43 E64.2729
G1 X100.831 Y130.032 E64.5716
G1 X101.357 Y130.548 E64.84645
G1 X101.788 Y130.536 E65.00728
G1 X102.638 Y130.41 E65.32782
G1 X103.165 Y130.295 E65.52902
G1 X103.708 Y130.145 E65.73916
G1 X104.204 Y129.971 E65.93523
G1 X104.707 Y129.765 E66.13798
G1 X105.219 Y129.517 E66.3502
G1 X105.561 Y129.323 E66.49686
G1 X105.17 Y128.828 E66.73216
G1 X104.879 Y128.226 E66.98158
G1 X104.734 Y127.624 E67.21256
G1 X104.71 Y127.022 E67.4373
G1 X104.82 Y126.42 E67.66557
G1 X105.119 Y125.818 E67.9163
G1 X105.647 Y125.216 E68.215
G1 X106.26 Y124.614 E68.53548
G1 X106.735 Y124.012 E68.82152
G1 X107.026 Y123.41 E69.07094
G1 X107.171 Y122.808 E69.30192
G1 X107.195 Y122.206 E69.52666
G1 X107.085 Y121.604 E69.75493
G1 X106.786 Y121.002 E70.00566
G1 X106.258 Y120.4 E70.30436
G1 X105.645 Y119.798 E70.62484
G1 X105.17 Y119.196 E70.91089
G1 X104.879 Y118.594 E71.1603
G1 X104.734 Y117.992 E71.39128
G1 X104.71 Y117.39 E71.61602
G1 X104.82 Y116.788 E71.84429
G1 X105.119 Y116.186 E72.09503
G1 X105.647 Y115.584 E72.39372
G1 X106.26 Y114.982 E72.7142
G1 X106.681 Y114.449 E72.96756
G1 X107.021 Y114.732 E73.13258
G1 X107.398 Y115.088 E73.32599
G1 X107.782 Y115.496 E73.53499
G1 X108.137 Y115.923 E73.74213
G1 X108.458 Y116.358 E73.94379
G1 X108.755 Y116.817 E74.14772
G1 X109.017 Y117.281 E74.34649
G1 X109.262 Y117.785 E74.55553
G1 X109.532 Y118.442 E74.82049
G1 X109.526 Y118.594 E74.87723
G1 X109.636 Y119.196 E75.10551
G1 X109.867 Y119.661 E75.29918
G1 F1500 E74.29918
G1 F600 Z1.3
;MESH:NONMESH
G0 F6000 X101.565 Y130.882 Z1.3
;TIME_ELAPSED:12.087730
;LAYER:1
;MESH:Sajad.stl
G0 X101.565 Y130.882 Z1.6
;TYPE:WALL-INNER
G1 F600 Z0.6
G1 F1500 E75.45461
G1 F1800 X102.085 Y130.835 E75.64937
G1 X102.692 Y130.746 E75.87821
G1 X103.252 Y130.625 E76.09193
G1 X103.825 Y130.466 E76.31374
G1 X104.333 Y130.287 E76.51466
G1 X104.861 Y130.069 E76.72774
G1 X105.37 Y129.823 E76.93862
G1 X105.865 Y129.543 E77.15075
G1 X106.342 Y129.234 E77.36275
G1 X106.794 Y128.9 E77.5724
G1 X107.234 Y128.532 E77.78636
G1 X107.648 Y128.144 E77.99801
G1 X108.036 Y127.731 E78.20939
G1 X108.4 Y127.294 E78.42154
G1 X108.738 Y126.836 E78.63387
G1 X109.045 Y126.361 E78.84484
G1 X109.325 Y125.866 E79.05698
G1 X109.569 Y125.361 E79.26619
G1 X109.788 Y124.831 E79.4801
G1 X109.963 Y124.325 E79.67982
G1 X110.127 Y123.745 E79.90465
G1 X110.246 Y123.192 E80.11566
G1 X110.339 Y122.585 E80.34472
G1 X110.382 Y122.067 E80.53861
G1 X110.399 Y121.498 E80.75095
G1 X110.382 Y120.93 E80.96292
G1 X110.335 Y120.415 E81.15583
G1 X110.246 Y119.806 E81.38541
G1 X110.125 Y119.248 E81.59839
G1 X109.966 Y118.675 E81.82021
G1 X109.787 Y118.167 E82.02112
G1 X109.569 Y117.639 E82.2342
G1 X109.323 Y117.13 E82.44508
G1 X109.043 Y116.635 E82.65722
G1 X108.734 Y116.158 E82.86922
G1 X108.4 Y115.706 E83.07886
G1 X108.032 Y115.266 E83.29283
G1 X107.644 Y114.852 E83.50448
G1 X107.231 Y114.464 E83.71586
G1 X106.794 Y114.1 E83.92801
G1 X106.336 Y113.762 E84.14034
G1 X105.861 Y113.455 E84.35131
G1 X105.366 Y113.175 E84.56344
G1 X104.861 Y112.931 E84.77266
G1 X104.335 Y112.714 E84.9849
G1 X103.825 Y112.537 E85.18628
G1 X103.25 Y112.375 E85.40911
G1 X102.69 Y112.254 E85.62282
G1 X102.085 Y112.161 E85.85115
G1 X101.567 Y112.118 E86.04504
G1 X101 Y112.101 E86.25664
G1 X100.435 Y112.118 E86.46749
G1 X99.915 Y112.165 E86.66225
G1 X99.308 Y112.254 E86.89109
G1 X98.748 Y112.375 E87.1048
G1 X98.175 Y112.534 E87.32662
G1 X97.667 Y112.713 E87.52753
G1 X97.139 Y112.931 E87.74062
G1 X96.63 Y113.177 E87.95149
G1 X96.135 Y113.457 E88.16363
G1 X95.658 Y113.766 E88.37563
G1 X95.206 Y114.1 E88.58528
G1 X94.766 Y114.468 E88.79924
G1 X94.352 Y114.856 E89.01089
G1 X93.964 Y115.269 E89.22227
G1 X93.6 Y115.706 E89.43442
G1 X93.262 Y116.164 E89.64675
G1 X92.955 Y116.639 E89.85772
G1 X92.675 Y117.134 E90.06986
G1 X92.431 Y117.639 E90.27907
G1 X92.212 Y118.169 E90.49298
G1 X92.037 Y118.675 E90.6927
G1 X91.873 Y119.255 E90.91753
G1 X91.754 Y119.808 E91.12854
G1 X91.661 Y120.415 E91.3576
G1 X91.618 Y120.933 E91.55149
G1 X91.601 Y121.501 E91.76346
G1 X91.618 Y122.065 E91.97394
G1 X91.665 Y122.585 E92.1687
G1 X91.754 Y123.194 E92.39828
G1 X91.873 Y123.747 E92.60928
G1 X92.034 Y124.325 E92.83309
G1 X92.211 Y124.829 E93.03235
G1 X92.431 Y125.361 E93.2471
G1 X92.675 Y125.866 E93.45631
G1 X92.955 Y126.361 E93.66845
G1 X93.262 Y126.836 E93.87942
G1 X93.6 Y127.294 E94.09175
G1 X93.964 Y127.731 E94.3039
G1 X94.352 Y128.144 E94.51528
G1 X94.766 Y128.532 E94.72693
G1 X95.206 Y128.9 E94.94089
G1 X95.658 Y129.234 E95.15053
G1 X96.136 Y129.543 E95.36285
G1 X96.63 Y129.823 E95.57466
G1 X97.139 Y130.069 E95.78554
G1 X97.665 Y130.286 E95.99779
G1 X98.175 Y130.463 E96.19916
G1 X98.75 Y130.625 E96.422
G1 X99.31 Y130.746 E96.63571
G1 X99.915 Y130.839 E96.86404
G1 X100.433 Y130.882 E97.05793
G1 X101 Y130.899 E97.26952
G1 X101.565 Y130.882 E97.48037
G0 F6000 X101.589 Y131.282
;TYPE:WALL-OUTER
G1 F1800 X102.132 Y131.233 E97.68375
G1 X102.764 Y131.14 E97.92203
G1 X103.348 Y131.013 E98.14497
G1 X103.945 Y130.848 E98.37601
G1 X104.476 Y130.661 E98.58601
G1 X105.025 Y130.434 E98.80761
G1 X105.556 Y130.177 E99.02766
G1 X106.072 Y129.885 E99.24882
G1 X106.57 Y129.563 E99.47004
G1 X107.041 Y129.215 E99.68848
G1 X107.5 Y128.832 E99.91147
G1 X107.931 Y128.427 E100.13209
G1 X108.336 Y127.996 E100.3527
G1 X108.715 Y127.541 E100.57359
G1 X109.067 Y127.064 E100.79473
G1 X109.387 Y126.568 E101.01491
G1 X109.679 Y126.052 E101.23607
G1 X109.934 Y125.525 E101.45445
G1 X110.162 Y124.973 E101.67723
G1 X110.345 Y124.445 E101.88568
G1 X110.515 Y123.842 E102.11938
G1 X110.64 Y123.264 E102.33997
G1 X110.737 Y122.632 E102.57848
G1 X110.782 Y122.089 E102.78172
G1 X110.799 Y121.498 E103.00227
G1 X110.782 Y120.906 E103.22318
G1 X110.733 Y120.368 E103.4247
G1 X110.64 Y119.734 E103.66372
G1 X110.513 Y119.152 E103.88593
G1 X110.348 Y118.555 E104.11697
G1 X110.161 Y118.024 E104.32697
G1 X109.934 Y117.475 E104.54857
G1 X109.677 Y116.944 E104.76863
G1 X109.385 Y116.428 E104.98979
G1 X109.063 Y115.93 E105.211
G1 X108.715 Y115.459 E105.42944
G1 X108.332 Y115 E105.65244
G1 X107.927 Y114.569 E105.87305
G1 X107.496 Y114.164 E106.09366
G1 X107.041 Y113.785 E106.31455
G1 X106.564 Y113.433 E106.53569
G1 X106.068 Y113.113 E106.75587
G1 X105.552 Y112.821 E106.97703
G1 X105.025 Y112.566 E107.19541
G1 X104.477 Y112.34 E107.41653
G1 X103.945 Y112.155 E107.62663
G1 X103.347 Y111.987 E107.85833
G1 X102.763 Y111.86 E108.08127
G1 X102.132 Y111.763 E108.31941
G1 X101.589 Y111.718 E108.52265
G1 X101 Y111.701 E108.74245
G1 X100.411 Y111.718 E108.96225
G1 X99.868 Y111.767 E109.16562
G1 X99.236 Y111.86 E109.40391
G1 X98.652 Y111.987 E109.62685
G1 X98.055 Y112.152 E109.85789
G1 X97.524 Y112.339 E110.06789
