;FLAVOR:Marlin
;TIME:426
;Filament used: 4.02375m, 0m
;Layer height: 0.3
;MINX:91.201
;MINY:111.701
;MINZ:0.3
;MAXX:110.799
;MAXY:131.299
;MAXZ:7
;Generated with Cura_SteamEngine 5.0.1
T0
M140 S40
M105
M190 S40
M104 S200
M105
M109 S200
M82 ;absolute extrusion mode
M900 K0.020;
G28 ; home all axes
G1 Z5 F5000 ; lift nozzle
G1 X-45 Y70 F2500; go to glycerin roller;
G92 E0
G1 X-23 F5000; park to start
G92 E0; Extrude a small amount to clear nozzle
G1 E20 F4000
G4 P2000
G92 E0


G92 E0
G1 F1500 E-1
;LAYER_COUNT:20
;LAYER:0
M107
M204 S500
G1 F600 Z1.3
;MESH:Sajad.stl
G0 F6000 X101.565 Y130.882 Z1.3
;TYPE:WALL-INNER
G1 F600 Z0.3
G1 F1500 E0.15542
G1 F1800 X102.085 Y130.835 E0.35019
G1 X102.692 Y130.746 E0.57903
G1 X103.252 Y130.625 E0.79274
G1 X103.811 Y130.47 E1.00913
G1 X104.32 Y130.291 E1.21039
G1 X104.845 Y130.075 E1.42215
G1 X105.37 Y129.821 E1.6397
G1 X105.865 Y129.543 E1.85148
G1 X106.33 Y129.242 E2.0581
G1 X106.782 Y128.909 E2.26752
G1 X107.224 Y128.541 E2.48206
G1 X107.648 Y128.144 E2.69873
G1 X108.026 Y127.741 E2.90483
G1 X108.392 Y127.304 E3.11746
G1 X108.738 Y126.836 E3.33456
G1 X109.045 Y126.361 E3.54553
G1 X109.318 Y125.878 E3.75249
G1 X109.563 Y125.373 E3.96186
G1 X109.788 Y124.83 E4.18111
G1 X109.963 Y124.325 E4.38048
G1 X110.121 Y123.763 E4.59824
G1 X110.243 Y123.203 E4.81203
G1 X110.337 Y122.599 E5.04005
G1 X110.381 Y122.082 E5.2336
G1 X110.399 Y121.512 E5.44632
G1 X110.382 Y120.929 E5.66389
G1 X110.335 Y120.415 E5.85642
G1 X110.246 Y119.806 E6.086
G1 X110.125 Y119.248 E6.29898
G1 X109.97 Y118.689 E6.51537
G1 X109.792 Y118.18 E6.71651
G1 X109.574 Y117.653 E6.92925
G1 X109.322 Y117.13 E7.1458
G1 X109.043 Y116.635 E7.35775
G1 X108.742 Y116.17 E7.56438
G1 X108.409 Y115.718 E7.7738
G1 X108.041 Y115.276 E7.98834
G1 X107.644 Y114.852 E8.205
G1 X107.241 Y114.474 E8.41111
G1 X106.804 Y114.108 E8.62374
G1 X106.336 Y113.762 E8.84084
G1 X105.861 Y113.455 E9.05181
G1 X105.378 Y113.182 E9.25877
G1 X104.874 Y112.937 E9.46781
G1 X104.334 Y112.714 E9.68574
G1 X103.825 Y112.537 E9.88676
G1 X103.263 Y112.379 E10.10452
G1 X102.703 Y112.257 E10.31831
G1 X102.099 Y112.163 E10.54633
G1 X101.582 Y112.119 E10.73987
G1 X101.014 Y112.101 E10.95186
G1 X100.435 Y112.118 E11.16793
G1 X99.915 Y112.165 E11.36269
G1 X99.308 Y112.254 E11.59153
G1 X98.748 Y112.375 E11.80524
G1 X98.189 Y112.53 E12.02163
G1 X97.68 Y112.709 E12.22289
G1 X97.155 Y112.924 E12.43451
G1 X96.63 Y113.179 E12.65223
G1 X96.135 Y113.457 E12.864
G1 X95.67 Y113.758 E13.07062
G1 X95.218 Y114.091 E13.28004
G1 X94.776 Y114.459 E13.49458
G1 X94.352 Y114.856 E13.71125
G1 X93.974 Y115.259 E13.91736
G1 X93.608 Y115.696 E14.12998
G1 X93.262 Y116.164 E14.34709
G1 X92.955 Y116.639 E14.55806
G1 X92.682 Y117.122 E14.76501
G1 X92.437 Y117.627 E14.97439
G1 X92.212 Y118.17 E15.19364
G1 X92.037 Y118.675 E15.393
G1 X91.879 Y119.237 E15.61077
G1 X91.757 Y119.797 E15.82456
G1 X91.663 Y120.401 E16.05257
G1 X91.619 Y120.918 E16.24612
G1 X91.601 Y121.488 E16.45885
G1 X91.618 Y122.065 E16.67417
G1 X91.665 Y122.585 E16.86893
G1 X91.754 Y123.194 E17.09851
G1 X91.873 Y123.747 E17.30952
G1 X92.03 Y124.311 E17.5279
G1 X92.207 Y124.816 E17.72751
G1 X92.424 Y125.344 E17.94045
G1 X92.678 Y125.868 E18.15766
G1 X92.955 Y126.361 E18.3686
G1 X93.255 Y126.825 E18.57471
G1 X93.591 Y127.282 E18.78629
G1 X93.956 Y127.72 E18.99897
G1 X94.352 Y128.144 E19.21538
G1 X94.757 Y128.525 E19.4228
G1 X95.194 Y128.891 E19.63543
G1 X95.658 Y129.234 E19.85067
G1 X96.136 Y129.543 E20.06298
G1 X96.618 Y129.816 E20.26961
G1 X97.127 Y130.063 E20.48065
G1 X97.666 Y130.286 E20.69824
G1 X98.175 Y130.463 E20.89926
G1 X98.737 Y130.621 E21.11702
G1 X99.297 Y130.743 E21.33081
G1 X99.901 Y130.837 E21.55883
G1 X100.418 Y130.881 E21.75238
G1 X100.986 Y130.899 E21.96436
G1 X101.565 Y130.882 E22.18043
G0 F6000 X101.589 Y131.282
;TYPE:WALL-OUTER
G1 F1800 X102.132 Y131.233 E22.3838
G1 X102.764 Y131.14 E22.62209
G1 X103.348 Y131.013 E22.84502
G1 X103.931 Y130.852 E23.07064
G1 X104.462 Y130.665 E23.28063
G1 X105.008 Y130.441 E23.50077
G1 X105.556 Y130.176 E23.72784
G1 X106.072 Y129.885 E23.94881
G1 X106.558 Y129.571 E24.16465
G1 X107.029 Y129.224 E24.38287
G1 X107.489 Y128.841 E24.60615
G1 X107.931 Y128.427 E24.83205
G1 X108.326 Y128.007 E25.04712
G1 X108.706 Y127.552 E25.26825
G1 X109.067 Y127.064 E25.49468
G1 X109.387 Y126.568 E25.71486
G1 X109.672 Y126.064 E25.93084
G1 X109.928 Y125.537 E26.14939
G1 X110.162 Y124.972 E26.3775
G1 X110.345 Y124.445 E26.5856
G1 X110.509 Y123.86 E26.81223
G1 X110.637 Y123.277 E27.03488
G1 X110.735 Y122.647 E27.27271
G1 X110.781 Y122.105 E27.47561
G1 X110.799 Y121.512 E27.69691
G1 X110.782 Y120.905 E27.92342
G1 X110.733 Y120.368 E28.12457
G1 X110.64 Y119.734 E28.36359
G1 X110.513 Y119.152 E28.5858
G1 X110.352 Y118.569 E28.81141
G1 X110.166 Y118.038 E29.02128
G1 X109.94 Y117.489 E29.24274
G1 X109.676 Y116.944 E29.46863
G1 X109.385 Y116.428 E29.68961
G1 X109.071 Y115.942 E29.90544
G1 X108.724 Y115.471 E30.12367
G1 X108.341 Y115.011 E30.34695
G1 X107.927 Y114.569 E30.57285
G1 X107.507 Y114.174 E30.78792
G1 X107.052 Y113.794 E31.00905
G1 X106.564 Y113.433 E31.23548
G1 X106.068 Y113.113 E31.45566
G1 X105.564 Y112.828 E31.67164
G1 X105.038 Y112.572 E31.88985
G1 X104.476 Y112.34 E32.11665
G1 X103.945 Y112.155 E32.3264
G1 X103.36 Y111.991 E32.55303
G1 X102.777 Y111.863 E32.77568
G1 X102.147 Y111.765 E33.0135
G1 X101.605 Y111.719 E33.21641
G1 X101.014 Y111.701 E33.43696
G1 X100.411 Y111.718 E33.66198
G1 X99.868 Y111.767 E33.86536
G1 X99.236 Y111.86 E34.10364
G1 X98.652 Y111.987 E34.32658
G1 X98.069 Y112.148 E34.55219
G1 X97.538 Y112.335 E34.76219
G1 X96.992 Y112.559 E34.98233
G1 X96.444 Y112.824 E35.20939
G1 X95.928 Y113.115 E35.43037
G1 X95.442 Y113.429 E35.6462
G1 X94.971 Y113.776 E35.86442
G1 X94.511 Y114.159 E36.0877
G1 X94.069 Y114.573 E36.31361
G1 X93.674 Y114.993 E36.52868
G1 X93.294 Y115.448 E36.74981
G1 X92.933 Y115.936 E36.97623
G1 X92.613 Y116.432 E37.19641
G1 X92.328 Y116.936 E37.41239
G1 X92.072 Y117.463 E37.63094
G1 X91.838 Y118.028 E37.85906
G1 X91.655 Y118.555 E38.06715
G1 X91.491 Y119.14 E38.29378
G1 X91.363 Y119.723 E38.51643
G1 X91.265 Y120.353 E38.75426
G1 X91.219 Y120.895 E38.95716
G1 X91.201 Y121.488 E39.17847
G1 X91.218 Y122.089 E39.40274
G1 X91.267 Y122.632 E39.60611
G1 X91.36 Y123.265 E39.84477
G1 X91.485 Y123.843 E40.06536
G1 X91.648 Y124.431 E40.29297
G1 X91.833 Y124.958 E40.50131
G1 X92.059 Y125.508 E40.72311
G1 X92.323 Y126.054 E40.94934
G1 X92.613 Y126.568 E41.16948
G1 X92.925 Y127.052 E41.38429
G1 X93.276 Y127.528 E41.6049
G1 X93.656 Y127.985 E41.8266
G1 X94.069 Y128.427 E42.05225
G1 X94.491 Y128.824 E42.26837
G1 X94.946 Y129.205 E42.48974
G1 X95.43 Y129.563 E42.7143
G1 X95.928 Y129.885 E42.93552
G1 X96.432 Y130.17 E43.15149
G1 X96.963 Y130.428 E43.37171
G1 X97.524 Y130.66 E43.59816
G1 X98.055 Y130.845 E43.80791
G1 X98.64 Y131.009 E44.03454
G1 X99.223 Y131.137 E44.25719
G1 X99.853 Y131.235 E44.49502
G1 X100.395 Y131.281 E44.69792
G1 X100.986 Y131.299 E44.91848
G1 X101.589 Y131.282 E45.1435
G0 F6000 X101.788 Y131.265
G1 F1500 E44.1435
G1 F600 Z1.3
G0 F6000 X96.085 Y129.104 Z1.3
;TYPE:FILL
G1 F600 Z0.3
G1 F1500 E45.29893
G1 F2400 X108.616 Y116.572 E51.90966
G1 X109.017 Y117.281 E52.2135
G1 X109.361 Y117.988 E52.50678
G1 X97.489 Y129.86 E58.76961
G1 X96.78 Y129.517 E59.0634
G1 X96.313 Y129.252 E59.26369
G1 X95.851 Y128.953 E59.46897
G1 X95.146 Y128.433 E59.79575
G1 X107.928 Y115.651 E66.53862
G1 X107.398 Y115.088 E66.82705
G1 X106.849 Y114.569 E67.10886
G1 X94.066 Y127.352 E73.85227
G1 X93.383 Y126.426 E74.28148
G1 X105.926 Y113.883 E80.89827
G1 X105.214 Y113.48 E81.20346
G1 X104.51 Y113.138 E81.49541
G1 X92.636 Y125.012 E87.75929
G1 X92.353 Y124.203 E88.07899
G1 X92.242 Y123.797 E88.236
G1 X103.298 Y112.741 E94.06836
G1 X102.647 Y112.592 E94.31747
G1 X101.855 Y112.468 E94.6165
G1 X101.689 Y112.462 E94.67847
G1 X110.052 Y120.825 E99.09019
G1 X109.91 Y119.86 E99.45403
G1 X109.766 Y119.193 E99.70857
G1 X98.695 Y130.264 E105.54884
G1 X99.353 Y130.408 E105.8001
G1 X100.145 Y130.532 E106.09913
G1 X100.311 Y130.536 E106.16107
G1 X91.96 Y122.185 E110.56646
G1 X91.953 Y121.925 E110.66348
G1 X101.425 Y112.453 E115.66024
G1 X101.069 Y112.442 E115.7931
G1 X110.056 Y121.43 E120.53426
G1 X110.046 Y121.074 E120.66711
G1 X100.575 Y130.545 E125.66334
G1 X100.931 Y130.556 E125.7962
G1 X91.942 Y121.567 E130.53816
G1 X91.968 Y120.646 E130.88184
G1 X92.032 Y120.237 E131.03627
G1 X99.735 Y112.533 E135.10009
G1 X99.362 Y112.59 E135.24084
G1 X98.835 Y112.705 E135.44205
G1 X98.306 Y112.85 E135.64665
G1 X109.646 Y124.19 E141.62883
G1 X109.792 Y123.675 E141.82851
G1 X109.908 Y123.146 E142.03052
G1 X109.967 Y122.762 E142.17544
G1 X102.266 Y130.464 E146.23821
G1 X102.638 Y130.41 E146.37843
G1 X103.165 Y130.295 E146.57963
G1 X103.693 Y130.147 E146.78418
G1 X92.353 Y118.807 E152.76636
G1 X92.505 Y118.36 E152.94247
G1 X104.138 Y129.993 E159.07922
G1 X104.707 Y129.765 E159.30787
G1 X105.518 Y129.372 E159.64404
G1 X108.871 Y126.019 E161.41285
G1 X109.256 Y125.228 E161.741
G1 X109.494 Y124.638 E161.97831
G1 X97.862 Y113.005 E168.11479
G1 X97.293 Y113.235 E168.34373
G1 X96.477 Y113.63 E168.6819
G1 X93.183 Y116.924 E170.41958
G1 X93.243 Y116.821 E170.46404
G1 X93.597 Y116.281 E170.7049
G1 X106.217 Y128.901 E177.36231
G1 X106.563 Y128.647 E177.52242
G1 X93.852 Y115.936 E184.22784
G1 X94.232 Y115.479 E184.44955
G1 X94.588 Y115.102 E184.64297
G1 X94.996 Y114.718 E184.85196
G1 X95.436 Y114.35 E185.06593
G1 X108.147 Y127.061 E191.77135
G1 X108.402 Y126.716 E191.93138
G1 X95.782 Y114.096 E198.5888
G1 X96.317 Y113.745 E198.82748
G1 X96.4 Y113.691
G1 F1500 E197.82748
G1 F600 Z1.3
;MESH:NONMESH
G0 F6000 X101.565 Y130.882 Z1.3
;TIME_ELAPSED:23.947373
;LAYER:1
;MESH:Sajad.stl
G0 X101.565 Y130.882 Z1.6
;TYPE:WALL-INNER
G1 F600 Z0.6
G1 F1500 E198.9829
G1 F1800 X102.085 Y130.835 E199.17767
G1 X102.692 Y130.746 E199.40651
G1 X103.252 Y130.625 E199.62022
G1 X103.825 Y130.466 E199.84204
G1 X104.333 Y130.287 E200.04295
G1 X104.861 Y130.069 E200.25603
G1 X105.37 Y129.823 E200.46691
G1 X105.865 Y129.543 E200.67905
G1 X106.342 Y129.234 E200.89105
G1 X106.794 Y128.9 E201.10069
G1 X107.234 Y128.532 E201.31466
G1 X107.648 Y128.144 E201.52631
G1 X108.036 Y127.731 E201.73769
G1 X108.4 Y127.294 E201.94984
G1 X108.738 Y126.836 E202.16217
G1 X109.045 Y126.361 E202.37314
G1 X109.325 Y125.866 E202.58527
G1 X109.569 Y125.361 E202.79449
G1 X109.788 Y124.831 E203.0084
G1 X109.963 Y124.325 E203.20812
G1 X110.127 Y123.745 E203.43295
G1 X110.246 Y123.192 E203.64395
G1 X110.339 Y122.585 E203.87302
G1 X110.382 Y122.067 E204.06691
G1 X110.399 Y121.498 E204.27925
G1 X110.382 Y120.93 E204.49122
G1 X110.335 Y120.415 E204.68412
G1 X110.246 Y119.806 E204.9137
G1 X110.125 Y119.248 E205.12669
G1 X109.966 Y118.675 E205.3485
G1 X109.787 Y118.167 E205.54942
G1 X109.569 Y117.639 E205.7625
G1 X109.323 Y117.13 E205.97338
G1 X109.043 Y116.635 E206.18551
G1 X108.734 Y116.158 E206.39751
G1 X108.4 Y115.706 E206.60716
G1 X108.032 Y115.266 E206.82112
G1 X107.644 Y114.852 E207.03277
G1 X107.231 Y114.464 E207.24415
G1 X106.794 Y114.1 E207.4563
G1 X106.336 Y113.762 E207.66863
G1 X105.861 Y113.455 E207.8796
G1 X105.366 Y113.175 E208.09174
G1 X104.861 Y112.931 E208.30095
G1 X104.335 Y112.714 E208.5132
G1 X103.825 Y112.537 E208.71457
G1 X103.25 Y112.375 E208.93741
G1 X102.69 Y112.254 E209.15112
G1 X102.085 Y112.161 E209.37945
G1 X101.567 Y112.118 E209.57333
G1 X101 Y112.101 E209.78493
G1 X100.435 Y112.118 E209.99578
G1 X99.915 Y112.165 E210.19054
G1 X99.308 Y112.254 E210.41939
G1 X98.748 Y112.375 E210.6331
G1 X98.175 Y112.534 E210.85492
G1 X97.667 Y112.713 E211.05583
G1 X97.139 Y112.931 E211.26891
G1 X96.63 Y113.177 E211.47979
G1 X96.135 Y113.457 E211.69193
G1 X95.658 Y113.766 E211.90393
G1 X95.206 Y114.1 E212.11357
G1 X94.766 Y114.468 E212.32754
G1 X94.352 Y114.856 E212.53919
G1 X93.964 Y115.269 E212.75057
G1 X93.6 Y115.706 E212.96272
G1 X93.262 Y116.164 E213.17505
G1 X92.955 Y116.639 E213.38602
G1 X92.675 Y117.134 E213.59815
G1 X92.431 Y117.639 E213.80736
G1 X92.212 Y118.169 E214.02128
G1 X92.037 Y118.675 E214.22099
G1 X91.873 Y119.255 E214.44583
G1 X91.754 Y119.808 E214.65683
G1 X91.661 Y120.415 E214.8859
G1 X91.618 Y120.933 E215.07978
G1 X91.601 Y121.501 E215.29175
G1 X91.618 Y122.065 E215.50223
G1 X91.665 Y122.585 E215.69699
G1 X91.754 Y123.194 E215.92658
G1 X91.873 Y123.747 E216.13758
G1 X92.034 Y124.325 E216.36139
G1 X92.211 Y124.829 E216.56065
G1 X92.431 Y125.361 E216.77539
G1 X92.675 Y125.866 E216.9846
G1 X92.955 Y126.361 E217.19674
G1 X93.262 Y126.836 E217.40771
G1 X93.6 Y127.294 E217.62004
G1 X93.964 Y127.731 E217.83219
G1 X94.352 Y128.144 E218.04357
G1 X94.766 Y128.532 E218.25522
G1 X95.206 Y128.9 E218.46919
G1 X95.658 Y129.234 E218.67883
G1 X96.136 Y129.543 E218.89114
G1 X96.63 Y129.823 E219.10296
G1 X97.139 Y130.069 E219.31384
G1 X97.665 Y130.286 E219.52609
G1 X98.175 Y130.463 E219.72746
G1 X98.75 Y130.625 E219.95029
G1 X99.31 Y130.746 E220.164
G1 X99.915 Y130.839 E220.39233
G1 X100.433 Y130.882 E220.58622
G1 X101 Y130.899 E220.79782
G1 X101.565 Y130.882 E221.00867
G0 F6000 X101.589 Y131.282
;TYPE:WALL-OUTER
G1 F1800 X102.132 Y131.233 E221.21204
G1 X102.764 Y131.14 E221.45033
G1 X103.348 Y131.013 E221.67326
G1 X103.945 Y130.848 E221.9043
G1 X104.476 Y130.661 E222.1143
G1 X105.025 Y130.434 E222.3359
G1 X105.556 Y130.177 E222.55596
G1 X106.072 Y129.885 E222.77712
G1 X106.57 Y129.563 E222.99833
G1 X107.041 Y129.215 E223.21678
G1 X107.5 Y128.832 E223.43977
G1 X107.931 Y128.427 E223.66038
G1 X108.336 Y127.996 E223.881
G1 X108.715 Y127.541 E224.10189
G1 X109.067 Y127.064 E224.32302
G1 X109.387 Y126.568 E224.5432
G1 X109.679 Y126.052 E224.76436
G1 X109.934 Y125.525 E224.98275
G1 X110.162 Y124.973 E225.20553
G1 X110.345 Y124.445 E225.41397
G1 X110.515 Y123.842 E225.64767
G1 X110.64 Y123.264 E225.86826
G1 X110.737 Y122.632 E226.10677
G1 X110.782 Y122.089 E226.31002
G1 X110.799 Y121.498 E226.53056
G1 X110.782 Y120.906 E226.75148
G1 X110.733 Y120.368 E226.95299
G1 X110.64 Y119.734 E227.19202
G1 X110.513 Y119.152 E227.41423
G1 X110.348 Y118.555 E227.64527
G1 X110.161 Y118.024 E227.85526
G1 X109.934 Y117.475 E228.07687
G1 X109.677 Y116.944 E228.29692
G1 X109.385 Y116.428 E228.51808
G1 X109.063 Y115.93 E228.73929
G1 X108.715 Y115.459 E228.95774
G1 X108.332 Y115 E229.18073
G1 X107.927 Y114.569 E229.40135
G1 X107.496 Y114.164 E229.62196
G1 X107.041 Y113.785 E229.84285
G1 X106.564 Y113.433 E230.06398
G1 X106.068 Y113.113 E230.28416
G1 X105.552 Y112.821 E230.50532
G1 X105.025 Y112.566 E230.72371
G1 X104.477 Y112.34 E230.94482
G1 X103.945 Y112.155 E231.15493
G1 X103.347 Y111.987 E231.38663
G1 X102.763 Y111.86 E231.60956
G1 X102.132 Y111.763 E231.8477
G1 X101.589 Y111.718 E232.05095
G1 X101 Y111.701 E232.27075
G1 X100.411 Y111.718 E232.49055
G1 X99.868 Y111.767 E232.69392
G1 X99.236 Y111.86 E232.93221
G1 X98.652 Y111.987 E233.15514
G1 X98.055 Y112.152 E233.38618
G1 X97.524 Y112.339 E233.59618
G1 X96.975 Y112.566 E233.81778
G1 X96.444 Y112.823 E234.03784
G1 X95.928 Y113.115 E234.259
G1 X95.43 Y113.437 E234.48021
G1 X94.959 Y113.785 E234.69865
G1 X94.5 Y114.168 E234.92165
G1 X94.069 Y114.573 E235.14226
G1 X93.664 Y115.004 E235.36287
G1 X93.285 Y115.459 E235.58377
G1 X92.933 Y115.936 E235.8049
G1 X92.613 Y116.432 E236.02508
G1 X92.321 Y116.948 E236.24624
G1 X92.066 Y117.475 E236.46462
G1 X91.838 Y118.027 E236.6874
G1 X91.655 Y118.555 E236.89585
G1 X91.485 Y119.158 E237.12955
G1 X91.36 Y119.736 E237.35014
G1 X91.263 Y120.368 E237.58865
G1 X91.218 Y120.911 E237.79189
G1 X91.201 Y121.501 E238.01207
G1 X91.218 Y122.089 E238.23149
G1 X91.267 Y122.632 E238.43487
G1 X91.36 Y123.265 E238.67352
G1 X91.485 Y123.843 E238.89411
G1 X91.652 Y124.445 E239.12715
G1 X91.837 Y124.972 E239.33549
G1 X92.066 Y125.525 E239.55876
G1 X92.321 Y126.052 E239.77714
G1 X92.613 Y126.568 E239.9983
G1 X92.933 Y127.064 E240.21848
G1 X93.285 Y127.541 E240.43962
G1 X93.664 Y127.996 E240.66051
G1 X94.069 Y128.427 E240.88112
G1 X94.5 Y128.832 E241.10174
G1 X94.959 Y129.215 E241.32473
G1 X95.43 Y129.563 E241.54317
G1 X95.928 Y129.885 E241.76439
G1 X96.444 Y130.177 E241.98555
G1 X96.975 Y130.434 E242.2056
