;FLAVOR:Marlin
;TIME:482
;Filament used: 4.73541m, 0m
;Layer height: 0.3
;MINX:91.201
;MINY:111.701
;MINZ:0.3
;MAXX:110.799
;MAXY:131.299
;MAXZ:7
;Generated with Cura_SteamEngine 5.0.1
T0
M140 S40
M105
M190 S40
M104 S200
M105
M109 S200
M82 ;absolute extrusion mode
M900 K0.020;
G28 ; home all axes
G1 Z5 F5000 ; lift nozzle
G1 X-45 Y70 F2500; go to glycerin roller;
G92 E0
G1 X-23 F5000; park to start
G92 E0; Extrude a small amount to clear nozzle
G1 E20 F4000
G4 P2000
G92 E0


G92 E0
G1 F1500 E-1
;LAYER_COUNT:20
;LAYER:0
M107
M204 S500
G1 F600 Z1.3
;MESH:Sajad.stl
G0 F6000 X101.565 Y130.882 Z1.3
;TYPE:WALL-INNER
G1 F600 Z0.3
G1 F1500 E0.15542
G1 F1800 X102.085 Y130.835 E0.35019
G1 X102.692 Y130.746 E0.57903
G1 X103.252 Y130.625 E0.79274
G1 X103.811 Y130.47 E1.00913
G1 X104.32 Y130.291 E1.21039
G1 X104.845 Y130.075 E1.42215
G1 X105.37 Y129.821 E1.6397
G1 X105.865 Y129.543 E1.85148
G1 X106.33 Y129.242 E2.0581
G1 X106.782 Y128.909 E2.26752
G1 X107.224 Y128.541 E2.48206
G1 X107.648 Y128.144 E2.69873
G1 X108.026 Y127.741 E2.90483
G1 X108.392 Y127.304 E3.11746
G1 X108.738 Y126.836 E3.33456
G1 X109.045 Y126.361 E3.54553
G1 X109.318 Y125.878 E3.75249
G1 X109.563 Y125.373 E3.96186
G1 X109.788 Y124.83 E4.18111
G1 X109.963 Y124.325 E4.38048
G1 X110.121 Y123.763 E4.59824
G1 X110.243 Y123.203 E4.81203
G1 X110.337 Y122.599 E5.04005
G1 X110.381 Y122.082 E5.2336
G1 X110.399 Y121.512 E5.44632
G1 X110.382 Y120.929 E5.66389
G1 X110.335 Y120.415 E5.85642
G1 X110.246 Y119.806 E6.086
G1 X110.125 Y119.248 E6.29898
G1 X109.97 Y118.689 E6.51537
G1 X109.792 Y118.18 E6.71651
G1 X109.574 Y117.653 E6.92925
G1 X109.322 Y117.13 E7.1458
G1 X109.043 Y116.635 E7.35775
G1 X108.742 Y116.17 E7.56438
G1 X108.409 Y115.718 E7.7738
G1 X108.041 Y115.276 E7.98834
G1 X107.644 Y114.852 E8.205
G1 X107.241 Y114.474 E8.41111
G1 X106.804 Y114.108 E8.62374
G1 X106.336 Y113.762 E8.84084
G1 X105.861 Y113.455 E9.05181
G1 X105.378 Y113.182 E9.25877
G1 X104.874 Y112.937 E9.46781
G1 X104.334 Y112.714 E9.68574
G1 X103.825 Y112.537 E9.88676
G1 X103.263 Y112.379 E10.10452
G1 X102.703 Y112.257 E10.31831
G1 X102.099 Y112.163 E10.54633
G1 X101.582 Y112.119 E10.73987
G1 X101.014 Y112.101 E10.95186
G1 X100.435 Y112.118 E11.16793
G1 X99.915 Y112.165 E11.36269
G1 X99.308 Y112.254 E11.59153
G1 X98.748 Y112.375 E11.80524
G1 X98.189 Y112.53 E12.02163
G1 X97.68 Y112.709 E12.22289
G1 X97.155 Y112.924 E12.43451
G1 X96.63 Y113.179 E12.65223
G1 X96.135 Y113.457 E12.864
G1 X95.67 Y113.758 E13.07062
G1 X95.218 Y114.091 E13.28004
G1 X94.776 Y114.459 E13.49458
G1 X94.352 Y114.856 E13.71125
G1 X93.974 Y115.259 E13.91736
G1 X93.608 Y115.696 E14.12998
G1 X93.262 Y116.164 E14.34709
G1 X92.955 Y116.639 E14.55806
G1 X92.682 Y117.122 E14.76501
G1 X92.437 Y117.627 E14.97439
G1 X92.212 Y118.17 E15.19364
G1 X92.037 Y118.675 E15.393
G1 X91.879 Y119.237 E15.61077
G1 X91.757 Y119.797 E15.82456
G1 X91.663 Y120.401 E16.05257
G1 X91.619 Y120.918 E16.24612
G1 X91.601 Y121.488 E16.45885
G1 X91.618 Y122.065 E16.67417
G1 X91.665 Y122.585 E16.86893
G1 X91.754 Y123.194 E17.09851
G1 X91.873 Y123.747 E17.30952
G1 X92.03 Y124.311 E17.5279
G1 X92.207 Y124.816 E17.72751
G1 X92.424 Y125.344 E17.94045
G1 X92.678 Y125.868 E18.15766
G1 X92.955 Y126.361 E18.3686
G1 X93.255 Y126.825 E18.57471
G1 X93.591 Y127.282 E18.78629
G1 X93.956 Y127.72 E18.99897
G1 X94.352 Y128.144 E19.21538
G1 X94.757 Y128.525 E19.4228
G1 X95.194 Y128.891 E19.63543
G1 X95.658 Y129.234 E19.85067
G1 X96.136 Y129.543 E20.06298
G1 X96.618 Y129.816 E20.26961
G1 X97.127 Y130.063 E20.48065
G1 X97.666 Y130.286 E20.69824
G1 X98.175 Y130.463 E20.89926
G1 X98.737 Y130.621 E21.11702
G1 X99.297 Y130.743 E21.33081
G1 X99.901 Y130.837 E21.55883
G1 X100.418 Y130.881 E21.75238
G1 X100.986 Y130.899 E21.96436
G1 X101.565 Y130.882 E22.18043
G0 F6000 X101.589 Y131.282
;TYPE:WALL-OUTER
G1 F1800 X102.132 Y131.233 E22.3838
G1 X102.764 Y131.14 E22.62209
G1 X103.348 Y131.013 E22.84502
G1 X103.931 Y130.852 E23.07064
G1 X104.462 Y130.665 E23.28063
G1 X105.008 Y130.441 E23.50077
G1 X105.556 Y130.176 E23.72784
G1 X106.072 Y129.885 E23.94881
G1 X106.558 Y129.571 E24.16465
G1 X107.029 Y129.224 E24.38287
G1 X107.489 Y128.841 E24.60615
G1 X107.931 Y128.427 E24.83205
G1 X108.326 Y128.007 E25.04712
G1 X108.706 Y127.552 E25.26825
G1 X109.067 Y127.064 E25.49468
G1 X109.387 Y126.568 E25.71486
G1 X109.672 Y126.064 E25.93084
G1 X109.928 Y125.537 E26.14939
G1 X110.162 Y124.972 E26.3775
G1 X110.345 Y124.445 E26.5856
G1 X110.509 Y123.86 E26.81223
G1 X110.637 Y123.277 E27.03488
G1 X110.735 Y122.647 E27.27271
G1 X110.781 Y122.105 E27.47561
G1 X110.799 Y121.512 E27.69691
G1 X110.782 Y120.905 E27.92342
G1 X110.733 Y120.368 E28.12457
G1 X110.64 Y119.734 E28.36359
G1 X110.513 Y119.152 E28.5858
G1 X110.352 Y118.569 E28.81141
G1 X110.166 Y118.038 E29.02128
G1 X109.94 Y117.489 E29.24274
G1 X109.676 Y116.944 E29.46863
G1 X109.385 Y116.428 E29.68961
G1 X109.071 Y115.942 E29.90544
G1 X108.724 Y115.471 E30.12367
G1 X108.341 Y115.011 E30.34695
G1 X107.927 Y114.569 E30.57285
G1 X107.507 Y114.174 E30.78792
G1 X107.052 Y113.794 E31.00905
G1 X106.564 Y113.433 E31.23548
G1 X106.068 Y113.113 E31.45566
G1 X105.564 Y112.828 E31.67164
G1 X105.038 Y112.572 E31.88985
G1 X104.476 Y112.34 E32.11665
G1 X103.945 Y112.155 E32.3264
G1 X103.36 Y111.991 E32.55303
G1 X102.777 Y111.863 E32.77568
G1 X102.147 Y111.765 E33.0135
G1 X101.605 Y111.719 E33.21641
G1 X101.014 Y111.701 E33.43696
G1 X100.411 Y111.718 E33.66198
G1 X99.868 Y111.767 E33.86536
G1 X99.236 Y111.86 E34.10364
G1 X98.652 Y111.987 E34.32658
G1 X98.069 Y112.148 E34.55219
G1 X97.538 Y112.335 E34.76219
G1 X96.992 Y112.559 E34.98233
G1 X96.444 Y112.824 E35.20939
G1 X95.928 Y113.115 E35.43037
G1 X95.442 Y113.429 E35.6462
G1 X94.971 Y113.776 E35.86442
G1 X94.511 Y114.159 E36.0877
G1 X94.069 Y114.573 E36.31361
G1 X93.674 Y114.993 E36.52868
G1 X93.294 Y115.448 E36.74981
G1 X92.933 Y115.936 E36.97623
G1 X92.613 Y116.432 E37.19641
G1 X92.328 Y116.936 E37.41239
G1 X92.072 Y117.463 E37.63094
G1 X91.838 Y118.028 E37.85906
G1 X91.655 Y118.555 E38.06715
G1 X91.491 Y119.14 E38.29378
G1 X91.363 Y119.723 E38.51643
G1 X91.265 Y120.353 E38.75426
G1 X91.219 Y120.895 E38.95716
G1 X91.201 Y121.488 E39.17847
G1 X91.218 Y122.089 E39.40274
G1 X91.267 Y122.632 E39.60611
G1 X91.36 Y123.265 E39.84477
G1 X91.485 Y123.843 E40.06536
G1 X91.648 Y124.431 E40.29297
G1 X91.833 Y124.958 E40.50131
G1 X92.059 Y125.508 E40.72311
G1 X92.323 Y126.054 E40.94934
G1 X92.613 Y126.568 E41.16948
G1 X92.925 Y127.052 E41.38429
G1 X93.276 Y127.528 E41.6049
G1 X93.656 Y127.985 E41.8266
G1 X94.069 Y128.427 E42.05225
G1 X94.491 Y128.824 E42.26837
G1 X94.946 Y129.205 E42.48974
G1 X95.43 Y129.563 E42.7143
G1 X95.928 Y129.885 E42.93552
G1 X96.432 Y130.17 E43.15149
G1 X96.963 Y130.428 E43.37171
G1 X97.524 Y130.66 E43.59816
G1 X98.055 Y130.845 E43.80791
G1 X98.64 Y131.009 E44.03454
G1 X99.223 Y131.137 E44.25719
G1 X99.853 Y131.235 E44.49502
G1 X100.395 Y131.281 E44.69792
G1 X100.986 Y131.299 E44.91848
G1 X101.589 Y131.282 E45.1435
G0 F6000 X101.788 Y131.265
G1 F1500 E44.1435
G1 F600 Z1.3
G0 F6000 X94.825 Y128.122 Z1.3
;TYPE:FILL
G1 F600 Z0.3
G1 F1500 E45.29893
G1 F2400 X109.657 Y124.148 E51.0267
G1 X109.823 Y123.534 E51.26395
G1 X98.965 Y112.676 E56.99187
G1 X99.239 Y112.615 E57.09657
G1 X95.033 Y128.311 E63.15805
G1 X94.594 Y127.904 E63.38136
G1 X94.212 Y127.496 E63.58984
G1 X93.746 Y126.934 E63.86217
G1 X97.432 Y113.176 E69.17517
G1 X97.271 Y113.245 E69.24051
G1 X109.255 Y125.229 E75.56242
G1 X109.018 Y125.717 E75.76478
G1 X108.946 Y125.842 E75.81859
G1 X110.051 Y121.719 E77.41083
G1 X110.031 Y122.391 E77.66161
G1 X93.634 Y126.785 E83.99381
G1 X93.244 Y126.181 E84.262
G1 X92.78 Y125.357 E84.61475
G1 X110.035 Y120.734 E91.27821
G1 X110.059 Y121.507 E91.56669
G1 X100.993 Y112.441 E96.34927
G1 X100.942 Y112.442 E96.3683
G1 X96.421 Y129.313 E102.88355
G1 X96.466 Y129.339 E102.90294
G1 X108.863 Y126.018 E107.69031
G1 X108.435 Y126.671 E107.98155
G1 X95.827 Y114.064 E114.63238
G1 X95.467 Y114.327 E114.79868
G1 X92.624 Y124.938 E118.8964
G1 X92.523 Y124.69 E118.99628
G1 X92.338 Y124.151 E119.20885
G1 X98.342 Y130.155 E122.37614
G1 X97.893 Y130.003 E122.55296
G1 X102.562 Y112.578 E129.28211
G1 X103.024 Y112.674 E129.45813
G1 X94.834 Y114.869 E132.62097
G1 X94.596 Y115.095 E132.7434
G1 X107.404 Y127.903 E139.5
G1 X107.164 Y128.129 E139.62296
G1 X98.972 Y130.324 E142.78653
G1 X99.437 Y130.421 E142.96372
G1 X104.107 Y112.995 E149.69333
G1 X103.658 Y112.843 E149.87015
G1 X109.66 Y118.845 E153.03638
G1 X109.747 Y119.155 E153.15648
G1 X92.243 Y123.845 E159.91613
G1 X92.089 Y123.134 E160.18749
G1 X91.962 Y122.264 E160.51546
G1 X109.195 Y117.646 E167.17051
G1 X109.375 Y118.061 E167.33925
G1 X106.532 Y128.67 E171.43624
G1 X106.172 Y128.934 E171.60277
G1 X93.565 Y116.326 E178.25359
G1 X93.14 Y116.979 E178.54422
G1 X105.532 Y113.659 E183.3297
G1 X105.578 Y113.686 E183.34959
G1 X101.057 Y130.557 E189.86485
G1 X101.008 Y130.558 E189.88313
G1 X91.94 Y121.49 E194.66676
G1 X91.947 Y121.283 E194.74402
G1 X93.054 Y117.153 E196.33897
G1 X92.986 Y117.275 E196.39107
G1 X92.744 Y117.772 E196.59727
G1 X92.528 Y118.296 E196.80869
G1 X92.341 Y118.85 E197.0268
G1 X107.173 Y114.875 E202.75467
G1 X106.966 Y114.686 E202.85922
G1 X102.76 Y130.383 E208.92106
G1 X103.034 Y130.321 E209.02585
G1 X92.177 Y119.464 E214.75324
G1 X92.092 Y119.854 E214.90213
G1 X91.973 Y120.604 E215.18539
G1 X108.352 Y116.216 E221.51053
G1 X108.25 Y116.077 E221.57484
G1 X104.567 Y129.821 E226.88251
G1 X104.728 Y129.753 E226.9477
G1 X92.744 Y117.769 E233.26961
G1 F1500 E232.26961
G1 F600 Z1.3
;MESH:NONMESH
G0 F6000 X101.565 Y130.882 Z1.3
;TIME_ELAPSED:27.208722
;LAYER:1
;MESH:Sajad.stl
G0 X101.565 Y130.882 Z1.6
;TYPE:WALL-INNER
G1 F600 Z0.6
G1 F1500 E233.42503
G1 F1800 X102.085 Y130.835 E233.61979
G1 X102.692 Y130.746 E233.84864
G1 X103.252 Y130.625 E234.06235
G1 X103.825 Y130.466 E234.28416
G1 X104.333 Y130.287 E234.48508
G1 X104.861 Y130.069 E234.69816
G1 X105.37 Y129.823 E234.90904
G1 X105.865 Y129.543 E235.12118
G1 X106.342 Y129.234 E235.33318
G1 X106.794 Y128.9 E235.54282
G1 X107.234 Y128.532 E235.75679
G1 X107.648 Y128.144 E235.96844
G1 X108.036 Y127.731 E236.17982
G1 X108.4 Y127.294 E236.39197
G1 X108.738 Y126.836 E236.60429
G1 X109.045 Y126.361 E236.81527
G1 X109.325 Y125.866 E237.0274
G1 X109.569 Y125.361 E237.23661
G1 X109.788 Y124.831 E237.45053
G1 X109.963 Y124.325 E237.65024
G1 X110.127 Y123.745 E237.87508
G1 X110.246 Y123.192 E238.08608
G1 X110.339 Y122.585 E238.31514
G1 X110.382 Y122.067 E238.50903
G1 X110.399 Y121.498 E238.72138
G1 X110.382 Y120.93 E238.93335
G1 X110.335 Y120.415 E239.12625
G1 X110.246 Y119.806 E239.35583
G1 X110.125 Y119.248 E239.56881
G1 X109.966 Y118.675 E239.79063
G1 X109.787 Y118.167 E239.99154
G1 X109.569 Y117.639 E240.20462
G1 X109.323 Y117.13 E240.4155
G1 X109.043 Y116.635 E240.62764
G1 X108.734 Y116.158 E240.83964
G1 X108.4 Y115.706 E241.04929
G1 X108.032 Y115.266 E241.26325
G1 X107.644 Y114.852 E241.4749
G1 X107.231 Y114.464 E241.68628
G1 X106.794 Y114.1 E241.89843
G1 X106.336 Y113.762 E242.11076
G1 X105.861 Y113.455 E242.32173
G1 X105.366 Y113.175 E242.53387
G1 X104.861 Y112.931 E242.74308
G1 X104.335 Y112.714 E242.95533
G1 X103.825 Y112.537 E243.1567
G1 X103.25 Y112.375 E243.37954
G1 X102.69 Y112.254 E243.59325
G1 X102.085 Y112.161 E243.82157
G1 X101.567 Y112.118 E244.01546
G1 X101 Y112.101 E244.22706
G1 X100.435 Y112.118 E244.43791
G1 X99.915 Y112.165 E244.63267
G1 X99.308 Y112.254 E244.86152
G1 X98.748 Y112.375 E245.07523
G1 X98.175 Y112.534 E245.29704
G1 X97.667 Y112.713 E245.49796
G1 X97.139 Y112.931 E245.71104
G1 X96.63 Y113.177 E245.92192
G1 X96.135 Y113.457 E246.13406
G1 X95.658 Y113.766 E246.34606
G1 X95.206 Y114.1 E246.5557
G1 X94.766 Y114.468 E246.76967
G1 X94.352 Y114.856 E246.98132
G1 X93.964 Y115.269 E247.19269
G1 X93.6 Y115.706 E247.40484
G1 X93.262 Y116.164 E247.61717
G1 X92.955 Y116.639 E247.82814
G1 X92.675 Y117.134 E248.04028
G1 X92.431 Y117.639 E248.24949
G1 X92.212 Y118.169 E248.46341
G1 X92.037 Y118.675 E248.66312
G1 X91.873 Y119.255 E248.88796
G1 X91.754 Y119.808 E249.09896
G1 X91.661 Y120.415 E249.32802
G1 X91.618 Y120.933 E249.52191
G1 X91.601 Y121.501 E249.73388
G1 X91.618 Y122.065 E249.94436
G1 X91.665 Y122.585 E250.13912
G1 X91.754 Y123.194 E250.3687
G1 X91.873 Y123.747 E250.5797
G1 X92.034 Y124.325 E250.80352
G1 X92.211 Y124.829 E251.00278
G1 X92.431 Y125.361 E251.21752
G1 X92.675 Y125.866 E251.42673
G1 X92.955 Y126.361 E251.63887
G1 X93.262 Y126.836 E251.84984
G1 X93.6 Y127.294 E252.06217
G1 X93.964 Y127.731 E252.27432
G1 X94.352 Y128.144 E252.4857
G1 X94.766 Y128.532 E252.69735
G1 X95.206 Y128.9 E252.91132
G1 X95.658 Y129.234 E253.12096
G1 X96.136 Y129.543 E253.33327
G1 X96.63 Y129.823 E253.54509
G1 X97.139 Y130.069 E253.75596
G1 X97.665 Y130.286 E253.96821
G1 X98.175 Y130.463 E254.16958
G1 X98.75 Y130.625 E254.39242
G1 X99.31 Y130.746 E254.60613
G1 X99.915 Y130.839 E254.83446
G1 X100.433 Y130.882 E255.02835
G1 X101 Y130.899 E255.23995
G1 X101.565 Y130.882 E255.4508
G0 F6000 X101.589 Y131.282
;TYPE:WALL-OUTER
G1 F1800 X102.132 Y131.233 E255.65417
G1 X102.764 Y131.14 E255.89246
G1 X103.348 Y131.013 E256.11539
G1 X103.945 Y130.848 E256.34643
G1 X104.476 Y130.661 E256.55643
G1 X105.025 Y130.434 E256.77803
G1 X105.556 Y130.177 E256.99809
G1 X106.072 Y129.885 E257.21925
G1 X106.57 Y129.563 E257.44046
G1 X107.041 Y129.215 E257.6589
G1 X107.5 Y128.832 E257.8819
G1 X107.931 Y128.427 E258.10251
G1 X108.336 Y127.996 E258.32312
G1 X108.715 Y127.541 E258.54402
G1 X109.067 Y127.064 E258.76515
G1 X109.387 Y126.568 E258.98533
G1 X109.679 Y126.052 E259.20649
G1 X109.934 Y125.525 E259.42487
G1 X110.162 Y124.973 E259.64765
G1 X110.345 Y124.445 E259.8561
G1 X110.515 Y123.842 E260.0898
G1 X110.64 Y123.264 E260.31039
G1 X110.737 Y122.632 E260.5489
G1 X110.782 Y122.089 E260.75214
G1 X110.799 Y121.498 E260.97269
G1 X110.782 Y120.906 E261.19361
G1 X110.733 Y120.368 E261.39512
G1 X110.64 Y119.734 E261.63415
G1 X110.513 Y119.152 E261.85635
G1 X110.348 Y118.555 E262.0874
G1 X110.161 Y118.024 E262.29739
G1 X109.934 Y117.475 E262.519
G1 X109.677 Y116.944 E262.73905
G1 X109.385 Y116.428 E262.96021
G1 X109.063 Y115.93 E263.18142
G1 X108.715 Y115.459 E263.39987
G1 X108.332 Y115 E263.62286
G1 X107.927 Y114.569 E263.84347
G1 X107.496 Y114.164 E264.06409
G1 X107.041 Y113.785 E264.28498
G1 X106.564 Y113.433 E264.50611
G1 X106.068 Y113.113 E264.72629
G1 X105.552 Y112.821 E264.94745
G1 X105.025 Y112.566 E265.16584
G1 X104.477 Y112.34 E265.38695
G1 X103.945 Y112.155 E265.59706
G1 X103.347 Y111.987 E265.82876
G1 X102.763 Y111.86 E266.05169
G1 X102.132 Y111.763 E266.28983
G1 X101.589 Y111.718 E266.49308
G1 X101 Y111.701 E266.71288
G1 X100.411 Y111.718 E266.93268
G1 X99.868 Y111.767 E267.13605
G1 X99.236 Y111.86 E267.37433
G1 X98.652 Y111.987 E267.59727
G1 X98.055 Y112.152 E267.82831
G1 X97.524 Y112.339 E268.03831
G1 X96.975 Y112.566 E268.25991
G1 X96.444 Y112.823 E268.47996
G1 X95.928 Y113.115 E268.70112
G1 X95.43 Y113.437 E268.92234
G1 X94.959 Y113.785 E269.14078
G1 X94.5 Y114.168 E269.36378
G1 X94.069 Y114.573 E269.58439
G1 X93.664 Y115.004 E269.805
G1 X93.285 Y115.459 E270.02589
G1 X92.933 Y115.936 E270.24703
G1 X92.613 Y116.432 E270.46721
G1 X92.321 Y116.948 E270.68837
G1 X92.066 Y117.475 E270.90675
G1 X91.838 Y118.027 E271.12953
G1 X91.655 Y118.555 E271.33798
G1 X91.485 Y119.158 E271.57168
G1 X91.36 Y119.736 E271.79227
G1 X91.263 Y120.368 E272.03078
G1 X91.218 Y120.911 E272.23402
G1 X91.201 Y121.501 E272.45419
G1 X91.218 Y122.089 E272.67362
G1 X91.267 Y122.632 E272.87699
G1 X91.36 Y123.265 E273.11565
G1 X91.485 Y123.843 E273.33624
G1 X91.652 Y124.445 E273.56928
G1 X91.837 Y124.972 E273.77762
G1 X92.066 Y125.525 E274.00089
G1 X92.321 Y126.052 E274.21927
G1 X92.613 Y126.568 E274.44043
G1 X92.933 Y127.064 E274.66061
G1 X93.285 Y127.541 E274.88175
G1 X93.664 Y127.996 E275.10264
G1 X94.069 Y128.427 E275.32325
G1 X94.5 Y128.832 E275.54386
G1 X94.959 Y129.215 E275.76686
G1 X95.43 Y129.563 E275.9853
G1 X95.928 Y129.885 E276.20652
G1 X96.444 Y130.177 E276.42768
G1 X96.975 Y130.434 E276.64773
G1 X97.523 Y130.66 E276.86884
