;FLAVOR:Marlin
;TIME:364
;Filament used: 3.51175m, 0m
;Layer height: 0.3
;MINX:91.201
;MINY:111.701
;MINZ:0.3
;MAXX:110.799
;MAXY:131.299
;MAXZ:7
;Generated with Cura_SteamEngine 5.0.1
T0
M140 S40
M105
M190 S40
M104 S200
M105
M109 S200
M82 ;absolute extrusion mode
M900 K0.020;
G28 ; home all axes
G1 Z5 F5000 ; lift nozzle
G1 X-45 Y70 F2500; go to glycerin roller;
G92 E0
G1 X-23 F5000; park to start
G92 E0; Extrude a small amount to clear nozzle
G1 E20 F4000
G4 P2000
G92 E0


G92 E0
G1 F1500 E-1
;LAYER_COUNT:20
;LAYER:0
M107
M204 S500
G1 F600 Z1.3
;MESH:Sajad.stl
G0 F6000 X101.565 Y130.882 Z1.3
;TYPE:WALL-INNER
G1 F600 Z0.3
G1 F1500 E0.15542
G1 F1800 X102.085 Y130.835 E0.35019
G1 X102.692 Y130.746 E0.57903
G1 X103.252 Y130.625 E0.79274
G1 X103.811 Y130.47 E1.00913
G1 X104.32 Y130.291 E1.21039
G1 X104.845 Y130.075 E1.42215
G1 X105.37 Y129.821 E1.6397
G1 X105.865 Y129.543 E1.85148
G1 X106.33 Y129.242 E2.0581
G1 X106.782 Y128.909 E2.26752
G1 X107.224 Y128.541 E2.48206
G1 X107.648 Y128.144 E2.69873
G1 X108.026 Y127.741 E2.90483
G1 X108.392 Y127.304 E3.11746
G1 X108.738 Y126.836 E3.33456
G1 X109.045 Y126.361 E3.54553
G1 X109.318 Y125.878 E3.75249
G1 X109.563 Y125.373 E3.96186
G1 X109.788 Y124.83 E4.18111
G1 X109.963 Y124.325 E4.38048
G1 X110.121 Y123.763 E4.59824
G1 X110.243 Y123.203 E4.81203
G1 X110.337 Y122.599 E5.04005
G1 X110.381 Y122.082 E5.2336
G1 X110.399 Y121.512 E5.44632
G1 X110.382 Y120.929 E5.66389
G1 X110.335 Y120.415 E5.85642
G1 X110.246 Y119.806 E6.086
G1 X110.125 Y119.248 E6.29898
G1 X109.97 Y118.689 E6.51537
G1 X109.792 Y118.18 E6.71651
G1 X109.574 Y117.653 E6.92925
G1 X109.322 Y117.13 E7.1458
G1 X109.043 Y116.635 E7.35775
G1 X108.742 Y116.17 E7.56438
G1 X108.409 Y115.718 E7.7738
G1 X108.041 Y115.276 E7.98834
G1 X107.644 Y114.852 E8.205
G1 X107.241 Y114.474 E8.41111
G1 X106.804 Y114.108 E8.62374
G1 X106.336 Y113.762 E8.84084
G1 X105.861 Y113.455 E9.05181
G1 X105.378 Y113.182 E9.25877
G1 X104.874 Y112.937 E9.46781
G1 X104.334 Y112.714 E9.68574
G1 X103.825 Y112.537 E9.88676
G1 X103.263 Y112.379 E10.10452
G1 X102.703 Y112.257 E10.31831
G1 X102.099 Y112.163 E10.54633
G1 X101.582 Y112.119 E10.73987
G1 X101.014 Y112.101 E10.95186
G1 X100.435 Y112.118 E11.16793
G1 X99.915 Y112.165 E11.36269
G1 X99.308 Y112.254 E11.59153
G1 X98.748 Y112.375 E11.80524
G1 X98.189 Y112.53 E12.02163
G1 X97.68 Y112.709 E12.22289
G1 X97.155 Y112.924 E12.43451
G1 X96.63 Y113.179 E12.65223
G1 X96.135 Y113.457 E12.864
G1 X95.67 Y113.758 E13.07062
G1 X95.218 Y114.091 E13.28004
G1 X94.776 Y114.459 E13.49458
G1 X94.352 Y114.856 E13.71125
G1 X93.974 Y115.259 E13.91736
G1 X93.608 Y115.696 E14.12998
G1 X93.262 Y116.164 E14.34709
G1 X92.955 Y116.639 E14.55806
G1 X92.682 Y117.122 E14.76501
G1 X92.437 Y117.627 E14.97439
G1 X92.212 Y118.17 E15.19364
G1 X92.037 Y118.675 E15.393
G1 X91.879 Y119.237 E15.61077
G1 X91.757 Y119.797 E15.82456
G1 X91.663 Y120.401 E16.05257
G1 X91.619 Y120.918 E16.24612
G1 X91.601 Y121.488 E16.45885
G1 X91.618 Y122.065 E16.67417
G1 X91.665 Y122.585 E16.86893
G1 X91.754 Y123.194 E17.09851
G1 X91.873 Y123.747 E17.30952
G1 X92.03 Y124.311 E17.5279
G1 X92.207 Y124.816 E17.72751
G1 X92.424 Y125.344 E17.94045
G1 X92.678 Y125.868 E18.15766
G1 X92.955 Y126.361 E18.3686
G1 X93.255 Y126.825 E18.57471
G1 X93.591 Y127.282 E18.78629
G1 X93.956 Y127.72 E18.99897
G1 X94.352 Y128.144 E19.21538
G1 X94.757 Y128.525 E19.4228
G1 X95.194 Y128.891 E19.63543
G1 X95.658 Y129.234 E19.85067
G1 X96.136 Y129.543 E20.06298
G1 X96.618 Y129.816 E20.26961
G1 X97.127 Y130.063 E20.48065
G1 X97.666 Y130.286 E20.69824
G1 X98.175 Y130.463 E20.89926
G1 X98.737 Y130.621 E21.11702
G1 X99.297 Y130.743 E21.33081
G1 X99.901 Y130.837 E21.55883
G1 X100.418 Y130.881 E21.75238
G1 X100.986 Y130.899 E21.96436
G1 X101.565 Y130.882 E22.18043
G0 F6000 X101.589 Y131.282
;TYPE:WALL-OUTER
G1 F1800 X102.132 Y131.233 E22.3838
G1 X102.764 Y131.14 E22.62209
G1 X103.348 Y131.013 E22.84502
G1 X103.931 Y130.852 E23.07064
G1 X104.462 Y130.665 E23.28063
G1 X105.008 Y130.441 E23.50077
G1 X105.556 Y130.176 E23.72784
G1 X106.072 Y129.885 E23.94881
G1 X106.558 Y129.571 E24.16465
G1 X107.029 Y129.224 E24.38287
G1 X107.489 Y128.841 E24.60615
G1 X107.931 Y128.427 E24.83205
G1 X108.326 Y128.007 E25.04712
G1 X108.706 Y127.552 E25.26825
G1 X109.067 Y127.064 E25.49468
G1 X109.387 Y126.568 E25.71486
G1 X109.672 Y126.064 E25.93084
G1 X109.928 Y125.537 E26.14939
G1 X110.162 Y124.972 E26.3775
G1 X110.345 Y124.445 E26.5856
G1 X110.509 Y123.86 E26.81223
G1 X110.637 Y123.277 E27.03488
G1 X110.735 Y122.647 E27.27271
G1 X110.781 Y122.105 E27.47561
G1 X110.799 Y121.512 E27.69691
G1 X110.782 Y120.905 E27.92342
G1 X110.733 Y120.368 E28.12457
G1 X110.64 Y119.734 E28.36359
G1 X110.513 Y119.152 E28.5858
G1 X110.352 Y118.569 E28.81141
G1 X110.166 Y118.038 E29.02128
G1 X109.94 Y117.489 E29.24274
G1 X109.676 Y116.944 E29.46863
G1 X109.385 Y116.428 E29.68961
G1 X109.071 Y115.942 E29.90544
G1 X108.724 Y115.471 E30.12367
G1 X108.341 Y115.011 E30.34695
G1 X107.927 Y114.569 E30.57285
G1 X107.507 Y114.174 E30.78792
G1 X107.052 Y113.794 E31.00905
G1 X106.564 Y113.433 E31.23548
G1 X106.068 Y113.113 E31.45566
G1 X105.564 Y112.828 E31.67164
G1 X105.038 Y112.572 E31.88985
G1 X104.476 Y112.34 E32.11665
G1 X103.945 Y112.155 E32.3264
G1 X103.36 Y111.991 E32.55303
G1 X102.777 Y111.863 E32.77568
G1 X102.147 Y111.765 E33.0135
G1 X101.605 Y111.719 E33.21641
G1 X101.014 Y111.701 E33.43696
G1 X100.411 Y111.718 E33.66198
G1 X99.868 Y111.767 E33.86536
G1 X99.236 Y111.86 E34.10364
G1 X98.652 Y111.987 E34.32658
G1 X98.069 Y112.148 E34.55219
G1 X97.538 Y112.335 E34.76219
G1 X96.992 Y112.559 E34.98233
G1 X96.444 Y112.824 E35.20939
G1 X95.928 Y113.115 E35.43037
G1 X95.442 Y113.429 E35.6462
G1 X94.971 Y113.776 E35.86442
G1 X94.511 Y114.159 E36.0877
G1 X94.069 Y114.573 E36.31361
G1 X93.674 Y114.993 E36.52868
G1 X93.294 Y115.448 E36.74981
G1 X92.933 Y115.936 E36.97623
G1 X92.613 Y116.432 E37.19641
G1 X92.328 Y116.936 E37.41239
G1 X92.072 Y117.463 E37.63094
G1 X91.838 Y118.028 E37.85906
G1 X91.655 Y118.555 E38.06715
G1 X91.491 Y119.14 E38.29378
G1 X91.363 Y119.723 E38.51643
G1 X91.265 Y120.353 E38.75426
G1 X91.219 Y120.895 E38.95716
G1 X91.201 Y121.488 E39.17847
G1 X91.218 Y122.089 E39.40274
G1 X91.267 Y122.632 E39.60611
G1 X91.36 Y123.265 E39.84477
G1 X91.485 Y123.843 E40.06536
G1 X91.648 Y124.431 E40.29297
G1 X91.833 Y124.958 E40.50131
G1 X92.059 Y125.508 E40.72311
G1 X92.323 Y126.054 E40.94934
G1 X92.613 Y126.568 E41.16948
G1 X92.925 Y127.052 E41.38429
G1 X93.276 Y127.528 E41.6049
G1 X93.656 Y127.985 E41.8266
G1 X94.069 Y128.427 E42.05225
G1 X94.491 Y128.824 E42.26837
G1 X94.946 Y129.205 E42.48974
G1 X95.43 Y129.563 E42.7143
G1 X95.928 Y129.885 E42.93552
G1 X96.432 Y130.17 E43.15149
G1 X96.963 Y130.428 E43.37171
G1 X97.524 Y130.66 E43.59816
G1 X98.055 Y130.845 E43.80791
G1 X98.64 Y131.009 E44.03454
G1 X99.223 Y131.137 E44.25719
G1 X99.853 Y131.235 E44.49502
G1 X100.395 Y131.281 E44.69792
G1 X100.986 Y131.299 E44.91848
G1 X101.589 Y131.282 E45.1435
G0 F6000 X101.788 Y131.265
G1 F1500 E44.1435
G1 F600 Z1.3
G0 F6000 X94.825 Y128.122 Z1.3
;TYPE:FILL
G1 F600 Z0.3
G1 F1500 E45.29893
G1 F2400 X109.657 Y124.148 E51.0267
G1 X109.823 Y123.534 E51.26395
G1 X98.965 Y112.676 E56.99187
G1 X99.672 Y112.543 E57.26022
G1 X95.371 Y128.595 E63.45914
G1 X94.987 Y128.274 E63.64583
G1 X94.594 Y127.904 E63.84717
G1 X94.212 Y127.496 E64.05566
G1 X93.856 Y127.067 E64.26361
G1 X93.446 Y126.51 E64.5216
G1 X96.96 Y113.394 E69.58667
G1 X96.523 Y113.628 E69.77158
G1 X108.881 Y125.986 E76.29078
G1 X108.457 Y126.643 E76.58246
G1 X108.239 Y126.936 E76.71869
G1 X109.989 Y120.405 E79.24082
G1 X110.036 Y120.714 E79.35741
G1 X110.056 Y121.557 E79.67195
G1 X93.16 Y126.084 E86.19679
G1 X92.732 Y125.2 E86.56316
G1 X92.523 Y124.69 E86.76875
G1 X92.229 Y123.849 E87.10108
G1 X109.757 Y119.152 E93.87004
G1 X109.91 Y119.86 E94.14024
G1 X109.973 Y120.29 E94.30235
G1 X102.205 Y112.522 E98.4002
G1 X102.165 Y112.515 E98.41534
G1 X97.518 Y129.855 E105.11174
G1 X97.561 Y129.874 E105.12928
G1 X108.168 Y127.032 E109.22546
G1 X107.768 Y127.521 E109.46112
G1 X107.404 Y127.903 E109.65794
G1 X94.596 Y115.095 E116.41454
G1 X94.232 Y115.479 E116.6119
G1 X93.83 Y115.966 E116.84746
G1 X104.437 Y113.124 E120.94364
G1 X104.481 Y113.143 E120.96151
G1 X99.835 Y130.483 E127.65782
G1 X99.794 Y130.476 E127.67333
G1 X92.025 Y122.707 E131.77171
G1 X92.009 Y122.598 E131.8128
G1 X93.761 Y116.059 E134.33801
G1 X93.546 Y116.353 E134.47387
G1 X93.243 Y116.821 E134.68184
G1 X92.986 Y117.275 E134.87644
G1 X92.744 Y117.772 E135.08264
G1 X92.528 Y118.296 E135.29406
G1 X92.341 Y118.85 E135.51217
G1 X107.188 Y114.871 E141.24583
G1 X106.627 Y114.405 E141.51787
G1 X102.327 Y130.455 E147.71597
G1 X103.034 Y130.321 E147.98439
G1 X92.177 Y119.464 E153.71177
G1 X92.092 Y119.854 E153.86067
G1 X91.968 Y120.646 E154.1597
G1 X91.943 Y121.441 E154.45639
G1 X108.813 Y116.921 E160.97119
G1 X108.55 Y116.501 E161.15604
G1 X105.04 Y129.603 E166.21568
G1 X105.476 Y129.37 E166.40008
G1 X93.128 Y117.021 E172.91428
G1 F1500 E171.91428
G1 F600 Z1.3
;MESH:NONMESH
G0 F6000 X101.565 Y130.882 Z1.3
;TIME_ELAPSED:21.606796
;LAYER:1
;MESH:Sajad.stl
G0 X101.565 Y130.882 Z1.6
;TYPE:WALL-INNER
G1 F600 Z0.6
G1 F1500 E173.0697
G1 F1800 X102.085 Y130.835 E173.26446
G1 X102.692 Y130.746 E173.49331
G1 X103.252 Y130.625 E173.70702
G1 X103.825 Y130.466 E173.92883
G1 X104.333 Y130.287 E174.12975
G1 X104.861 Y130.069 E174.34283
G1 X105.37 Y129.823 E174.55371
G1 X105.865 Y129.543 E174.76584
G1 X106.342 Y129.234 E174.97785
G1 X106.794 Y128.9 E175.18749
G1 X107.234 Y128.532 E175.40146
G1 X107.648 Y128.144 E175.61311
G1 X108.036 Y127.731 E175.82448
G1 X108.4 Y127.294 E176.03663
G1 X108.738 Y126.836 E176.24896
G1 X109.045 Y126.361 E176.45993
G1 X109.325 Y125.866 E176.67207
G1 X109.569 Y125.361 E176.88128
G1 X109.788 Y124.831 E177.0952
G1 X109.963 Y124.325 E177.29491
G1 X110.127 Y123.745 E177.51975
G1 X110.246 Y123.192 E177.73075
G1 X110.339 Y122.585 E177.95981
G1 X110.382 Y122.067 E178.1537
G1 X110.399 Y121.498 E178.36604
G1 X110.382 Y120.93 E178.57801
G1 X110.335 Y120.415 E178.77092
G1 X110.246 Y119.806 E179.0005
G1 X110.125 Y119.248 E179.21348
G1 X109.966 Y118.675 E179.4353
G1 X109.787 Y118.167 E179.63621
G1 X109.569 Y117.639 E179.84929
G1 X109.323 Y117.13 E180.06017
G1 X109.043 Y116.635 E180.27231
G1 X108.734 Y116.158 E180.48431
G1 X108.4 Y115.706 E180.69395
G1 X108.032 Y115.266 E180.90792
G1 X107.644 Y114.852 E181.11957
G1 X107.231 Y114.464 E181.33095
G1 X106.794 Y114.1 E181.5431
G1 X106.336 Y113.762 E181.75543
G1 X105.861 Y113.455 E181.9664
G1 X105.366 Y113.175 E182.17854
G1 X104.861 Y112.931 E182.38775
G1 X104.335 Y112.714 E182.6
G1 X103.825 Y112.537 E182.80137
G1 X103.25 Y112.375 E183.0242
G1 X102.69 Y112.254 E183.23792
G1 X102.085 Y112.161 E183.46624
G1 X101.567 Y112.118 E183.66013
G1 X101 Y112.101 E183.87173
G1 X100.435 Y112.118 E184.08258
G1 X99.915 Y112.165 E184.27734
G1 X99.308 Y112.254 E184.50618
G1 X98.748 Y112.375 E184.7199
G1 X98.175 Y112.534 E184.94171
G1 X97.667 Y112.713 E185.14263
G1 X97.139 Y112.931 E185.35571
G1 X96.63 Y113.177 E185.56659
G1 X96.135 Y113.457 E185.77872
G1 X95.658 Y113.766 E185.99073
G1 X95.206 Y114.1 E186.20037
G1 X94.766 Y114.468 E186.41433
G1 X94.352 Y114.856 E186.62598
G1 X93.964 Y115.269 E186.83736
G1 X93.6 Y115.706 E187.04951
G1 X93.262 Y116.164 E187.26184
G1 X92.955 Y116.639 E187.47281
G1 X92.675 Y117.134 E187.68495
G1 X92.431 Y117.639 E187.89416
G1 X92.212 Y118.169 E188.10807
G1 X92.037 Y118.675 E188.30779
G1 X91.873 Y119.255 E188.53263
G1 X91.754 Y119.808 E188.74363
G1 X91.661 Y120.415 E188.97269
G1 X91.618 Y120.933 E189.16658
G1 X91.601 Y121.501 E189.37855
G1 X91.618 Y122.065 E189.58903
G1 X91.665 Y122.585 E189.78379
G1 X91.754 Y123.194 E190.01337
G1 X91.873 Y123.747 E190.22437
G1 X92.034 Y124.325 E190.44819
G1 X92.211 Y124.829 E190.64745
G1 X92.431 Y125.361 E190.86219
G1 X92.675 Y125.866 E191.0714
G1 X92.955 Y126.361 E191.28354
G1 X93.262 Y126.836 E191.49451
G1 X93.6 Y127.294 E191.70684
G1 X93.964 Y127.731 E191.91899
G1 X94.352 Y128.144 E192.13037
G1 X94.766 Y128.532 E192.34202
G1 X95.206 Y128.9 E192.55598
G1 X95.658 Y129.234 E192.76563
G1 X96.136 Y129.543 E192.97794
G1 X96.63 Y129.823 E193.18975
G1 X97.139 Y130.069 E193.40063
G1 X97.665 Y130.286 E193.61288
G1 X98.175 Y130.463 E193.81425
G1 X98.75 Y130.625 E194.03709
G1 X99.31 Y130.746 E194.2508
G1 X99.915 Y130.839 E194.47913
G1 X100.433 Y130.882 E194.67302
G1 X101 Y130.899 E194.88461
G1 X101.565 Y130.882 E195.09547
G0 F6000 X101.589 Y131.282
;TYPE:WALL-OUTER
G1 F1800 X102.132 Y131.233 E195.29884
G1 X102.764 Y131.14 E195.53713
G1 X103.348 Y131.013 E195.76006
G1 X103.945 Y130.848 E195.9911
G1 X104.476 Y130.661 E196.2011
G1 X105.025 Y130.434 E196.4227
G1 X105.556 Y130.177 E196.64275
G1 X106.072 Y129.885 E196.86391
G1 X106.57 Y129.563 E197.08513
G1 X107.041 Y129.215 E197.30357
G1 X107.5 Y128.832 E197.52657
G1 X107.931 Y128.427 E197.74718
G1 X108.336 Y127.996 E197.96779
G1 X108.715 Y127.541 E198.18868
G1 X109.067 Y127.064 E198.40982
G1 X109.387 Y126.568 E198.63
G1 X109.679 Y126.052 E198.85116
G1 X109.934 Y125.525 E199.06954
G1 X110.162 Y124.973 E199.29232
G1 X110.345 Y124.445 E199.50077
G1 X110.515 Y123.842 E199.73447
G1 X110.64 Y123.264 E199.95506
G1 X110.737 Y122.632 E200.19357
G1 X110.782 Y122.089 E200.39681
G1 X110.799 Y121.498 E200.61736
G1 X110.782 Y120.906 E200.83828
G1 X110.733 Y120.368 E201.03979
G1 X110.64 Y119.734 E201.27882
G1 X110.513 Y119.152 E201.50102
G1 X110.348 Y118.555 E201.73206
G1 X110.161 Y118.024 E201.94206
G1 X109.934 Y117.475 E202.16366
G1 X109.677 Y116.944 E202.38372
G1 X109.385 Y116.428 E202.60488
G1 X109.063 Y115.93 E202.82609
G1 X108.715 Y115.459 E203.04454
G1 X108.332 Y115 E203.26753
G1 X107.927 Y114.569 E203.48814
G1 X107.496 Y114.164 E203.70876
G1 X107.041 Y113.785 E203.92965
G1 X106.564 Y113.433 E204.15078
G1 X106.068 Y113.113 E204.37096
G1 X105.552 Y112.821 E204.59212
G1 X105.025 Y112.566 E204.81051
G1 X104.477 Y112.34 E205.03162
G1 X103.945 Y112.155 E205.24172
G1 X103.347 Y111.987 E205.47343
G1 X102.763 Y111.86 E205.69636
G1 X102.132 Y111.763 E205.9345
G1 X101.589 Y111.718 E206.13774
G1 X101 Y111.701 E206.35754
G1 X100.411 Y111.718 E206.57734
G1 X99.868 Y111.767 E206.78072
G1 X99.236 Y111.86 E207.019
G1 X98.652 Y111.987 E207.24194
G1 X98.055 Y112.152 E207.47298
G1 X97.524 Y112.339 E207.68298
G1 X96.975 Y112.566 E207.90458
G1 X96.444 Y112.823 E208.12463
G1 X95.928 Y113.115 E208.34579
G1 X95.43 Y113.437 E208.56701
G1 X94.959 Y113.785 E208.78545
G1 X94.5 Y114.168 E209.00844
G1 X94.069 Y114.573 E209.22906
G1 X93.664 Y115.004 E209.44967
G1 X93.285 Y115.459 E209.67056
G1 X92.933 Y115.936 E209.8917
G1 X92.613 Y116.432 E210.11188
G1 X92.321 Y116.948 E210.33304
G1 X92.066 Y117.475 E210.55142
G1 X91.838 Y118.027 E210.7742
G1 X91.655 Y118.555 E210.98265
G1 X91.485 Y119.158 E211.21635
G1 X91.36 Y119.736 E211.43694
G1 X91.263 Y120.368 E211.67545
G1 X91.218 Y120.911 E211.87869
G1 X91.201 Y121.501 E212.09886
G1 X91.218 Y122.089 E212.31829
G1 X91.267 Y122.632 E212.52166
G1 X91.36 Y123.265 E212.76032
G1 X91.485 Y123.843 E212.98091
G1 X91.652 Y124.445 E213.21395
G1 X91.837 Y124.972 E213.42229
G1 X92.066 Y125.525 E213.64556
G1 X92.321 Y126.052 E213.86394
G1 X92.613 Y126.568 E214.0851
G1 X92.933 Y127.064 E214.30528
G1 X93.285 Y127.541 E214.52641
G1 X93.664 Y127.996 E214.74731
G1 X94.069 Y128.427 E214.96792
G1 X94.5 Y128.832 E215.18853
G1 X94.959 Y129.215 E215.41153
G1 X95.43 Y129.563 E215.62997
G1 X95.928 Y129.885 E215.85118
G1 X96.444 Y130.177 E216.07234
G1 X96.975 Y130.434 E216.2924
G1 X97.523 Y130.66 E216.51351
G1 X98.055 Y130.845 E216.72362
G1 X98.653 Y131.013 E216.95532
G1 X99.237 Y131.14 E217.17825
G1 X99.868 Y131.237 E217.41639
G1 X100.411 Y131.282 E217.61964
G1 X101 Y131.299 E217.83944
G1 X101.589 Y131.282 E218.05924
G0 F6000 X101.788 Y131.265
G1 F1500 E217.05924
G1 F600 Z1.6
G0 F6000 X92.016 Y120.334 Z1.6
;TYPE:FILL
G1 F600 Z0.6
G1 F1500 E218.21466
G1 F2400 X109.373 Y124.986 E224.91767
G1 X109.021 Y125.711 E225.2183
G1 X108.757 Y126.179 E225.41873
G1 X108.457 Y126.644 E225.62515
G1 X108.094 Y127.127 E225.85053
