;FLAVOR:Marlin
;TIME:760
;Filament used: 4.04868m, 0m
;Layer height: 0.3
;MINX:91.201
;MINY:111.701
;MINZ:0.3
;MAXX:110.799
;MAXY:131.299
;MAXZ:7
;Generated with Cura_SteamEngine 5.0.1
T0
M140 S40
M105
M190 S40
M104 S200
M105
M109 S200
M82 ;absolute extrusion mode
M900 K0.020;
G28 ; home all axes
G1 Z5 F5000 ; lift nozzle
G1 X-45 Y70 F2500; go to glycerin roller;
G92 E0
G1 X-23 F5000; park to start
G92 E0; Extrude a small amount to clear nozzle
G1 E20 F4000
G4 P2000
G92 E0


G92 E0
G1 F1500 E-1
;LAYER_COUNT:20
;LAYER:0
M107
M204 S500
G1 F600 Z1.3
;MESH:Sajad.stl
G0 F6000 X101.565 Y130.882 Z1.3
;TYPE:WALL-INNER
G1 F600 Z0.3
G1 F1500 E0.15542
G1 F1800 X102.085 Y130.835 E0.35019
G1 X102.692 Y130.746 E0.57903
G1 X103.252 Y130.625 E0.79274
G1 X103.811 Y130.47 E1.00913
G1 X104.32 Y130.291 E1.21039
G1 X104.845 Y130.075 E1.42215
G1 X105.37 Y129.821 E1.6397
G1 X105.865 Y129.543 E1.85148
G1 X106.33 Y129.242 E2.0581
G1 X106.782 Y128.909 E2.26752
G1 X107.224 Y128.541 E2.48206
G1 X107.648 Y128.144 E2.69873
G1 X108.026 Y127.741 E2.90483
G1 X108.392 Y127.304 E3.11746
G1 X108.738 Y126.836 E3.33456
G1 X109.045 Y126.361 E3.54553
G1 X109.318 Y125.878 E3.75249
G1 X109.563 Y125.373 E3.96186
G1 X109.788 Y124.83 E4.18111
G1 X109.963 Y124.325 E4.38048
G1 X110.121 Y123.763 E4.59824
G1 X110.243 Y123.203 E4.81203
G1 X110.337 Y122.599 E5.04005
G1 X110.381 Y122.082 E5.2336
G1 X110.399 Y121.512 E5.44632
G1 X110.382 Y120.929 E5.66389
G1 X110.335 Y120.415 E5.85642
G1 X110.246 Y119.806 E6.086
G1 X110.125 Y119.248 E6.29898
G1 X109.97 Y118.689 E6.51537
G1 X109.792 Y118.18 E6.71651
G1 X109.574 Y117.653 E6.92925
G1 X109.322 Y117.13 E7.1458
G1 X109.043 Y116.635 E7.35775
G1 X108.742 Y116.17 E7.56438
G1 X108.409 Y115.718 E7.7738
G1 X108.041 Y115.276 E7.98834
G1 X107.644 Y114.852 E8.205
G1 X107.241 Y114.474 E8.41111
G1 X106.804 Y114.108 E8.62374
G1 X106.336 Y113.762 E8.84084
G1 X105.861 Y113.455 E9.05181
G1 X105.378 Y113.182 E9.25877
G1 X104.874 Y112.937 E9.46781
G1 X104.334 Y112.714 E9.68574
G1 X103.825 Y112.537 E9.88676
G1 X103.263 Y112.379 E10.10452
G1 X102.703 Y112.257 E10.31831
G1 X102.099 Y112.163 E10.54633
G1 X101.582 Y112.119 E10.73987
G1 X101.014 Y112.101 E10.95186
G1 X100.435 Y112.118 E11.16793
G1 X99.915 Y112.165 E11.36269
G1 X99.308 Y112.254 E11.59153
G1 X98.748 Y112.375 E11.80524
G1 X98.189 Y112.53 E12.02163
G1 X97.68 Y112.709 E12.22289
G1 X97.155 Y112.924 E12.43451
G1 X96.63 Y113.179 E12.65223
G1 X96.135 Y113.457 E12.864
G1 X95.67 Y113.758 E13.07062
G1 X95.218 Y114.091 E13.28004
G1 X94.776 Y114.459 E13.49458
G1 X94.352 Y114.856 E13.71125
G1 X93.974 Y115.259 E13.91736
G1 X93.608 Y115.696 E14.12998
G1 X93.262 Y116.164 E14.34709
G1 X92.955 Y116.639 E14.55806
G1 X92.682 Y117.122 E14.76501
G1 X92.437 Y117.627 E14.97439
G1 X92.212 Y118.17 E15.19364
G1 X92.037 Y118.675 E15.393
G1 X91.879 Y119.237 E15.61077
G1 X91.757 Y119.797 E15.82456
G1 X91.663 Y120.401 E16.05257
G1 X91.619 Y120.918 E16.24612
G1 X91.601 Y121.488 E16.45885
G1 X91.618 Y122.065 E16.67417
G1 X91.665 Y122.585 E16.86893
G1 X91.754 Y123.194 E17.09851
G1 X91.873 Y123.747 E17.30952
G1 X92.03 Y124.311 E17.5279
G1 X92.207 Y124.816 E17.72751
G1 X92.424 Y125.344 E17.94045
G1 X92.678 Y125.868 E18.15766
G1 X92.955 Y126.361 E18.3686
G1 X93.255 Y126.825 E18.57471
G1 X93.591 Y127.282 E18.78629
G1 X93.956 Y127.72 E18.99897
G1 X94.352 Y128.144 E19.21538
G1 X94.757 Y128.525 E19.4228
G1 X95.194 Y128.891 E19.63543
G1 X95.658 Y129.234 E19.85067
G1 X96.136 Y129.543 E20.06298
G1 X96.618 Y129.816 E20.26961
G1 X97.127 Y130.063 E20.48065
G1 X97.666 Y130.286 E20.69824
G1 X98.175 Y130.463 E20.89926
G1 X98.737 Y130.621 E21.11702
G1 X99.297 Y130.743 E21.33081
G1 X99.901 Y130.837 E21.55883
G1 X100.418 Y130.881 E21.75238
G1 X100.986 Y130.899 E21.96436
G1 X101.565 Y130.882 E22.18043
G0 F6000 X101.589 Y131.282
;TYPE:WALL-OUTER
G1 F1800 X102.132 Y131.233 E22.3838
G1 X102.764 Y131.14 E22.62209
G1 X103.348 Y131.013 E22.84502
G1 X103.931 Y130.852 E23.07064
G1 X104.462 Y130.665 E23.28063
G1 X105.008 Y130.441 E23.50077
G1 X105.556 Y130.176 E23.72784
G1 X106.072 Y129.885 E23.94881
G1 X106.558 Y129.571 E24.16465
G1 X107.029 Y129.224 E24.38287
G1 X107.489 Y128.841 E24.60615
G1 X107.931 Y128.427 E24.83205
G1 X108.326 Y128.007 E25.04712
G1 X108.706 Y127.552 E25.26825
G1 X109.067 Y127.064 E25.49468
G1 X109.387 Y126.568 E25.71486
G1 X109.672 Y126.064 E25.93084
G1 X109.928 Y125.537 E26.14939
G1 X110.162 Y124.972 E26.3775
G1 X110.345 Y124.445 E26.5856
G1 X110.509 Y123.86 E26.81223
G1 X110.637 Y123.277 E27.03488
G1 X110.735 Y122.647 E27.27271
G1 X110.781 Y122.105 E27.47561
G1 X110.799 Y121.512 E27.69691
G1 X110.782 Y120.905 E27.92342
G1 X110.733 Y120.368 E28.12457
G1 X110.64 Y119.734 E28.36359
G1 X110.513 Y119.152 E28.5858
G1 X110.352 Y118.569 E28.81141
G1 X110.166 Y118.038 E29.02128
G1 X109.94 Y117.489 E29.24274
G1 X109.676 Y116.944 E29.46863
G1 X109.385 Y116.428 E29.68961
G1 X109.071 Y115.942 E29.90544
G1 X108.724 Y115.471 E30.12367
G1 X108.341 Y115.011 E30.34695
G1 X107.927 Y114.569 E30.57285
G1 X107.507 Y114.174 E30.78792
G1 X107.052 Y113.794 E31.00905
G1 X106.564 Y113.433 E31.23548
G1 X106.068 Y113.113 E31.45566
G1 X105.564 Y112.828 E31.67164
G1 X105.038 Y112.572 E31.88985
G1 X104.476 Y112.34 E32.11665
G1 X103.945 Y112.155 E32.3264
G1 X103.36 Y111.991 E32.55303
G1 X102.777 Y111.863 E32.77568
G1 X102.147 Y111.765 E33.0135
G1 X101.605 Y111.719 E33.21641
G1 X101.014 Y111.701 E33.43696
G1 X100.411 Y111.718 E33.66198
G1 X99.868 Y111.767 E33.86536
G1 X99.236 Y111.86 E34.10364
G1 X98.652 Y111.987 E34.32658
G1 X98.069 Y112.148 E34.55219
G1 X97.538 Y112.335 E34.76219
G1 X96.992 Y112.559 E34.98233
G1 X96.444 Y112.824 E35.20939
G1 X95.928 Y113.115 E35.43037
G1 X95.442 Y113.429 E35.6462
G1 X94.971 Y113.776 E35.86442
G1 X94.511 Y114.159 E36.0877
G1 X94.069 Y114.573 E36.31361
G1 X93.674 Y114.993 E36.52868
G1 X93.294 Y115.448 E36.74981
G1 X92.933 Y115.936 E36.97623
G1 X92.613 Y116.432 E37.19641
G1 X92.328 Y116.936 E37.41239
G1 X92.072 Y117.463 E37.63094
G1 X91.838 Y118.028 E37.85906
G1 X91.655 Y118.555 E38.06715
G1 X91.491 Y119.14 E38.29378
G1 X91.363 Y119.723 E38.51643
G1 X91.265 Y120.353 E38.75426
G1 X91.219 Y120.895 E38.95716
G1 X91.201 Y121.488 E39.17847
G1 X91.218 Y122.089 E39.40274
G1 X91.267 Y122.632 E39.60611
G1 X91.36 Y123.265 E39.84477
G1 X91.485 Y123.843 E40.06536
G1 X91.648 Y124.431 E40.29297
G1 X91.833 Y124.958 E40.50131
G1 X92.059 Y125.508 E40.72311
G1 X92.323 Y126.054 E40.94934
G1 X92.613 Y126.568 E41.16948
G1 X92.925 Y127.052 E41.38429
G1 X93.276 Y127.528 E41.6049
G1 X93.656 Y127.985 E41.8266
G1 X94.069 Y128.427 E42.05225
G1 X94.491 Y128.824 E42.26837
G1 X94.946 Y129.205 E42.48974
G1 X95.43 Y129.563 E42.7143
G1 X95.928 Y129.885 E42.93552
G1 X96.432 Y130.17 E43.15149
G1 X96.963 Y130.428 E43.37171
G1 X97.524 Y130.66 E43.59816
G1 X98.055 Y130.845 E43.80791
G1 X98.64 Y131.009 E44.03454
G1 X99.223 Y131.137 E44.25719
G1 X99.853 Y131.235 E44.49502
G1 X100.395 Y131.281 E44.69792
G1 X100.986 Y131.299 E44.91848
G1 X101.589 Y131.282 E45.1435
G0 F6000 X101.788 Y131.265
G1 F1500 E44.1435
G1 F600 Z1.3
G0 F6000 X102.13 Y130.168 Z1.3
;TYPE:FILL
G1 F600 Z0.3
G1 F1500 E45.29893
G1 F2400 X101.376 Y130.168 E45.58018
G1 X101.376 Y129.414 E45.86144
G1 X101.753 Y129.414 E46.00207
G1 X102.13 Y129.037 E46.20095
G1 X101.753 Y128.66 E46.39982
G1 X101.376 Y128.66 E46.54045
G1 X101.376 Y127.906 E46.82171
G1 X102.13 Y127.906 E47.10297
G1 X102.13 Y128.283 E47.24359
G1 X102.507 Y128.66 E47.44247
G1 X102.884 Y128.283 E47.64135
G1 X102.884 Y127.906 E47.78198
G1 X103.638 Y127.906 E48.06324
G1 X103.638 Y128.66 E48.34449
G1 X103.261 Y128.66 E48.48512
G1 X102.884 Y129.037 E48.684
G1 X103.261 Y129.414 E48.88288
G1 X103.638 Y129.414 E49.02351
G1 X103.638 Y129.791 E49.16413
G1 X103.918 Y130.071 E49.31184
G1 X103.34 Y130.247 E49.53722
G1 X103.261 Y130.168 E49.5789
G1 X102.884 Y130.168 E49.71952
G1 X102.884 Y129.791 E49.86015
G1 X102.507 Y129.414 E50.05903
G1 X102.13 Y129.791 E50.25791
G1 X102.13 Y130.168 E50.39854
G1 F1500 E49.39854
G1 F600 Z1.3
G0 F6000 X100.623 Y130.168 Z1.3
G1 F600 Z0.3
G1 F1500 E50.55396
G1 F2400 X99.869 Y130.168 E50.83522
G1 X99.869 Y129.791 E50.97585
G1 X99.492 Y129.414 E51.17473
G1 X99.115 Y129.791 E51.3736
G1 X99.115 Y130.168 E51.51423
G1 X98.738 Y130.168 E51.65486
G1 X98.66 Y130.246 E51.69601
G1 X98.082 Y130.07 E51.92139
G1 X98.361 Y129.791 E52.06857
G1 X98.361 Y129.414 E52.2092
G1 X98.738 Y129.414 E52.34983
G1 X99.115 Y129.037 E52.5487
G1 X98.738 Y128.66 E52.74758
G1 X98.361 Y128.66 E52.88821
G1 X98.361 Y127.906 E53.16947
G1 X99.115 Y127.906 E53.45072
G1 X99.115 Y128.283 E53.59135
G1 X99.492 Y128.66 E53.79023
G1 X99.869 Y128.283 E53.98911
G1 X99.869 Y127.906 E54.12974
G1 X100.623 Y127.906 E54.41099
G1 X100.623 Y128.66 E54.69225
G1 X100.246 Y128.66 E54.83288
G1 X99.869 Y129.037 E55.03176
G1 X100.246 Y129.414 E55.23064
G1 X100.623 Y129.414 E55.37126
G1 X100.623 Y130.168 E55.65252
G1 F1500 E54.65252
G1 F600 Z1.3
G0 F6000 X97.782 Y129.966 Z1.3
G1 F600 Z0.3
G1 F1500 E55.80795
G1 F2400 X97.265 Y129.752 E56.01666
G1 X96.78 Y129.517 E56.2177
G1 X96.04 Y129.097 E56.53509
G1 X96.1 Y129.037 E56.56674
G1 X95.723 Y128.66 E56.76562
G1 X95.454 Y128.66 E56.86597
G1 X95.346 Y128.575 E56.91723
G1 X95.346 Y128.283 E57.02615
G1 X94.97 Y127.906 E57.22477
G1 X94.789 Y128.087 E57.32025
G1 X94.412 Y127.71 E57.51913
G1 X94.593 Y127.53 E57.61435
G1 X94.216 Y127.153 E57.81323
G1 X93.927 Y127.153 E57.92103
G1 X93.839 Y127.044 E57.97329
G1 X93.839 Y126.776 E58.07326
G1 X93.462 Y126.399 E58.27213
G1 X93.401 Y126.46 E58.30431
G1 X92.981 Y125.714 E58.62366
G1 X92.732 Y125.2 E58.8367
G1 X92.534 Y124.718 E59.03108
G1 X92.708 Y124.891 E59.1226
G1 X93.085 Y124.891 E59.26323
G1 X93.085 Y125.268 E59.40386
G1 X93.462 Y125.645 E59.60274
G1 X93.839 Y125.268 E59.80162
G1 X93.839 Y124.891 E59.94224
G1 X94.593 Y124.891 E60.2235
G1 X94.593 Y125.645 E60.50476
G1 X94.216 Y125.645 E60.64539
G1 X93.839 Y126.022 E60.84426
G1 X94.216 Y126.399 E61.04314
G1 X94.593 Y126.399 E61.18377
G1 X94.593 Y126.776 E61.3244
G1 X94.97 Y127.153 E61.52328
G1 X95.346 Y126.776 E61.72189
G1 X95.346 Y126.399 E61.86252
G1 X95.723 Y126.399 E62.00315
G1 X96.1 Y126.022 E62.20203
G1 X95.723 Y125.645 E62.40091
G1 X95.346 Y125.645 E62.54154
G1 X95.346 Y124.891 E62.82279
G1 X96.1 Y124.891 E63.10405
G1 X96.1 Y125.268 E63.24468
G1 X96.477 Y125.645 E63.44356
G1 X96.854 Y125.268 E63.64243
G1 X96.854 Y124.891 E63.78306
G1 X97.231 Y124.891 E63.92369
G1 X97.608 Y124.515 E64.12231
G1 X97.231 Y124.138 E64.32118
G1 X96.854 Y124.138 E64.46181
G1 X96.854 Y123.761 E64.60244
G1 X96.477 Y123.384 E64.80132
G1 X96.1 Y123.761 E65.0002
G1 X96.1 Y124.138 E65.14083
G1 X95.346 Y124.138 E65.42208
G1 X95.346 Y123.384 E65.70334
G1 X95.723 Y123.384 E65.84397
G1 X96.1 Y123.007 E66.04285
G1 X95.723 Y122.63 E66.24172
G1 X95.346 Y122.63 E66.38235
G1 X95.346 Y121.876 E66.66361
G1 X96.1 Y121.876 E66.94487
G1 X96.1 Y122.253 E67.08549
G1 X96.477 Y122.63 E67.28437
G1 X96.854 Y122.253 E67.48325
G1 X96.854 Y121.876 E67.62388
G1 X97.608 Y121.876 E67.90514
G1 X97.608 Y122.63 E68.18639
G1 X97.231 Y122.63 E68.32702
G1 X96.854 Y123.007 E68.5259
G1 X97.231 Y123.384 E68.72478
G1 X97.608 Y123.384 E68.86541
G1 X97.608 Y123.761 E69.00603
G1 X97.985 Y124.138 E69.20491
G1 X98.361 Y123.761 E69.40353
G1 X98.361 Y123.384 E69.54416
G1 X98.738 Y123.384 E69.68478
G1 X99.115 Y123.007 E69.88366
G1 X98.738 Y122.63 E70.08254
G1 X98.361 Y122.63 E70.22317
G1 X98.361 Y121.876 E70.50443
G1 X99.115 Y121.876 E70.78568
G1 X99.115 Y122.253 E70.92631
G1 X99.492 Y122.63 E71.12519
G1 X99.869 Y122.253 E71.32407
G1 X99.869 Y121.876 E71.4647
G1 X100.246 Y121.876 E71.60532
G1 X100.623 Y121.5 E71.80394
G1 X100.246 Y121.123 E72.00282
G1 X99.869 Y121.123 E72.14345
G1 X99.869 Y120.746 E72.28407
G1 X99.492 Y120.369 E72.48295
G1 X99.115 Y120.746 E72.68183
G1 X99.115 Y121.123 E72.82246
G1 X98.361 Y121.123 E73.10372
G1 X98.361 Y120.369 E73.38497
G1 X98.738 Y120.369 E73.5256
G1 X99.115 Y119.992 E73.72448
G1 X98.738 Y119.615 E73.92336
G1 X98.361 Y119.615 E74.06399
G1 X98.361 Y119.238 E74.20462
G1 X97.985 Y118.861 E74.40323
G1 X97.608 Y119.238 E74.60211
G1 X97.608 Y119.615 E74.74274
G1 X97.231 Y119.615 E74.88336
G1 X96.854 Y119.992 E75.08224
G1 X97.231 Y120.369 E75.28112
G1 X97.608 Y120.369 E75.42175
G1 X97.608 Y121.123 E75.70301
G1 X96.854 Y121.123 E75.98426
G1 X96.854 Y120.746 E76.12489
G1 X96.477 Y120.369 E76.32377
G1 X96.1 Y120.746 E76.52265
G1 X96.1 Y121.123 E76.66328
G1 X95.346 Y121.123 E76.94453
G1 X95.346 Y120.369 E77.22579
G1 X95.723 Y120.369 E77.36642
G1 X96.1 Y119.992 E77.5653
G1 X95.723 Y119.615 E77.76418
G1 X95.346 Y119.615 E77.9048
G1 X95.346 Y118.861 E78.18606
G1 X96.1 Y118.861 E78.46732
G1 X96.1 Y119.238 E78.60795
G1 X96.477 Y119.615 E78.80682
G1 X96.854 Y119.238 E79.0057
G1 X96.854 Y118.861 E79.14633
G1 X97.231 Y118.861 E79.28696
G1 X97.608 Y118.485 E79.48557
G1 X97.231 Y118.108 E79.68445
G1 X96.854 Y118.108 E79.82508
G1 X96.854 Y117.731 E79.96571
G1 X96.477 Y117.354 E80.16459
G1 X96.1 Y117.731 E80.36347
G1 X96.1 Y118.108 E80.50409
G1 X95.346 Y118.108 E80.78535
G1 X95.346 Y117.354 E81.06661
G1 X95.723 Y117.354 E81.20724
G1 X96.1 Y116.977 E81.40611
G1 X95.723 Y116.6 E81.60499
G1 X95.346 Y116.6 E81.74562
G1 X95.346 Y116.223 E81.88625
G1 X94.97 Y115.846 E82.08486
G1 X94.593 Y116.223 E82.28374
G1 X94.593 Y116.6 E82.42437
G1 X94.216 Y116.6 E82.565
G1 X93.839 Y116.977 E82.76388
G1 X94.216 Y117.354 E82.96276
G1 X94.593 Y117.354 E83.10338
G1 X94.593 Y118.108 E83.38464
G1 X93.839 Y118.108 E83.6659
G1 X93.839 Y117.731 E83.80653
G1 X93.462 Y117.354 E84.0054
G1 X93.085 Y117.731 E84.20428
G1 X93.085 Y118.108 E84.34491
G1 X92.708 Y118.108 E84.48554
G1 X92.534 Y118.282 E84.57733
G1 X92.744 Y117.772 E84.78307
G1 X92.986 Y117.275 E84.98927
G1 X93.402 Y116.54 E85.3043
G1 X93.462 Y116.6 E85.33596
G1 X93.839 Y116.223 E85.53483
G1 X93.839 Y115.956 E85.63443
G1 X93.926 Y115.846 E85.68674
G1 X94.216 Y115.846 E85.79492
G1 X94.593 Y115.47 E85.99353
G1 X94.412 Y115.289 E86.08902
G1 X94.789 Y114.912 E86.2879
G1 X94.97 Y115.093 E86.38338
G1 X95.346 Y114.716 E86.58199
G1 X95.346 Y114.427 E86.6898
G1 X95.454 Y114.339 E86.74176
G1 X95.723 Y114.339 E86.8421
G1 X96.1 Y113.962 E87.04098
G1 X96.04 Y113.902 E87.07264
G1 X96.781 Y113.483 E87.39017
G1 X97.293 Y113.235 E87.60238
G1 X97.781 Y113.035 E87.79911
G1 X97.608 Y113.208 E87.89037
G1 X97.608 Y113.585 E88.031
G1 X97.231 Y113.585 E88.17163
G1 X96.854 Y113.962 E88.37051
G1 X97.231 Y114.339 E88.56939
G1 X97.608 Y114.339 E88.71001
G1 X97.608 Y115.093 E88.99127
G1 X96.854 Y115.093 E89.27253
G1 X96.854 Y114.716 E89.41316
G1 X96.477 Y114.339 E89.61203
G1 X96.1 Y114.716 E89.81091
G1 X96.1 Y115.093 E89.95154
G1 X95.723 Y115.093 E90.09217
G1 X95.346 Y115.47 E90.29105
G1 X95.723 Y115.846 E90.48966
G1 X96.1 Y115.846 E90.63029
G1 X96.1 Y116.223 E90.77092
G1 X96.477 Y116.6 E90.9698
G1 X96.854 Y116.223 E91.16868
G1 X96.854 Y115.846 E91.3093
G1 X97.608 Y115.846 E91.59056
G1 X97.608 Y116.6 E91.87182
G1 X97.231 Y116.6 E92.01245
G1 X96.854 Y116.977 E92.21132
G1 X97.231 Y117.354 E92.4102
G1 X97.608 Y117.354 E92.55083
G1 X97.608 Y117.731 E92.69146
G1 X97.985 Y118.108 E92.89034
G1 X98.361 Y117.731 E93.08895
G1 X98.361 Y117.354 E93.22958
G1 X98.738 Y117.354 E93.37021
G1 X99.115 Y116.977 E93.56909
G1 X98.738 Y116.6 E93.76797
G1 X98.361 Y116.6 E93.9086
G1 X98.361 Y115.846 E94.18985
G1 X99.115 Y115.846 E94.47111
G1 X99.115 Y116.223 E94.61174
G1 X99.492 Y116.6 E94.81062
G1 X99.869 Y116.223 E95.00949
G1 X99.869 Y115.846 E95.15012
G1 X100.623 Y115.846 E95.43138
G1 X100.623 Y116.6 E95.71264
G1 X100.246 Y116.6 E95.85326
G1 X99.869 Y116.977 E96.05214
G1 X100.246 Y117.354 E96.25102
G1 X100.623 Y117.354 E96.39165
G1 X100.623 Y118.108 E96.67291
G1 X99.869 Y118.108 E96.95416
G1 X99.869 Y117.731 E97.09479
G1 X99.492 Y117.354 E97.29367
G1 X99.115 Y117.731 E97.49255
G1 X99.115 Y118.108 E97.63318
G1 X98.738 Y118.108 E97.7738
G1 X98.361 Y118.485 E97.97268
G1 X98.738 Y118.861 E98.1713
G1 X99.115 Y118.861 E98.31193
G1 X99.115 Y119.238 E98.45255
G1 X99.492 Y119.615 E98.65143
G1 X99.869 Y119.238 E98.85031
G1 X99.869 Y118.861 E98.99094
G1 X100.623 Y118.861 E99.2722
