;FLAVOR:Marlin
;TIME:517
;Filament used: 3.472m, 0m
;Layer height: 0.3
;MINX:91.201
;MINY:111.701
;MINZ:0.3
;MAXX:110.799
;MAXY:131.299
;MAXZ:6
;Generated with Cura_SteamEngine 5.0.1
T0
M140 S40
M105
M190 S40
M104 S200
M105
M109 S200
M82 ;absolute extrusion mode
M900 K0.020;
G28 ; home all axes
G1 Z5 F5000 ; lift nozzle
G1 X-45 Y70 F2500; go to glycerin roller;
G92 E0
G1 X-23 F5000; park to start
G92 E0; Extrude a small amount to clear nozzle
G1 E20 F4000
G4 P2000
G92 E0


G92 E0
G1 F1500 E-1
;LAYER_COUNT:20
;LAYER:0
M107
M204 S500
G1 F600 Z1.3
;MESH:Sajad.stl
G0 F6000 X101.565 Y130.882 Z1.3
;TYPE:WALL-INNER
G1 F600 Z0.3
G1 F1500 E0.15542
G1 F1800 X102.085 Y130.835 E0.35019
G1 X102.692 Y130.746 E0.57903
G1 X103.252 Y130.625 E0.79274
G1 X103.811 Y130.47 E1.00913
G1 X104.32 Y130.291 E1.21039
G1 X104.845 Y130.075 E1.42215
G1 X105.37 Y129.821 E1.6397
G1 X105.865 Y129.543 E1.85148
G1 X106.33 Y129.242 E2.0581
G1 X106.782 Y128.909 E2.26752
G1 X107.224 Y128.541 E2.48206
G1 X107.648 Y128.144 E2.69873
G1 X108.026 Y127.741 E2.90483
G1 X108.392 Y127.304 E3.11746
G1 X108.738 Y126.836 E3.33456
G1 X109.045 Y126.361 E3.54553
G1 X109.318 Y125.878 E3.75249
G1 X109.563 Y125.373 E3.96186
G1 X109.788 Y124.83 E4.18111
G1 X109.963 Y124.325 E4.38048
G1 X110.121 Y123.763 E4.59824
G1 X110.243 Y123.203 E4.81203
G1 X110.337 Y122.599 E5.04005
G1 X110.381 Y122.082 E5.2336
G1 X110.399 Y121.512 E5.44632
G1 X110.382 Y120.929 E5.66389
G1 X110.335 Y120.415 E5.85642
G1 X110.246 Y119.806 E6.086
G1 X110.125 Y119.248 E6.29898
G1 X109.97 Y118.689 E6.51537
G1 X109.792 Y118.18 E6.71651
G1 X109.574 Y117.653 E6.92925
G1 X109.322 Y117.13 E7.1458
G1 X109.043 Y116.635 E7.35775
G1 X108.742 Y116.17 E7.56438
G1 X108.409 Y115.718 E7.7738
G1 X108.041 Y115.276 E7.98834
G1 X107.644 Y114.852 E8.205
G1 X107.241 Y114.474 E8.41111
G1 X106.804 Y114.108 E8.62374
G1 X106.336 Y113.762 E8.84084
G1 X105.861 Y113.455 E9.05181
G1 X105.378 Y113.182 E9.25877
G1 X104.874 Y112.937 E9.46781
G1 X104.334 Y112.714 E9.68574
G1 X103.825 Y112.537 E9.88676
G1 X103.263 Y112.379 E10.10452
G1 X102.703 Y112.257 E10.31831
G1 X102.099 Y112.163 E10.54633
G1 X101.582 Y112.119 E10.73987
G1 X101.014 Y112.101 E10.95186
G1 X100.435 Y112.118 E11.16793
G1 X99.915 Y112.165 E11.36269
G1 X99.308 Y112.254 E11.59153
G1 X98.748 Y112.375 E11.80524
G1 X98.189 Y112.53 E12.02163
G1 X97.68 Y112.709 E12.22289
G1 X97.155 Y112.924 E12.43451
G1 X96.63 Y113.179 E12.65223
G1 X96.135 Y113.457 E12.864
G1 X95.67 Y113.758 E13.07062
G1 X95.218 Y114.091 E13.28004
G1 X94.776 Y114.459 E13.49458
G1 X94.352 Y114.856 E13.71125
G1 X93.974 Y115.259 E13.91736
G1 X93.608 Y115.696 E14.12998
G1 X93.262 Y116.164 E14.34709
G1 X92.955 Y116.639 E14.55806
G1 X92.682 Y117.122 E14.76501
G1 X92.437 Y117.627 E14.97439
G1 X92.212 Y118.17 E15.19364
G1 X92.037 Y118.675 E15.393
G1 X91.879 Y119.237 E15.61077
G1 X91.757 Y119.797 E15.82456
G1 X91.663 Y120.401 E16.05257
G1 X91.619 Y120.918 E16.24612
G1 X91.601 Y121.488 E16.45885
G1 X91.618 Y122.065 E16.67417
G1 X91.665 Y122.585 E16.86893
G1 X91.754 Y123.194 E17.09851
G1 X91.873 Y123.747 E17.30952
G1 X92.03 Y124.311 E17.5279
G1 X92.207 Y124.816 E17.72751
G1 X92.424 Y125.344 E17.94045
G1 X92.678 Y125.868 E18.15766
G1 X92.955 Y126.361 E18.3686
G1 X93.255 Y126.825 E18.57471
G1 X93.591 Y127.282 E18.78629
G1 X93.956 Y127.72 E18.99897
G1 X94.352 Y128.144 E19.21538
G1 X94.757 Y128.525 E19.4228
G1 X95.194 Y128.891 E19.63543
G1 X95.658 Y129.234 E19.85067
G1 X96.136 Y129.543 E20.06298
G1 X96.618 Y129.816 E20.26961
G1 X97.127 Y130.063 E20.48065
G1 X97.666 Y130.286 E20.69824
G1 X98.175 Y130.463 E20.89926
G1 X98.737 Y130.621 E21.11702
G1 X99.297 Y130.743 E21.33081
G1 X99.901 Y130.837 E21.55883
G1 X100.418 Y130.881 E21.75238
G1 X100.986 Y130.899 E21.96436
G1 X101.565 Y130.882 E22.18043
G0 F6000 X101.589 Y131.282
;TYPE:WALL-OUTER
G1 F1800 X102.132 Y131.233 E22.3838
G1 X102.764 Y131.14 E22.62209
G1 X103.348 Y131.013 E22.84502
G1 X103.931 Y130.852 E23.07064
G1 X104.462 Y130.665 E23.28063
G1 X105.008 Y130.441 E23.50077
G1 X105.556 Y130.176 E23.72784
G1 X106.072 Y129.885 E23.94881
G1 X106.558 Y129.571 E24.16465
G1 X107.029 Y129.224 E24.38287
G1 X107.489 Y128.841 E24.60615
G1 X107.931 Y128.427 E24.83205
G1 X108.326 Y128.007 E25.04712
G1 X108.706 Y127.552 E25.26825
G1 X109.067 Y127.064 E25.49468
G1 X109.387 Y126.568 E25.71486
G1 X109.672 Y126.064 E25.93084
G1 X109.928 Y125.537 E26.14939
G1 X110.162 Y124.972 E26.3775
G1 X110.345 Y124.445 E26.5856
G1 X110.509 Y123.86 E26.81223
G1 X110.637 Y123.277 E27.03488
G1 X110.735 Y122.647 E27.27271
G1 X110.781 Y122.105 E27.47561
G1 X110.799 Y121.512 E27.69691
G1 X110.782 Y120.905 E27.92342
G1 X110.733 Y120.368 E28.12457
G1 X110.64 Y119.734 E28.36359
G1 X110.513 Y119.152 E28.5858
G1 X110.352 Y118.569 E28.81141
G1 X110.166 Y118.038 E29.02128
G1 X109.94 Y117.489 E29.24274
G1 X109.676 Y116.944 E29.46863
G1 X109.385 Y116.428 E29.68961
G1 X109.071 Y115.942 E29.90544
G1 X108.724 Y115.471 E30.12367
G1 X108.341 Y115.011 E30.34695
G1 X107.927 Y114.569 E30.57285
G1 X107.507 Y114.174 E30.78792
G1 X107.052 Y113.794 E31.00905
G1 X106.564 Y113.433 E31.23548
G1 X106.068 Y113.113 E31.45566
G1 X105.564 Y112.828 E31.67164
G1 X105.038 Y112.572 E31.88985
G1 X104.476 Y112.34 E32.11665
G1 X103.945 Y112.155 E32.3264
G1 X103.36 Y111.991 E32.55303
G1 X102.777 Y111.863 E32.77568
G1 X102.147 Y111.765 E33.0135
G1 X101.605 Y111.719 E33.21641
G1 X101.014 Y111.701 E33.43696
G1 X100.411 Y111.718 E33.66198
G1 X99.868 Y111.767 E33.86536
G1 X99.236 Y111.86 E34.10364
G1 X98.652 Y111.987 E34.32658
G1 X98.069 Y112.148 E34.55219
G1 X97.538 Y112.335 E34.76219
G1 X96.992 Y112.559 E34.98233
G1 X96.444 Y112.824 E35.20939
G1 X95.928 Y113.115 E35.43037
G1 X95.442 Y113.429 E35.6462
G1 X94.971 Y113.776 E35.86442
G1 X94.511 Y114.159 E36.0877
G1 X94.069 Y114.573 E36.31361
G1 X93.674 Y114.993 E36.52868
G1 X93.294 Y115.448 E36.74981
G1 X92.933 Y115.936 E36.97623
G1 X92.613 Y116.432 E37.19641
G1 X92.328 Y116.936 E37.41239
G1 X92.072 Y117.463 E37.63094
G1 X91.838 Y118.028 E37.85906
G1 X91.655 Y118.555 E38.06715
G1 X91.491 Y119.14 E38.29378
G1 X91.363 Y119.723 E38.51643
G1 X91.265 Y120.353 E38.75426
G1 X91.219 Y120.895 E38.95716
G1 X91.201 Y121.488 E39.17847
G1 X91.218 Y122.089 E39.40274
G1 X91.267 Y122.632 E39.60611
G1 X91.36 Y123.265 E39.84477
G1 X91.485 Y123.843 E40.06536
G1 X91.648 Y124.431 E40.29297
G1 X91.833 Y124.958 E40.50131
G1 X92.059 Y125.508 E40.72311
G1 X92.323 Y126.054 E40.94934
G1 X92.613 Y126.568 E41.16948
G1 X92.925 Y127.052 E41.38429
G1 X93.276 Y127.528 E41.6049
G1 X93.656 Y127.985 E41.8266
G1 X94.069 Y128.427 E42.05225
G1 X94.491 Y128.824 E42.26837
G1 X94.946 Y129.205 E42.48974
G1 X95.43 Y129.563 E42.7143
G1 X95.928 Y129.885 E42.93552
G1 X96.432 Y130.17 E43.15149
G1 X96.963 Y130.428 E43.37171
G1 X97.524 Y130.66 E43.59816
G1 X98.055 Y130.845 E43.80791
G1 X98.64 Y131.009 E44.03454
G1 X99.223 Y131.137 E44.25719
G1 X99.853 Y131.235 E44.49502
G1 X100.395 Y131.281 E44.69792
G1 X100.986 Y131.299 E44.91848
G1 X101.589 Y131.282 E45.1435
G0 F6000 X101.788 Y131.265
G0 X101.788 Y130.536
;TYPE:FILL
G1 F2400 X101.377 Y130.548 E45.29688
G1 X101.333 Y130.504 E45.32009
G1 X101.333 Y129.837 E45.56889
G1 X102 Y129.837 E45.8177
G1 X102.334 Y130.171 E45.99389
G1 X103.001 Y129.504 E46.34575
G1 X102.334 Y128.837 E46.69761
G1 X102 Y129.17 E46.87355
G1 X101.333 Y129.17 E47.12235
G1 X101.333 Y128.503 E47.37115
G1 X101.667 Y128.17 E47.54709
G1 X101.333 Y127.836 E47.72328
G1 X101.333 Y127.169 E47.97208
G1 X102 Y127.169 E48.22089
G1 X102.334 Y127.503 E48.39708
G1 X102.667 Y127.169 E48.57301
G1 X103.334 Y127.169 E48.82182
G1 X103.334 Y127.836 E49.07062
G1 X103.001 Y128.17 E49.24655
G1 X103.668 Y128.837 E49.59841
G1 X104.335 Y128.17 E49.95028
G1 X104.001 Y127.836 E50.12647
G1 X104.001 Y127.169 E50.37527
G1 X104.668 Y127.169 E50.62408
G1 X105.002 Y127.503 E50.80027
G1 X105.669 Y126.836 E51.15214
G1 X105.002 Y126.169 E51.504
G1 X104.668 Y126.502 E51.67993
G1 X104.001 Y126.502 E51.92873
G1 X104.001 Y125.835 E52.17754
G1 X104.335 Y125.502 E52.35347
G1 X103.668 Y124.835 E52.70533
G1 X103.001 Y125.502 E53.05719
G1 X103.334 Y125.835 E53.23286
G1 X103.334 Y126.502 E53.48166
G1 X102.667 Y126.502 E53.73047
G1 X102.334 Y126.169 E53.90613
G1 X102 Y126.502 E54.08206
G1 X101.333 Y126.502 E54.33087
G1 X101.333 Y125.835 E54.57967
G1 X101.667 Y125.502 E54.7556
G1 X101.333 Y125.168 E54.9318
G1 X101.333 Y124.501 E55.1806
G1 X102 Y124.501 E55.42941
G1 X102.334 Y124.835 E55.6056
G1 X103.001 Y124.168 E55.95746
G1 X102.334 Y123.501 E56.30932
G1 X102 Y123.834 E56.48526
G1 X101.333 Y123.834 E56.73406
G1 X101.333 Y123.167 E56.98286
G1 X101.667 Y122.834 E57.1588
G1 X101 Y122.167 E57.51066
G1 X100.333 Y122.834 E57.86252
G1 X100.666 Y123.167 E58.03819
G1 X100.666 Y123.834 E58.28699
G1 X99.999 Y123.834 E58.53579
G1 X99.666 Y123.501 E58.71146
G1 X98.999 Y124.168 E59.06332
G1 X99.666 Y124.835 E59.41518
G1 X99.999 Y124.501 E59.59112
G1 X100.666 Y124.501 E59.83992
G1 X100.666 Y125.168 E60.08872
G1 X100.333 Y125.502 E60.26466
G1 X100.666 Y125.835 E60.44032
G1 X100.666 Y126.502 E60.68913
G1 X99.999 Y126.502 E60.93793
G1 X99.666 Y126.169 E61.1136
G1 X99.332 Y126.502 E61.28953
G1 X98.665 Y126.502 E61.53833
G1 X98.665 Y125.835 E61.78714
G1 X98.999 Y125.502 E61.96307
G1 X98.332 Y124.835 E62.31493
G1 X97.665 Y125.502 E62.66679
G1 X97.998 Y125.835 E62.84246
G1 X97.998 Y126.502 E63.09126
G1 X97.331 Y126.502 E63.34007
G1 X96.998 Y126.169 E63.51573
G1 X96.331 Y126.836 E63.8676
G1 X96.998 Y127.503 E64.21946
G1 X97.331 Y127.169 E64.39539
G1 X97.998 Y127.169 E64.64419
G1 X97.998 Y127.836 E64.893
G1 X97.665 Y128.17 E65.06893
G1 X98.332 Y128.837 E65.42079
G1 X98.999 Y128.17 E65.77265
G1 X98.665 Y127.836 E65.94885
G1 X98.665 Y127.169 E66.19765
G1 X99.332 Y127.169 E66.44645
G1 X99.666 Y127.503 E66.62265
G1 X99.999 Y127.169 E66.79858
G1 X100.666 Y127.169 E67.04738
G1 X100.666 Y127.836 E67.29619
G1 X100.333 Y128.17 E67.47212
G1 X100.666 Y128.503 E67.64779
G1 X100.666 Y129.17 E67.89659
G1 X99.999 Y129.17 E68.14539
G1 X99.666 Y128.837 E68.32106
G1 X98.999 Y129.504 E68.67292
G1 X99.666 Y130.171 E69.02478
G1 X99.999 Y129.837 E69.20072
G1 X100.666 Y129.837 E69.44952
G1 X100.666 Y130.504 E69.69832
G1 X100.623 Y130.547 E69.72101
G1 X100.145 Y130.532 E69.8994
G1 X99.353 Y130.408 E70.19843
G1 X98.825 Y130.292 E70.40008
G1 X98.271 Y130.136 E70.61477
G1 X97.782 Y129.966 E70.80788
G1 X97.372 Y129.796 E70.97345
G1 X97.665 Y129.504 E71.12775
G1 X96.998 Y128.837 E71.47961
G1 X96.664 Y129.17 E71.65554
G1 X96.186 Y129.17 E71.83385
G1 X95.997 Y129.047 E71.91796
G1 X95.997 Y128.503 E72.12089
G1 X96.331 Y128.17 E72.29682
G1 X95.664 Y127.503 E72.64868
G1 X94.997 Y128.17 E73.00054
G1 X95.33 Y128.503 E73.17621
G1 X95.33 Y128.561 E73.19784
G1 X94.987 Y128.274 E73.36467
G1 X94.594 Y127.904 E73.56601
G1 X94.212 Y127.496 E73.7745
G1 X93.941 Y127.169 E73.93292
G1 X93.996 Y127.169 E73.95344
G1 X94.33 Y127.503 E74.12963
G1 X94.997 Y126.836 E74.48149
G1 X94.33 Y126.169 E74.83336
G1 X93.996 Y126.502 E75.00929
G1 X93.451 Y126.502 E75.21258
G1 X93.329 Y126.313 E75.2965
G1 X93.329 Y125.835 E75.4748
G1 X93.663 Y125.502 E75.65073
G1 X92.996 Y124.835 E76.00259
G1 X92.702 Y125.128 E76.15742
G1 X92.523 Y124.69 E76.33392
G1 X92.353 Y124.203 E76.52633
G1 X92.203 Y123.66 E76.73647
G1 X92.089 Y123.134 E76.93723
G1 X91.964 Y122.288 E77.25623
G1 X91.952 Y121.876 E77.40998
G1 X91.995 Y121.833 E77.43266
G1 X92.662 Y121.833 E77.68147
G1 X92.662 Y122.5 E77.93027
G1 X92.329 Y122.834 E78.1062
G1 X92.996 Y123.501 E78.45807
G1 X93.663 Y122.834 E78.80993
G1 X93.329 Y122.5 E78.98612
G1 X93.329 Y121.833 E79.23493
G1 X93.996 Y121.833 E79.48373
G1 X94.33 Y122.167 E79.65992
G1 X94.663 Y121.833 E79.83586
G1 X95.33 Y121.833 E80.08466
G1 X95.33 Y122.5 E80.33346
G1 X94.997 Y122.834 E80.50939
G1 X95.33 Y123.167 E80.68506
G1 X95.33 Y123.834 E80.93387
G1 X94.663 Y123.834 E81.18267
G1 X94.33 Y123.501 E81.35834
G1 X93.663 Y124.168 E81.7102
G1 X94.33 Y124.835 E82.06206
G1 X94.663 Y124.501 E82.23799
G1 X95.33 Y124.501 E82.4868
G1 X95.33 Y125.168 E82.7356
G1 X94.997 Y125.502 E82.91153
G1 X95.664 Y126.169 E83.26339
G1 X96.331 Y125.502 E83.61525
G1 X95.997 Y125.168 E83.79145
G1 X95.997 Y124.501 E84.04025
G1 X96.664 Y124.501 E84.28906
G1 X96.998 Y124.835 E84.46525
G1 X97.665 Y124.168 E84.81711
G1 X96.998 Y123.501 E85.16898
G1 X96.664 Y123.834 E85.34491
G1 X95.997 Y123.834 E85.59371
G1 X95.997 Y123.167 E85.84252
G1 X96.331 Y122.834 E86.01845
G1 X95.997 Y122.5 E86.19464
G1 X95.997 Y121.833 E86.44344
G1 X96.664 Y121.833 E86.69225
G1 X96.998 Y122.167 E86.86844
G1 X97.331 Y121.833 E87.04437
G1 X97.998 Y121.833 E87.29318
G1 X97.998 Y122.5 E87.54198
G1 X97.665 Y122.834 E87.71791
G1 X98.332 Y123.501 E88.06978
G1 X98.999 Y122.834 E88.42164
G1 X98.665 Y122.5 E88.59783
G1 X98.665 Y121.833 E88.84664
G1 X99.332 Y121.833 E89.09544
G1 X99.666 Y122.167 E89.27163
G1 X100.333 Y121.5 E89.6235
G1 X99.666 Y120.833 E89.97536
G1 X99.332 Y121.166 E90.15129
G1 X98.665 Y121.166 E90.40009
G1 X98.665 Y120.499 E90.6489
G1 X98.999 Y120.166 E90.82483
G1 X98.332 Y119.499 E91.17669
G1 X97.665 Y120.166 E91.52855
G1 X97.998 Y120.499 E91.70422
G1 X97.998 Y121.166 E91.95302
G1 X97.331 Y121.166 E92.20183
G1 X96.998 Y120.833 E92.37749
G1 X96.664 Y121.166 E92.55343
G1 X95.997 Y121.166 E92.80223
G1 X95.997 Y120.499 E93.05103
G1 X96.331 Y120.166 E93.22697
G1 X95.997 Y119.832 E93.40316
G1 X95.997 Y119.165 E93.65196
G1 X96.664 Y119.165 E93.90077
G1 X96.998 Y119.499 E94.07696
G1 X97.665 Y118.832 E94.42882
G1 X96.998 Y118.165 E94.78069
G1 X96.664 Y118.498 E94.95662
G1 X95.997 Y118.498 E95.20542
G1 X95.997 Y117.831 E95.45423
G1 X96.331 Y117.498 E95.63016
G1 X95.664 Y116.831 E95.98202
G1 X94.997 Y117.498 E96.33388
G1 X95.33 Y117.831 E96.50955
G1 X95.33 Y118.498 E96.75835
G1 X94.663 Y118.498 E97.00716
G1 X94.33 Y118.165 E97.18282
G1 X93.663 Y118.832 E97.53468
G1 X94.33 Y119.499 E97.88655
G1 X94.663 Y119.165 E98.06248
G1 X95.33 Y119.165 E98.31128
G1 X95.33 Y119.832 E98.56009
G1 X94.997 Y120.166 E98.73602
G1 X95.33 Y120.499 E98.91168
G1 X95.33 Y121.166 E99.16049
G1 X94.663 Y121.166 E99.40929
G1 X94.33 Y120.833 E99.58496
G1 X93.996 Y121.166 E99.76089
G1 X93.329 Y121.166 E100.00969
G1 X93.329 Y120.499 E100.2585
G1 X93.663 Y120.166 E100.43443
G1 X92.996 Y119.499 E100.78629
G1 X92.329 Y120.166 E101.13815
G1 X92.662 Y120.499 E101.31382
G1 X92.662 Y121.166 E101.56262
G1 X91.995 Y121.166 E101.81143
G1 X91.953 Y121.124 E101.83358
G1 X91.968 Y120.646 E102.01198
G1 X92.092 Y119.854 E102.31101
G1 X92.208 Y119.325 E102.51302
G1 X92.364 Y118.771 E102.72771
G1 X92.528 Y118.296 E102.91516
G1 X92.703 Y117.872 E103.08626
G1 X92.996 Y118.165 E103.24083
G1 X93.663 Y117.498 E103.59269
G1 X93.329 Y117.164 E103.76888
G1 X93.329 Y116.688 E103.94644
G1 X93.453 Y116.497 E104.03138
G1 X93.996 Y116.497 E104.23393
G1 X94.33 Y116.831 E104.41013
G1 X94.997 Y116.164 E104.76199
G1 X94.33 Y115.497 E105.11385
G1 X93.996 Y115.83 E105.28978
G1 X93.94 Y115.83 E105.31067
G1 X94.232 Y115.479 E105.48099
G1 X94.588 Y115.102 E105.6744
G1 X94.996 Y114.718 E105.8834
G1 X95.33 Y114.44 E106.0455
G1 X95.33 Y114.496 E106.06639
G1 X94.997 Y114.83 E106.24232
G1 X95.664 Y115.497 E106.59418
G1 X96.331 Y114.83 E106.94604
G1 X95.997 Y114.496 E107.12224
G1 X95.997 Y113.952 E107.32516
G1 X96.187 Y113.829 E107.40959
G1 X96.664 Y113.829 E107.58752
G1 X96.998 Y114.163 E107.76372
G1 X97.665 Y113.496 E108.11558
G1 X97.372 Y113.203 E108.27014
G1 X97.796 Y113.029 E108.4411
G1 X98.292 Y112.855 E108.63718
G1 X98.835 Y112.705 E108.84731
G1 X99.362 Y112.59 E109.04852
G1 X100.212 Y112.464 E109.36905
G1 X100.623 Y112.452 E109.52243
G1 X100.666 Y112.495 E109.54511
G1 X100.666 Y113.162 E109.79391
G1 X99.999 Y113.162 E110.04272
G1 X99.666 Y112.829 E110.21838
G1 X98.999 Y113.496 E110.57025
G1 X99.666 Y114.163 E110.92211
G1 X99.999 Y113.829 E111.09804
G1 X100.666 Y113.829 E111.34684
G1 X100.666 Y114.496 E111.59565
G1 X100.333 Y114.83 E111.77158
G1 X100.666 Y115.163 E111.94725
G1 X100.666 Y115.83 E112.19605
G1 X99.999 Y115.83 E112.44485
G1 X99.666 Y115.497 E112.62052
G1 X99.332 Y115.83 E112.79645
G1 X98.665 Y115.83 E113.04526
G1 X98.665 Y115.163 E113.29406
