;FLAVOR:Marlin
;TIME:387
;Filament used: 2.66355m, 0m
;Layer height: 0.3
;MINX:91.201
;MINY:111.701
;MINZ:0.3
;MAXX:110.799
;MAXY:131.299
;MAXZ:7
;Generated with Cura_SteamEngine 5.0.1
T0
M140 S40
M105
M190 S40
M104 S200
M105
M109 S200
M82 ;absolute extrusion mode
M900 K0.020;
G28 ; home all axes
G1 Z5 F5000 ; lift nozzle
G1 X-45 Y70 F2500; go to glycerin roller;
G92 E0
G1 X-23 F5000; park to start
G92 E0; Extrude a small amount to clear nozzle
G1 E20 F4000
G4 P2000
G92 E0


G92 E0
G1 F1500 E-1
;LAYER_COUNT:20
;LAYER:0
M107
M204 S500
G1 F600 Z1.3
;MESH:Sajad.stl
G0 F6000 X101.565 Y130.882 Z1.3
;TYPE:WALL-INNER
G1 F600 Z0.3
G1 F1500 E0.15542
G1 F1800 X102.085 Y130.835 E0.35019
G1 X102.692 Y130.746 E0.57903
G1 X103.252 Y130.625 E0.79274
G1 X103.811 Y130.47 E1.00913
G1 X104.32 Y130.291 E1.21039
G1 X104.845 Y130.075 E1.42215
G1 X105.37 Y129.821 E1.6397
G1 X105.865 Y129.543 E1.85148
G1 X106.33 Y129.242 E2.0581
G1 X106.782 Y128.909 E2.26752
G1 X107.224 Y128.541 E2.48206
G1 X107.648 Y128.144 E2.69873
G1 X108.026 Y127.741 E2.90483
G1 X108.392 Y127.304 E3.11746
G1 X108.738 Y126.836 E3.33456
G1 X109.045 Y126.361 E3.54553
G1 X109.318 Y125.878 E3.75249
G1 X109.563 Y125.373 E3.96186
G1 X109.788 Y124.83 E4.18111
G1 X109.963 Y124.325 E4.38048
G1 X110.121 Y123.763 E4.59824
G1 X110.243 Y123.203 E4.81203
G1 X110.337 Y122.599 E5.04005
G1 X110.381 Y122.082 E5.2336
G1 X110.399 Y121.512 E5.44632
G1 X110.382 Y120.929 E5.66389
G1 X110.335 Y120.415 E5.85642
G1 X110.246 Y119.806 E6.086
G1 X110.125 Y119.248 E6.29898
G1 X109.97 Y118.689 E6.51537
G1 X109.792 Y118.18 E6.71651
G1 X109.574 Y117.653 E6.92925
G1 X109.322 Y117.13 E7.1458
G1 X109.043 Y116.635 E7.35775
G1 X108.742 Y116.17 E7.56438
G1 X108.409 Y115.718 E7.7738
G1 X108.041 Y115.276 E7.98834
G1 X107.644 Y114.852 E8.205
G1 X107.241 Y114.474 E8.41111
G1 X106.804 Y114.108 E8.62374
G1 X106.336 Y113.762 E8.84084
G1 X105.861 Y113.455 E9.05181
G1 X105.378 Y113.182 E9.25877
G1 X104.874 Y112.937 E9.46781
G1 X104.334 Y112.714 E9.68574
G1 X103.825 Y112.537 E9.88676
G1 X103.263 Y112.379 E10.10452
G1 X102.703 Y112.257 E10.31831
G1 X102.099 Y112.163 E10.54633
G1 X101.582 Y112.119 E10.73987
G1 X101.014 Y112.101 E10.95186
G1 X100.435 Y112.118 E11.16793
G1 X99.915 Y112.165 E11.36269
G1 X99.308 Y112.254 E11.59153
G1 X98.748 Y112.375 E11.80524
G1 X98.189 Y112.53 E12.02163
G1 X97.68 Y112.709 E12.22289
G1 X97.155 Y112.924 E12.43451
G1 X96.63 Y113.179 E12.65223
G1 X96.135 Y113.457 E12.864
G1 X95.67 Y113.758 E13.07062
G1 X95.218 Y114.091 E13.28004
G1 X94.776 Y114.459 E13.49458
G1 X94.352 Y114.856 E13.71125
G1 X93.974 Y115.259 E13.91736
G1 X93.608 Y115.696 E14.12998
G1 X93.262 Y116.164 E14.34709
G1 X92.955 Y116.639 E14.55806
G1 X92.682 Y117.122 E14.76501
G1 X92.437 Y117.627 E14.97439
G1 X92.212 Y118.17 E15.19364
G1 X92.037 Y118.675 E15.393
G1 X91.879 Y119.237 E15.61077
G1 X91.757 Y119.797 E15.82456
G1 X91.663 Y120.401 E16.05257
G1 X91.619 Y120.918 E16.24612
G1 X91.601 Y121.488 E16.45885
G1 X91.618 Y122.065 E16.67417
G1 X91.665 Y122.585 E16.86893
G1 X91.754 Y123.194 E17.09851
G1 X91.873 Y123.747 E17.30952
G1 X92.03 Y124.311 E17.5279
G1 X92.207 Y124.816 E17.72751
G1 X92.424 Y125.344 E17.94045
G1 X92.678 Y125.868 E18.15766
G1 X92.955 Y126.361 E18.3686
G1 X93.255 Y126.825 E18.57471
G1 X93.591 Y127.282 E18.78629
G1 X93.956 Y127.72 E18.99897
G1 X94.352 Y128.144 E19.21538
G1 X94.757 Y128.525 E19.4228
G1 X95.194 Y128.891 E19.63543
G1 X95.658 Y129.234 E19.85067
G1 X96.136 Y129.543 E20.06298
G1 X96.618 Y129.816 E20.26961
G1 X97.127 Y130.063 E20.48065
G1 X97.666 Y130.286 E20.69824
G1 X98.175 Y130.463 E20.89926
G1 X98.737 Y130.621 E21.11702
G1 X99.297 Y130.743 E21.33081
G1 X99.901 Y130.837 E21.55883
G1 X100.418 Y130.881 E21.75238
G1 X100.986 Y130.899 E21.96436
G1 X101.565 Y130.882 E22.18043
G0 F6000 X101.589 Y131.282
;TYPE:WALL-OUTER
G1 F1800 X102.132 Y131.233 E22.3838
G1 X102.764 Y131.14 E22.62209
G1 X103.348 Y131.013 E22.84502
G1 X103.931 Y130.852 E23.07064
G1 X104.462 Y130.665 E23.28063
G1 X105.008 Y130.441 E23.50077
G1 X105.556 Y130.176 E23.72784
G1 X106.072 Y129.885 E23.94881
G1 X106.558 Y129.571 E24.16465
G1 X107.029 Y129.224 E24.38287
G1 X107.489 Y128.841 E24.60615
G1 X107.931 Y128.427 E24.83205
G1 X108.326 Y128.007 E25.04712
G1 X108.706 Y127.552 E25.26825
G1 X109.067 Y127.064 E25.49468
G1 X109.387 Y126.568 E25.71486
G1 X109.672 Y126.064 E25.93084
G1 X109.928 Y125.537 E26.14939
G1 X110.162 Y124.972 E26.3775
G1 X110.345 Y124.445 E26.5856
G1 X110.509 Y123.86 E26.81223
G1 X110.637 Y123.277 E27.03488
G1 X110.735 Y122.647 E27.27271
G1 X110.781 Y122.105 E27.47561
G1 X110.799 Y121.512 E27.69691
G1 X110.782 Y120.905 E27.92342
G1 X110.733 Y120.368 E28.12457
G1 X110.64 Y119.734 E28.36359
G1 X110.513 Y119.152 E28.5858
G1 X110.352 Y118.569 E28.81141
G1 X110.166 Y118.038 E29.02128
G1 X109.94 Y117.489 E29.24274
G1 X109.676 Y116.944 E29.46863
G1 X109.385 Y116.428 E29.68961
G1 X109.071 Y115.942 E29.90544
G1 X108.724 Y115.471 E30.12367
G1 X108.341 Y115.011 E30.34695
G1 X107.927 Y114.569 E30.57285
G1 X107.507 Y114.174 E30.78792
G1 X107.052 Y113.794 E31.00905
G1 X106.564 Y113.433 E31.23548
G1 X106.068 Y113.113 E31.45566
G1 X105.564 Y112.828 E31.67164
G1 X105.038 Y112.572 E31.88985
G1 X104.476 Y112.34 E32.11665
G1 X103.945 Y112.155 E32.3264
G1 X103.36 Y111.991 E32.55303
G1 X102.777 Y111.863 E32.77568
G1 X102.147 Y111.765 E33.0135
G1 X101.605 Y111.719 E33.21641
G1 X101.014 Y111.701 E33.43696
G1 X100.411 Y111.718 E33.66198
G1 X99.868 Y111.767 E33.86536
G1 X99.236 Y111.86 E34.10364
G1 X98.652 Y111.987 E34.32658
G1 X98.069 Y112.148 E34.55219
G1 X97.538 Y112.335 E34.76219
G1 X96.992 Y112.559 E34.98233
G1 X96.444 Y112.824 E35.20939
G1 X95.928 Y113.115 E35.43037
G1 X95.442 Y113.429 E35.6462
G1 X94.971 Y113.776 E35.86442
G1 X94.511 Y114.159 E36.0877
G1 X94.069 Y114.573 E36.31361
G1 X93.674 Y114.993 E36.52868
G1 X93.294 Y115.448 E36.74981
G1 X92.933 Y115.936 E36.97623
G1 X92.613 Y116.432 E37.19641
G1 X92.328 Y116.936 E37.41239
G1 X92.072 Y117.463 E37.63094
G1 X91.838 Y118.028 E37.85906
G1 X91.655 Y118.555 E38.06715
G1 X91.491 Y119.14 E38.29378
G1 X91.363 Y119.723 E38.51643
G1 X91.265 Y120.353 E38.75426
G1 X91.219 Y120.895 E38.95716
G1 X91.201 Y121.488 E39.17847
G1 X91.218 Y122.089 E39.40274
G1 X91.267 Y122.632 E39.60611
G1 X91.36 Y123.265 E39.84477
G1 X91.485 Y123.843 E40.06536
G1 X91.648 Y124.431 E40.29297
G1 X91.833 Y124.958 E40.50131
G1 X92.059 Y125.508 E40.72311
G1 X92.323 Y126.054 E40.94934
G1 X92.613 Y126.568 E41.16948
G1 X92.925 Y127.052 E41.38429
G1 X93.276 Y127.528 E41.6049
G1 X93.656 Y127.985 E41.8266
G1 X94.069 Y128.427 E42.05225
G1 X94.491 Y128.824 E42.26837
G1 X94.946 Y129.205 E42.48974
G1 X95.43 Y129.563 E42.7143
G1 X95.928 Y129.885 E42.93552
G1 X96.432 Y130.17 E43.15149
G1 X96.963 Y130.428 E43.37171
G1 X97.524 Y130.66 E43.59816
G1 X98.055 Y130.845 E43.80791
G1 X98.64 Y131.009 E44.03454
G1 X99.223 Y131.137 E44.25719
G1 X99.853 Y131.235 E44.49502
G1 X100.395 Y131.281 E44.69792
G1 X100.986 Y131.299 E44.91848
G1 X101.589 Y131.282 E45.1435
G0 F6000 X101.788 Y131.265
G1 F1500 E44.1435
G1 F600 Z1.3
G0 F6000 X102.711 Y130.394 Z1.3
;TYPE:FILL
G1 F600 Z0.3
G1 F1500 E45.29893
G1 F2400 X103.121 Y129.984 E45.51521
G1 X102.414 Y129.277 E45.88818
G1 X101.707 Y129.277 E46.1519
G1 X101.707 Y127.863 E46.67935
G1 X103.121 Y127.863 E47.2068
G1 X103.121 Y128.57 E47.47052
G1 X103.828 Y129.277 E47.84349
G1 X104.535 Y128.57 E48.21645
G1 X104.535 Y127.863 E48.48017
G1 X105.242 Y127.863 E48.7439
G1 X105.949 Y127.156 E49.11686
G1 X105.242 Y126.449 E49.48983
G1 X104.535 Y126.449 E49.75355
G1 X104.535 Y125.742 E50.01728
G1 X103.828 Y125.035 E50.39024
G1 X103.121 Y125.742 E50.7632
G1 X103.121 Y126.449 E51.02693
G1 X101.707 Y126.449 E51.55438
G1 X101.707 Y125.035 E52.08182
G1 X102.414 Y125.035 E52.34555
G1 X103.121 Y124.328 E52.71851
G1 X102.414 Y123.621 E53.09148
G1 X101.707 Y123.621 E53.3552
G1 X101.707 Y122.914 E53.61892
G1 X101 Y122.207 E53.99189
G1 X100.292 Y122.914 E54.36511
G1 X100.292 Y123.621 E54.62884
G1 X99.585 Y123.621 E54.89256
G1 X98.878 Y124.328 E55.26553
G1 X99.585 Y125.035 E55.63849
G1 X100.292 Y125.035 E55.90222
G1 X100.292 Y126.449 E56.42966
G1 X98.878 Y126.449 E56.95711
G1 X98.878 Y125.742 E57.22084
G1 X98.171 Y125.035 E57.5938
G1 X97.464 Y125.742 E57.96676
G1 X97.464 Y126.449 E58.23049
G1 X96.757 Y126.449 E58.49421
G1 X96.05 Y127.156 E58.86718
G1 X96.757 Y127.863 E59.24014
G1 X97.464 Y127.863 E59.50387
G1 X97.464 Y128.57 E59.76759
G1 X98.171 Y129.277 E60.14055
G1 X98.878 Y128.57 E60.51352
G1 X98.878 Y127.863 E60.77724
G1 X100.292 Y127.863 E61.30469
G1 X100.292 Y129.277 E61.83214
G1 X99.585 Y129.277 E62.09586
G1 X98.878 Y129.984 E62.46883
G1 X99.288 Y130.394 E62.68511
G1 X98.825 Y130.292 E62.86196
G1 X98.271 Y130.136 E63.07665
G1 X97.782 Y129.966 E63.26977
G1 X97.201 Y129.721 E63.50497
G1 X96.757 Y129.277 E63.7392
G1 X96.357 Y129.277 E63.8884
G1 X96.05 Y129.082 E64.02407
G1 X96.05 Y128.57 E64.21506
G1 X95.343 Y127.863 E64.58802
G1 X94.959 Y128.247 E64.79059
G1 X94.594 Y127.904 E64.97742
G1 X94.253 Y127.539 E65.16375
G1 X94.636 Y127.156 E65.36579
G1 X93.929 Y126.449 E65.73876
G1 X93.417 Y126.449 E65.92974
G1 X93.222 Y126.142 E66.06541
G1 X93.222 Y125.742 E66.21462
G1 X92.768 Y125.288 E66.45411
G1 X92.523 Y124.69 E66.69517
G1 X92.353 Y124.203 E66.88759
G1 X92.203 Y123.66 E67.09772
G1 X92.106 Y123.212 E67.26871
G1 X92.515 Y123.621 E67.48447
G1 X93.222 Y122.914 E67.85743
G1 X93.222 Y122.207 E68.12115
G1 X94.636 Y122.207 E68.6486
G1 X94.636 Y123.621 E69.17605
G1 X93.929 Y123.621 E69.43978
G1 X93.222 Y124.328 E69.81274
G1 X93.929 Y125.035 E70.1857
G1 X94.636 Y125.035 E70.44943
G1 X94.636 Y125.742 E70.71315
G1 X95.343 Y126.449 E71.08612
G1 X96.05 Y125.742 E71.45908
G1 X96.05 Y125.035 E71.7228
G1 X96.757 Y125.035 E71.98653
G1 X97.464 Y124.328 E72.35949
G1 X96.757 Y123.621 E72.73245
G1 X96.05 Y123.621 E72.99618
G1 X96.05 Y122.207 E73.52363
G1 X97.464 Y122.207 E74.05108
G1 X97.464 Y122.914 E74.3148
G1 X98.171 Y123.621 E74.68777
G1 X98.878 Y122.914 E75.06073
G1 X98.878 Y122.207 E75.32445
G1 X99.585 Y122.207 E75.58818
G1 X100.292 Y121.5 E75.96114
G1 X99.585 Y120.792 E76.33437
G1 X98.878 Y120.792 E76.59809
G1 X98.878 Y120.085 E76.86182
G1 X98.171 Y119.378 E77.23478
G1 X97.464 Y120.085 E77.60774
G1 X97.464 Y120.792 E77.87147
G1 X96.05 Y120.792 E78.39892
G1 X96.05 Y119.378 E78.92637
G1 X96.757 Y119.378 E79.19009
G1 X97.464 Y118.671 E79.56305
G1 X96.757 Y117.964 E79.93602
G1 X96.05 Y117.964 E80.19974
G1 X96.05 Y117.257 E80.46347
G1 X95.343 Y116.55 E80.83643
G1 X94.636 Y117.257 E81.20939
G1 X94.636 Y117.964 E81.47312
G1 X93.929 Y117.964 E81.73684
G1 X93.222 Y118.671 E82.10981
G1 X93.929 Y119.378 E82.48277
G1 X94.636 Y119.378 E82.74649
G1 X94.636 Y120.792 E83.27394
G1 X93.222 Y120.792 E83.80139
G1 X93.222 Y120.085 E84.06512
G1 X92.515 Y119.378 E84.43808
G1 X92.107 Y119.786 E84.65331
G1 X92.208 Y119.325 E84.82935
G1 X92.364 Y118.771 E85.04404
G1 X92.528 Y118.296 E85.23149
G1 X92.779 Y117.7 E85.47272
G1 X93.222 Y117.257 E85.70642
G1 X93.222 Y116.858 E85.85525
G1 X93.418 Y116.55 E85.99143
G1 X93.929 Y116.55 E86.18204
G1 X94.636 Y115.843 E86.55501
G1 X94.251 Y115.458 E86.75811
G1 X94.588 Y115.102 E86.94096
G1 X94.959 Y114.752 E87.13122
G1 X95.343 Y115.136 E87.33379
G1 X96.05 Y114.429 E87.70675
G1 X96.05 Y113.918 E87.89737
G1 X96.358 Y113.722 E88.03355
G1 X96.757 Y113.722 E88.18238
G1 X97.21 Y113.269 E88.42135
G1 X97.796 Y113.029 E88.65756
G1 X98.292 Y112.855 E88.85363
G1 X98.835 Y112.705 E89.06377
G1 X99.287 Y112.606 E89.23637
G1 X98.878 Y113.015 E89.45213
G1 X99.585 Y113.722 E89.82509
G1 X100.292 Y113.722 E90.08882
G1 X100.292 Y115.136 E90.61627
G1 X98.878 Y115.136 E91.14372
G1 X98.878 Y114.429 E91.40744
G1 X98.171 Y113.722 E91.78041
G1 X97.464 Y114.429 E92.15337
G1 X97.464 Y115.136 E92.41709
G1 X96.757 Y115.136 E92.68082
G1 X96.05 Y115.843 E93.05378
G1 X96.757 Y116.55 E93.42674
G1 X97.464 Y116.55 E93.69047
G1 X97.464 Y117.257 E93.95419
G1 X98.171 Y117.964 E94.32716
G1 X98.878 Y117.257 E94.70012
G1 X98.878 Y116.55 E94.96384
G1 X100.292 Y116.55 E95.49129
G1 X100.292 Y117.964 E96.01874
G1 X99.585 Y117.964 E96.28247
G1 X98.878 Y118.671 E96.65543
G1 X99.585 Y119.378 E97.02839
G1 X100.292 Y119.378 E97.29212
G1 X100.292 Y120.085 E97.55584
G1 X101 Y120.792 E97.92907
G1 X101.707 Y120.085 E98.30203
G1 X101.707 Y119.378 E98.56576
G1 X102.414 Y119.378 E98.82948
G1 X103.121 Y118.671 E99.20245
G1 X102.414 Y117.964 E99.57541
G1 X101.707 Y117.964 E99.83913
G1 X101.707 Y116.55 E100.36658
G1 X103.121 Y116.55 E100.89403
G1 X103.121 Y117.257 E101.15776
G1 X103.828 Y117.964 E101.53072
G1 X104.535 Y117.257 E101.90368
G1 X104.535 Y116.55 E102.16741
G1 X105.242 Y116.55 E102.43113
G1 X105.949 Y115.843 E102.8041
G1 X105.242 Y115.136 E103.17706
G1 X104.535 Y115.136 E103.44078
G1 X104.535 Y114.429 E103.70451
G1 X103.828 Y113.722 E104.07747
G1 X103.121 Y114.429 E104.45043
G1 X103.121 Y115.136 E104.71416
G1 X101.707 Y115.136 E105.24161
G1 X101.707 Y113.722 E105.76906
G1 X102.414 Y113.722 E106.03278
G1 X103.121 Y113.015 E106.40575
G1 X102.712 Y112.606 E106.62151
G1 X103.175 Y112.708 E106.79835
G1 X103.729 Y112.864 E107.01304
G1 X104.218 Y113.034 E107.20616
G1 X104.798 Y113.278 E107.44088
G1 X105.242 Y113.722 E107.6751
G1 X105.641 Y113.722 E107.82393
G1 X105.949 Y113.918 E107.96011
G1 X105.949 Y114.429 E108.15073
G1 X106.656 Y115.136 E108.52369
G1 X107.041 Y114.751 E108.72679
G1 X107.398 Y115.088 E108.90992
G1 X107.747 Y115.459 E109.09992
G1 X107.363 Y115.843 E109.30249
G1 X108.07 Y116.55 E109.67545
G1 X108.582 Y116.55 E109.86644
G1 X108.777 Y116.856 E110.00179
G1 X108.777 Y117.257 E110.15137
G1 X109.232 Y117.712 E110.39139
G1 X109.472 Y118.296 E110.62691
G1 X109.643 Y118.785 E110.82015
G1 X109.797 Y119.336 E111.03356
G1 X109.895 Y119.789 E111.20645
G1 X109.484 Y119.378 E111.42326
G1 X108.777 Y120.085 E111.79623
G1 X108.777 Y120.792 E112.05995
G1 X107.363 Y120.792 E112.5874
G1 X107.363 Y119.378 E113.11485
G1 X108.07 Y119.378 E113.37858
G1 X108.777 Y118.671 E113.75154
G1 X108.07 Y117.964 E114.1245
G1 X107.363 Y117.964 E114.38823
G1 X107.363 Y117.257 E114.65195
G1 X106.656 Y116.55 E115.02491
G1 X105.949 Y117.257 E115.39788
G1 X105.949 Y117.964 E115.6616
G1 X105.242 Y117.964 E115.92533
G1 X104.535 Y118.671 E116.29829
G1 X105.242 Y119.378 E116.67125
G1 X105.949 Y119.378 E116.93498
G1 X105.949 Y120.792 E117.46243
G1 X104.535 Y120.792 E117.98988
G1 X104.535 Y120.085 E118.2536
G1 X103.828 Y119.378 E118.62656
G1 X103.121 Y120.085 E118.99953
G1 X103.121 Y120.792 E119.26325
G1 X102.414 Y120.792 E119.52698
G1 X101.707 Y121.5 E119.9002
G1 X102.414 Y122.207 E120.27317
G1 X103.121 Y122.207 E120.53689
G1 X103.121 Y122.914 E120.80062
G1 X103.828 Y123.621 E121.17358
G1 X104.535 Y122.914 E121.54654
G1 X104.535 Y122.207 E121.81027
G1 X105.949 Y122.207 E122.33772
G1 X105.949 Y123.621 E122.86517
G1 X105.242 Y123.621 E123.12889
G1 X104.535 Y124.328 E123.50185
G1 X105.242 Y125.035 E123.87482
G1 X105.949 Y125.035 E124.13854
G1 X105.949 Y125.742 E124.40227
G1 X106.656 Y126.449 E124.77523
G1 X107.363 Y125.742 E125.14819
G1 X107.363 Y125.035 E125.41192
G1 X108.07 Y125.035 E125.67564
G1 X108.777 Y124.328 E126.0486
G1 X108.07 Y123.621 E126.42157
G1 X107.363 Y123.621 E126.68529
G1 X107.363 Y122.207 E127.21274
G1 X108.777 Y122.207 E127.74019
G1 X108.777 Y122.914 E128.00392
G1 X109.484 Y123.621 E128.37688
G1 X109.894 Y123.211 E128.59317
G1 X109.792 Y123.675 E128.77038
G1 X109.636 Y124.229 E128.98507
G1 X109.472 Y124.704 E129.17252
G1 X109.223 Y125.296 E129.41208
G1 X108.777 Y125.742 E129.64736
G1 X108.777 Y126.144 E129.79731
G1 X108.582 Y126.449 E129.93235
G1 X108.07 Y126.449 E130.12334
G1 X107.363 Y127.156 E130.4963
G1 X107.749 Y127.542 E130.69993
G1 X107.412 Y127.898 E130.88278
G1 X107.041 Y128.248 E131.07304
G1 X106.656 Y127.863 E131.27614
G1 X105.949 Y128.57 E131.6491
G1 X105.949 Y129.083 E131.84046
G1 X105.643 Y129.277 E131.97561
G1 X105.242 Y129.277 E132.12519
G1 X104.787 Y129.732 E132.36522
G1 X104.204 Y129.971 E132.60025
G1 X103.708 Y130.145 E132.79632
G1 X103.165 Y130.295 E133.00646
G1 X102.711 Y130.394 E133.17979
G1 F1500 E132.17979
G1 F600 Z1.3
;MESH:NONMESH
