;FLAVOR:Marlin
;TIME:365
;Filament used: 3.53537m, 0m
;Layer height: 0.3
;MINX:91.201
;MINY:111.701
;MINZ:0.3
;MAXX:110.799
;MAXY:131.299
;MAXZ:7
;Generated with Cura_SteamEngine 5.0.1
T0
M140 S40
M105
M190 S40
M104 S200
M105
M109 S200
M82 ;absolute extrusion mode
M900 K0.020;
G28 ; home all axes
G1 Z5 F5000 ; lift nozzle
G1 X-45 Y70 F2500; go to glycerin roller;
G92 E0
G1 X-23 F5000; park to start
G92 E0; Extrude a small amount to clear nozzle
G1 E20 F4000
G4 P2000
G92 E0


G92 E0
G1 F1500 E-1
;LAYER_COUNT:20
;LAYER:0
M107
M204 S500
G1 F600 Z1.3
;MESH:Sajad.stl
G0 F6000 X101.565 Y130.882 Z1.3
;TYPE:WALL-INNER
G1 F600 Z0.3
G1 F1500 E0.15542
G1 F1800 X102.085 Y130.835 E0.35019
G1 X102.692 Y130.746 E0.57903
G1 X103.252 Y130.625 E0.79274
G1 X103.811 Y130.47 E1.00913
G1 X104.32 Y130.291 E1.21039
G1 X104.845 Y130.075 E1.42215
G1 X105.37 Y129.821 E1.6397
G1 X105.865 Y129.543 E1.85148
G1 X106.33 Y129.242 E2.0581
G1 X106.782 Y128.909 E2.26752
G1 X107.224 Y128.541 E2.48206
G1 X107.648 Y128.144 E2.69873
G1 X108.026 Y127.741 E2.90483
G1 X108.392 Y127.304 E3.11746
G1 X108.738 Y126.836 E3.33456
G1 X109.045 Y126.361 E3.54553
G1 X109.318 Y125.878 E3.75249
G1 X109.563 Y125.373 E3.96186
G1 X109.788 Y124.83 E4.18111
G1 X109.963 Y124.325 E4.38048
G1 X110.121 Y123.763 E4.59824
G1 X110.243 Y123.203 E4.81203
G1 X110.337 Y122.599 E5.04005
G1 X110.381 Y122.082 E5.2336
G1 X110.399 Y121.512 E5.44632
G1 X110.382 Y120.929 E5.66389
G1 X110.335 Y120.415 E5.85642
G1 X110.246 Y119.806 E6.086
G1 X110.125 Y119.248 E6.29898
G1 X109.97 Y118.689 E6.51537
G1 X109.792 Y118.18 E6.71651
G1 X109.574 Y117.653 E6.92925
G1 X109.322 Y117.13 E7.1458
G1 X109.043 Y116.635 E7.35775
G1 X108.742 Y116.17 E7.56438
G1 X108.409 Y115.718 E7.7738
G1 X108.041 Y115.276 E7.98834
G1 X107.644 Y114.852 E8.205
G1 X107.241 Y114.474 E8.41111
G1 X106.804 Y114.108 E8.62374
G1 X106.336 Y113.762 E8.84084
G1 X105.861 Y113.455 E9.05181
G1 X105.378 Y113.182 E9.25877
G1 X104.874 Y112.937 E9.46781
G1 X104.334 Y112.714 E9.68574
G1 X103.825 Y112.537 E9.88676
G1 X103.263 Y112.379 E10.10452
G1 X102.703 Y112.257 E10.31831
G1 X102.099 Y112.163 E10.54633
G1 X101.582 Y112.119 E10.73987
G1 X101.014 Y112.101 E10.95186
G1 X100.435 Y112.118 E11.16793
G1 X99.915 Y112.165 E11.36269
G1 X99.308 Y112.254 E11.59153
G1 X98.748 Y112.375 E11.80524
G1 X98.189 Y112.53 E12.02163
G1 X97.68 Y112.709 E12.22289
G1 X97.155 Y112.924 E12.43451
G1 X96.63 Y113.179 E12.65223
G1 X96.135 Y113.457 E12.864
G1 X95.67 Y113.758 E13.07062
G1 X95.218 Y114.091 E13.28004
G1 X94.776 Y114.459 E13.49458
G1 X94.352 Y114.856 E13.71125
G1 X93.974 Y115.259 E13.91736
G1 X93.608 Y115.696 E14.12998
G1 X93.262 Y116.164 E14.34709
G1 X92.955 Y116.639 E14.55806
G1 X92.682 Y117.122 E14.76501
G1 X92.437 Y117.627 E14.97439
G1 X92.212 Y118.17 E15.19364
G1 X92.037 Y118.675 E15.393
G1 X91.879 Y119.237 E15.61077
G1 X91.757 Y119.797 E15.82456
G1 X91.663 Y120.401 E16.05257
G1 X91.619 Y120.918 E16.24612
G1 X91.601 Y121.488 E16.45885
G1 X91.618 Y122.065 E16.67417
G1 X91.665 Y122.585 E16.86893
G1 X91.754 Y123.194 E17.09851
G1 X91.873 Y123.747 E17.30952
G1 X92.03 Y124.311 E17.5279
G1 X92.207 Y124.816 E17.72751
G1 X92.424 Y125.344 E17.94045
G1 X92.678 Y125.868 E18.15766
G1 X92.955 Y126.361 E18.3686
G1 X93.255 Y126.825 E18.57471
G1 X93.591 Y127.282 E18.78629
G1 X93.956 Y127.72 E18.99897
G1 X94.352 Y128.144 E19.21538
G1 X94.757 Y128.525 E19.4228
G1 X95.194 Y128.891 E19.63543
G1 X95.658 Y129.234 E19.85067
G1 X96.136 Y129.543 E20.06298
G1 X96.618 Y129.816 E20.26961
G1 X97.127 Y130.063 E20.48065
G1 X97.666 Y130.286 E20.69824
G1 X98.175 Y130.463 E20.89926
G1 X98.737 Y130.621 E21.11702
G1 X99.297 Y130.743 E21.33081
G1 X99.901 Y130.837 E21.55883
G1 X100.418 Y130.881 E21.75238
G1 X100.986 Y130.899 E21.96436
G1 X101.565 Y130.882 E22.18043
G0 F6000 X101.589 Y131.282
;TYPE:WALL-OUTER
G1 F1800 X102.132 Y131.233 E22.3838
G1 X102.764 Y131.14 E22.62209
G1 X103.348 Y131.013 E22.84502
G1 X103.931 Y130.852 E23.07064
G1 X104.462 Y130.665 E23.28063
G1 X105.008 Y130.441 E23.50077
G1 X105.556 Y130.176 E23.72784
G1 X106.072 Y129.885 E23.94881
G1 X106.558 Y129.571 E24.16465
G1 X107.029 Y129.224 E24.38287
G1 X107.489 Y128.841 E24.60615
G1 X107.931 Y128.427 E24.83205
G1 X108.326 Y128.007 E25.04712
G1 X108.706 Y127.552 E25.26825
G1 X109.067 Y127.064 E25.49468
G1 X109.387 Y126.568 E25.71486
G1 X109.672 Y126.064 E25.93084
G1 X109.928 Y125.537 E26.14939
G1 X110.162 Y124.972 E26.3775
G1 X110.345 Y124.445 E26.5856
G1 X110.509 Y123.86 E26.81223
G1 X110.637 Y123.277 E27.03488
G1 X110.735 Y122.647 E27.27271
G1 X110.781 Y122.105 E27.47561
G1 X110.799 Y121.512 E27.69691
G1 X110.782 Y120.905 E27.92342
G1 X110.733 Y120.368 E28.12457
G1 X110.64 Y119.734 E28.36359
G1 X110.513 Y119.152 E28.5858
G1 X110.352 Y118.569 E28.81141
G1 X110.166 Y118.038 E29.02128
G1 X109.94 Y117.489 E29.24274
G1 X109.676 Y116.944 E29.46863
G1 X109.385 Y116.428 E29.68961
G1 X109.071 Y115.942 E29.90544
G1 X108.724 Y115.471 E30.12367
G1 X108.341 Y115.011 E30.34695
G1 X107.927 Y114.569 E30.57285
G1 X107.507 Y114.174 E30.78792
G1 X107.052 Y113.794 E31.00905
G1 X106.564 Y113.433 E31.23548
G1 X106.068 Y113.113 E31.45566
G1 X105.564 Y112.828 E31.67164
G1 X105.038 Y112.572 E31.88985
G1 X104.476 Y112.34 E32.11665
G1 X103.945 Y112.155 E32.3264
G1 X103.36 Y111.991 E32.55303
G1 X102.777 Y111.863 E32.77568
G1 X102.147 Y111.765 E33.0135
G1 X101.605 Y111.719 E33.21641
G1 X101.014 Y111.701 E33.43696
G1 X100.411 Y111.718 E33.66198
G1 X99.868 Y111.767 E33.86536
G1 X99.236 Y111.86 E34.10364
G1 X98.652 Y111.987 E34.32658
G1 X98.069 Y112.148 E34.55219
G1 X97.538 Y112.335 E34.76219
G1 X96.992 Y112.559 E34.98233
G1 X96.444 Y112.824 E35.20939
G1 X95.928 Y113.115 E35.43037
G1 X95.442 Y113.429 E35.6462
G1 X94.971 Y113.776 E35.86442
G1 X94.511 Y114.159 E36.0877
G1 X94.069 Y114.573 E36.31361
G1 X93.674 Y114.993 E36.52868
G1 X93.294 Y115.448 E36.74981
G1 X92.933 Y115.936 E36.97623
G1 X92.613 Y116.432 E37.19641
G1 X92.328 Y116.936 E37.41239
G1 X92.072 Y117.463 E37.63094
G1 X91.838 Y118.028 E37.85906
G1 X91.655 Y118.555 E38.06715
G1 X91.491 Y119.14 E38.29378
G1 X91.363 Y119.723 E38.51643
G1 X91.265 Y120.353 E38.75426
G1 X91.219 Y120.895 E38.95716
G1 X91.201 Y121.488 E39.17847
G1 X91.218 Y122.089 E39.40274
G1 X91.267 Y122.632 E39.60611
G1 X91.36 Y123.265 E39.84477
G1 X91.485 Y123.843 E40.06536
G1 X91.648 Y124.431 E40.29297
G1 X91.833 Y124.958 E40.50131
G1 X92.059 Y125.508 E40.72311
G1 X92.323 Y126.054 E40.94934
G1 X92.613 Y126.568 E41.16948
G1 X92.925 Y127.052 E41.38429
G1 X93.276 Y127.528 E41.6049
G1 X93.656 Y127.985 E41.8266
G1 X94.069 Y128.427 E42.05225
G1 X94.491 Y128.824 E42.26837
G1 X94.946 Y129.205 E42.48974
G1 X95.43 Y129.563 E42.7143
G1 X95.928 Y129.885 E42.93552
G1 X96.432 Y130.17 E43.15149
G1 X96.963 Y130.428 E43.37171
G1 X97.524 Y130.66 E43.59816
G1 X98.055 Y130.845 E43.80791
G1 X98.64 Y131.009 E44.03454
G1 X99.223 Y131.137 E44.25719
G1 X99.853 Y131.235 E44.49502
G1 X100.395 Y131.281 E44.69792
G1 X100.986 Y131.299 E44.91848
G1 X101.589 Y131.282 E45.1435
G0 F6000 X101.788 Y131.265
G1 F1500 E44.1435
G1 F600 Z1.3
G0 F6000 X95.827 Y114.064 Z1.3
;TYPE:FILL
G1 F600 Z0.3
G1 F1500 E45.29893
G1 F2400 X108.435 Y126.671 E51.94975
G1 X108.757 Y126.179 E52.16909
G1 X109.018 Y125.717 E52.36702
G1 X109.255 Y125.229 E52.56938
G1 X97.271 Y113.245 E58.89129
G1 X97.796 Y113.029 E59.10306
G1 X98.347 Y112.838 E59.32059
G1 X92.343 Y118.842 E62.48787
G1 X92.171 Y119.458 E62.72644
G1 X103.034 Y130.321 E68.45699
G1 X102.638 Y130.41 E68.60839
G1 X101.788 Y130.536 E68.92892
G1 X101.008 Y130.558 E69.21999
G1 X91.949 Y121.499 E73.99888
G1 X101.008 Y112.44 E78.77776
G1 X101.855 Y112.468 E79.09388
G1 X102.647 Y112.592 E79.39292
G1 X103.035 Y112.676 E79.541
G1 X92.17 Y123.541 E85.2726
G1 X92.338 Y124.151 E85.50862
G1 X98.342 Y130.155 E88.6759
G1 X97.782 Y129.966 E88.89637
G1 X97.271 Y129.754 E89.10273
G1 X109.255 Y117.77 E95.42464
G1 X109.017 Y117.281 E95.62751
G1 X108.755 Y116.817 E95.82627
G1 X108.434 Y116.327 E96.04478
G1 X95.827 Y128.935 E102.69561
G1 X95.4 Y128.62 E102.89354
G1 X94.987 Y128.274 E103.09451
G1 X94.595 Y127.904 E103.29558
G1 X107.404 Y115.095 E110.0527
G1 X107.021 Y114.732 E110.24954
G1 X106.59 Y114.373 E110.45878
G1 X106.172 Y114.064 E110.65268
G1 X93.565 Y126.671 E117.30324
G1 X93.244 Y126.181 E117.52175
G1 X92.981 Y125.714 E117.72167
G1 X92.746 Y125.227 E117.92338
G1 X104.73 Y113.243 E124.24529
G1 X104.218 Y113.034 E124.45157
G1 X103.658 Y112.843 E124.67228
G1 X109.66 Y118.845 E127.83851
G1 X109.831 Y119.456 E128.07518
G1 X98.965 Y130.322 E133.80731
G1 X99.353 Y130.408 E133.95556
G1 X100.145 Y130.532 E134.25459
G1 X100.991 Y130.558 E134.57031
G1 X110.051 Y121.499 E139.34946
G1 X100.993 Y112.441 E144.12782
G1 X100.212 Y112.464 E144.41927
G1 X99.362 Y112.59 E144.7398
G1 X98.965 Y112.676 E144.89133
G1 X109.83 Y123.541 E150.62293
G1 X109.655 Y124.157 E150.8618
G1 X103.653 Y130.159 E154.02803
G1 X104.204 Y129.971 E154.2452
G1 X104.728 Y129.753 E154.4569
G1 X92.744 Y117.769 E160.77881
G1 X92.986 Y117.275 E160.98401
G1 X93.243 Y116.821 E161.17861
G1 X93.565 Y116.326 E161.39888
G1 X106.172 Y128.934 E168.04971
G1 X106.568 Y128.645 E168.23258
G1 X107.004 Y128.282 E168.4442
G1 X107.404 Y127.903 E168.64975
G1 X94.596 Y115.095 E175.40634
G1 X94.996 Y114.718 E175.61138
G1 X95.432 Y114.355 E175.823
G1 X95.858 Y114.042 E176.02019
G1 X96.317 Y113.745 E176.22412
G1 X96.401 Y113.691
G1 F1500 E175.22412
G1 F600 Z1.3
;MESH:NONMESH
G0 F6000 X101.565 Y130.882 Z1.3
;TIME_ELAPSED:21.701195
;LAYER:1
;MESH:Sajad.stl
G0 X101.565 Y130.882 Z1.6
;TYPE:WALL-INNER
G1 F600 Z0.6
G1 F1500 E176.37955
G1 F1800 X102.085 Y130.835 E176.57431
G1 X102.692 Y130.746 E176.80315
G1 X103.252 Y130.625 E177.01686
G1 X103.825 Y130.466 E177.23868
G1 X104.333 Y130.287 E177.43959
G1 X104.861 Y130.069 E177.65267
G1 X105.37 Y129.823 E177.86355
G1 X105.865 Y129.543 E178.07569
G1 X106.342 Y129.234 E178.28769
G1 X106.794 Y128.9 E178.49733
G1 X107.234 Y128.532 E178.7113
G1 X107.648 Y128.144 E178.92295
G1 X108.036 Y127.731 E179.13433
G1 X108.4 Y127.294 E179.34648
G1 X108.738 Y126.836 E179.55881
G1 X109.045 Y126.361 E179.76978
G1 X109.325 Y125.866 E179.98192
G1 X109.569 Y125.361 E180.19113
G1 X109.788 Y124.831 E180.40504
G1 X109.963 Y124.325 E180.60476
G1 X110.127 Y123.745 E180.82959
G1 X110.246 Y123.192 E181.04059
G1 X110.339 Y122.585 E181.26966
G1 X110.382 Y122.067 E181.46355
G1 X110.399 Y121.498 E181.67589
G1 X110.382 Y120.93 E181.88786
G1 X110.335 Y120.415 E182.08076
G1 X110.246 Y119.806 E182.31035
G1 X110.125 Y119.248 E182.52333
G1 X109.966 Y118.675 E182.74514
G1 X109.787 Y118.167 E182.94606
G1 X109.569 Y117.639 E183.15914
G1 X109.323 Y117.13 E183.37002
G1 X109.043 Y116.635 E183.58216
G1 X108.734 Y116.158 E183.79416
G1 X108.4 Y115.706 E184.0038
G1 X108.032 Y115.266 E184.21777
G1 X107.644 Y114.852 E184.42942
G1 X107.231 Y114.464 E184.64079
G1 X106.794 Y114.1 E184.85295
G1 X106.336 Y113.762 E185.06527
G1 X105.861 Y113.455 E185.27624
G1 X105.366 Y113.175 E185.48838
G1 X104.861 Y112.931 E185.69759
G1 X104.335 Y112.714 E185.90984
G1 X103.825 Y112.537 E186.11121
G1 X103.25 Y112.375 E186.33405
G1 X102.69 Y112.254 E186.54776
G1 X102.085 Y112.161 E186.77609
G1 X101.567 Y112.118 E186.96998
G1 X101 Y112.101 E187.18157
G1 X100.435 Y112.118 E187.39243
G1 X99.915 Y112.165 E187.58719
G1 X99.308 Y112.254 E187.81603
G1 X98.748 Y112.375 E188.02974
G1 X98.175 Y112.534 E188.25156
G1 X97.667 Y112.713 E188.45247
G1 X97.139 Y112.931 E188.66555
G1 X96.63 Y113.177 E188.87643
G1 X96.135 Y113.457 E189.08857
G1 X95.658 Y113.766 E189.30057
G1 X95.206 Y114.1 E189.51021
G1 X94.766 Y114.468 E189.72418
G1 X94.352 Y114.856 E189.93583
G1 X93.964 Y115.269 E190.14721
G1 X93.6 Y115.706 E190.35936
G1 X93.262 Y116.164 E190.57169
G1 X92.955 Y116.639 E190.78266
G1 X92.675 Y117.134 E190.9948
G1 X92.431 Y117.639 E191.20401
G1 X92.212 Y118.169 E191.41792
G1 X92.037 Y118.675 E191.61764
G1 X91.873 Y119.255 E191.84247
G1 X91.754 Y119.808 E192.05347
G1 X91.661 Y120.415 E192.28254
G1 X91.618 Y120.933 E192.47643
G1 X91.601 Y121.501 E192.6884
G1 X91.618 Y122.065 E192.89887
G1 X91.665 Y122.585 E193.09364
G1 X91.754 Y123.194 E193.32322
G1 X91.873 Y123.747 E193.53422
G1 X92.034 Y124.325 E193.75803
G1 X92.211 Y124.829 E193.95729
G1 X92.431 Y125.361 E194.17204
G1 X92.675 Y125.866 E194.38125
G1 X92.955 Y126.361 E194.59338
G1 X93.262 Y126.836 E194.80435
G1 X93.6 Y127.294 E195.01668
G1 X93.964 Y127.731 E195.22883
G1 X94.352 Y128.144 E195.44021
G1 X94.766 Y128.532 E195.65186
G1 X95.206 Y128.9 E195.86583
G1 X95.658 Y129.234 E196.07547
G1 X96.136 Y129.543 E196.28779
G1 X96.63 Y129.823 E196.4996
G1 X97.139 Y130.069 E196.71048
G1 X97.665 Y130.286 E196.92273
G1 X98.175 Y130.463 E197.1241
G1 X98.75 Y130.625 E197.34694
G1 X99.31 Y130.746 E197.56065
G1 X99.915 Y130.839 E197.78897
G1 X100.433 Y130.882 E197.98286
G1 X101 Y130.899 E198.19446
G1 X101.565 Y130.882 E198.40531
G0 F6000 X101.589 Y131.282
;TYPE:WALL-OUTER
G1 F1800 X102.132 Y131.233 E198.60868
G1 X102.764 Y131.14 E198.84697
G1 X103.348 Y131.013 E199.06991
G1 X103.945 Y130.848 E199.30095
G1 X104.476 Y130.661 E199.51094
G1 X105.025 Y130.434 E199.73255
G1 X105.556 Y130.177 E199.9526
G1 X106.072 Y129.885 E200.17376
G1 X106.57 Y129.563 E200.39497
G1 X107.041 Y129.215 E200.61342
G1 X107.5 Y128.832 E200.83641
G1 X107.931 Y128.427 E201.05703
G1 X108.336 Y127.996 E201.27764
G1 X108.715 Y127.541 E201.49853
G1 X109.067 Y127.064 E201.71966
G1 X109.387 Y126.568 E201.93984
G1 X109.679 Y126.052 E202.161
G1 X109.934 Y125.525 E202.37939
G1 X110.162 Y124.973 E202.60217
G1 X110.345 Y124.445 E202.81062
G1 X110.515 Y123.842 E203.04432
G1 X110.64 Y123.264 E203.26491
G1 X110.737 Y122.632 E203.50341
G1 X110.782 Y122.089 E203.70666
G1 X110.799 Y121.498 E203.9272
G1 X110.782 Y120.906 E204.14812
G1 X110.733 Y120.368 E204.34964
G1 X110.64 Y119.734 E204.58866
G1 X110.513 Y119.152 E204.81087
G1 X110.348 Y118.555 E205.04191
G1 X110.161 Y118.024 E205.25191
G1 X109.934 Y117.475 E205.47351
G1 X109.677 Y116.944 E205.69356
G1 X109.385 Y116.428 E205.91472
G1 X109.063 Y115.93 E206.13594
G1 X108.715 Y115.459 E206.35438
G1 X108.332 Y115 E206.57737
G1 X107.927 Y114.569 E206.79799
G1 X107.496 Y114.164 E207.0186
G1 X107.041 Y113.785 E207.23949
G1 X106.564 Y113.433 E207.46062
G1 X106.068 Y113.113 E207.68081
G1 X105.552 Y112.821 E207.90197
G1 X105.025 Y112.566 E208.12035
G1 X104.477 Y112.34 E208.34147
G1 X103.945 Y112.155 E208.55157
G1 X103.347 Y111.987 E208.78327
G1 X102.763 Y111.86 E209.00621
G1 X102.132 Y111.763 E209.24435
G1 X101.589 Y111.718 E209.44759
G1 X101 Y111.701 E209.66739
G1 X100.411 Y111.718 E209.88719
G1 X99.868 Y111.767 E210.09056
G1 X99.236 Y111.86 E210.32885
G1 X98.652 Y111.987 E210.55178
G1 X98.055 Y112.152 E210.78283
G1 X97.524 Y112.339 E210.99282
G1 X96.975 Y112.566 E211.21443
G1 X96.444 Y112.823 E211.43448
G1 X95.928 Y113.115 E211.65564
G1 X95.43 Y113.437 E211.87685
G1 X94.959 Y113.785 E212.0953
G1 X94.5 Y114.168 E212.31829
G1 X94.069 Y114.573 E212.5389
G1 X93.664 Y115.004 E212.75952
G1 X93.285 Y115.459 E212.98041
G1 X92.933 Y115.936 E213.20154
G1 X92.613 Y116.432 E213.42172
G1 X92.321 Y116.948 E213.64288
G1 X92.066 Y117.475 E213.86127
G1 X91.838 Y118.027 E214.08405
G1 X91.655 Y118.555 E214.2925
G1 X91.485 Y119.158 E214.52619
G1 X91.36 Y119.736 E214.74678
G1 X91.263 Y120.368 E214.98529
G1 X91.218 Y120.911 E215.18854
G1 X91.201 Y121.501 E215.40871
G1 X91.218 Y122.089 E215.62814
G1 X91.267 Y122.632 E215.83151
G1 X91.36 Y123.265 E216.07016
G1 X91.485 Y123.843 E216.29075
G1 X91.652 Y124.445 E216.52379
G1 X91.837 Y124.972 E216.73213
G1 X92.066 Y125.525 E216.9554
G1 X92.321 Y126.052 E217.17379
G1 X92.613 Y126.568 E217.39495
G1 X92.933 Y127.064 E217.61513
G1 X93.285 Y127.541 E217.83626
G1 X93.664 Y127.996 E218.05715
G1 X94.069 Y128.427 E218.27776
G1 X94.5 Y128.832 E218.49838
G1 X94.959 Y129.215 E218.72137
G1 X95.43 Y129.563 E218.93982
G1 X95.928 Y129.885 E219.16103
G1 X96.444 Y130.177 E219.38219
G1 X96.975 Y130.434 E219.60224
G1 X97.523 Y130.66 E219.82336
G1 X98.055 Y130.845 E220.03346
G1 X98.653 Y131.013 E220.26516
G1 X99.237 Y131.14 E220.4881
G1 X99.868 Y131.237 E220.72624
G1 X100.411 Y131.282 E220.92948
