;FLAVOR:Marlin
;TIME:532
;Filament used: 5.46232m, 0m
;Layer height: 0.3
;MINX:91.201
;MINY:111.701
;MINZ:0.3
;MAXX:110.799
;MAXY:131.299
;MAXZ:6
;Generated with Cura_SteamEngine 5.0.1
T0
M140 S40
M105
M190 S40
M104 S200
M105
M109 S200
M82 ;absolute extrusion mode
M900 K0.020;
G28 ; home all axes
G1 Z5 F5000 ; lift nozzle
G1 X-45 Y70 F2500; go to glycerin roller;
G92 E0
G1 X-23 F5000; park to start
G92 E0; Extrude a small amount to clear nozzle
G1 E20 F4000
G4 P2000
G92 E0


G92 E0
G1 F1500 E-1
;LAYER_COUNT:20
;LAYER:0
M107
M204 S500
G1 F600 Z1.3
;MESH:Sajad.stl
G0 F6000 X101.565 Y130.882 Z1.3
;TYPE:WALL-INNER
G1 F600 Z0.3
G1 F1500 E0.15542
G1 F1800 X102.085 Y130.835 E0.35019
G1 X102.692 Y130.746 E0.57903
G1 X103.252 Y130.625 E0.79274
G1 X103.811 Y130.47 E1.00913
G1 X104.32 Y130.291 E1.21039
G1 X104.845 Y130.075 E1.42215
G1 X105.37 Y129.821 E1.6397
G1 X105.865 Y129.543 E1.85148
G1 X106.33 Y129.242 E2.0581
G1 X106.782 Y128.909 E2.26752
G1 X107.224 Y128.541 E2.48206
G1 X107.648 Y128.144 E2.69873
G1 X108.026 Y127.741 E2.90483
G1 X108.392 Y127.304 E3.11746
G1 X108.738 Y126.836 E3.33456
G1 X109.045 Y126.361 E3.54553
G1 X109.318 Y125.878 E3.75249
G1 X109.563 Y125.373 E3.96186
G1 X109.788 Y124.83 E4.18111
G1 X109.963 Y124.325 E4.38048
G1 X110.121 Y123.763 E4.59824
G1 X110.243 Y123.203 E4.81203
G1 X110.337 Y122.599 E5.04005
G1 X110.381 Y122.082 E5.2336
G1 X110.399 Y121.512 E5.44632
G1 X110.382 Y120.929 E5.66389
G1 X110.335 Y120.415 E5.85642
G1 X110.246 Y119.806 E6.086
G1 X110.125 Y119.248 E6.29898
G1 X109.97 Y118.689 E6.51537
G1 X109.792 Y118.18 E6.71651
G1 X109.574 Y117.653 E6.92925
G1 X109.322 Y117.13 E7.1458
G1 X109.043 Y116.635 E7.35775
G1 X108.742 Y116.17 E7.56438
G1 X108.409 Y115.718 E7.7738
G1 X108.041 Y115.276 E7.98834
G1 X107.644 Y114.852 E8.205
G1 X107.241 Y114.474 E8.41111
G1 X106.804 Y114.108 E8.62374
G1 X106.336 Y113.762 E8.84084
G1 X105.861 Y113.455 E9.05181
G1 X105.378 Y113.182 E9.25877
G1 X104.874 Y112.937 E9.46781
G1 X104.334 Y112.714 E9.68574
G1 X103.825 Y112.537 E9.88676
G1 X103.263 Y112.379 E10.10452
G1 X102.703 Y112.257 E10.31831
G1 X102.099 Y112.163 E10.54633
G1 X101.582 Y112.119 E10.73987
G1 X101.014 Y112.101 E10.95186
G1 X100.435 Y112.118 E11.16793
G1 X99.915 Y112.165 E11.36269
G1 X99.308 Y112.254 E11.59153
G1 X98.748 Y112.375 E11.80524
G1 X98.189 Y112.53 E12.02163
G1 X97.68 Y112.709 E12.22289
G1 X97.155 Y112.924 E12.43451
G1 X96.63 Y113.179 E12.65223
G1 X96.135 Y113.457 E12.864
G1 X95.67 Y113.758 E13.07062
G1 X95.218 Y114.091 E13.28004
G1 X94.776 Y114.459 E13.49458
G1 X94.352 Y114.856 E13.71125
G1 X93.974 Y115.259 E13.91736
G1 X93.608 Y115.696 E14.12998
G1 X93.262 Y116.164 E14.34709
G1 X92.955 Y116.639 E14.55806
G1 X92.682 Y117.122 E14.76501
G1 X92.437 Y117.627 E14.97439
G1 X92.212 Y118.17 E15.19364
G1 X92.037 Y118.675 E15.393
G1 X91.879 Y119.237 E15.61077
G1 X91.757 Y119.797 E15.82456
G1 X91.663 Y120.401 E16.05257
G1 X91.619 Y120.918 E16.24612
G1 X91.601 Y121.488 E16.45885
G1 X91.618 Y122.065 E16.67417
G1 X91.665 Y122.585 E16.86893
G1 X91.754 Y123.194 E17.09851
G1 X91.873 Y123.747 E17.30952
G1 X92.03 Y124.311 E17.5279
G1 X92.207 Y124.816 E17.72751
G1 X92.424 Y125.344 E17.94045
G1 X92.678 Y125.868 E18.15766
G1 X92.955 Y126.361 E18.3686
G1 X93.255 Y126.825 E18.57471
G1 X93.591 Y127.282 E18.78629
G1 X93.956 Y127.72 E18.99897
G1 X94.352 Y128.144 E19.21538
G1 X94.757 Y128.525 E19.4228
G1 X95.194 Y128.891 E19.63543
G1 X95.658 Y129.234 E19.85067
G1 X96.136 Y129.543 E20.06298
G1 X96.618 Y129.816 E20.26961
G1 X97.127 Y130.063 E20.48065
G1 X97.666 Y130.286 E20.69824
G1 X98.175 Y130.463 E20.89926
G1 X98.737 Y130.621 E21.11702
G1 X99.297 Y130.743 E21.33081
G1 X99.901 Y130.837 E21.55883
G1 X100.418 Y130.881 E21.75238
G1 X100.986 Y130.899 E21.96436
G1 X101.565 Y130.882 E22.18043
G0 F6000 X101.589 Y131.282
;TYPE:WALL-OUTER
G1 F1800 X102.132 Y131.233 E22.3838
G1 X102.764 Y131.14 E22.62209
G1 X103.348 Y131.013 E22.84502
G1 X103.931 Y130.852 E23.07064
G1 X104.462 Y130.665 E23.28063
G1 X105.008 Y130.441 E23.50077
G1 X105.556 Y130.176 E23.72784
G1 X106.072 Y129.885 E23.94881
G1 X106.558 Y129.571 E24.16465
G1 X107.029 Y129.224 E24.38287
G1 X107.489 Y128.841 E24.60615
G1 X107.931 Y128.427 E24.83205
G1 X108.326 Y128.007 E25.04712
G1 X108.706 Y127.552 E25.26825
G1 X109.067 Y127.064 E25.49468
G1 X109.387 Y126.568 E25.71486
G1 X109.672 Y126.064 E25.93084
G1 X109.928 Y125.537 E26.14939
G1 X110.162 Y124.972 E26.3775
G1 X110.345 Y124.445 E26.5856
G1 X110.509 Y123.86 E26.81223
G1 X110.637 Y123.277 E27.03488
G1 X110.735 Y122.647 E27.27271
G1 X110.781 Y122.105 E27.47561
G1 X110.799 Y121.512 E27.69691
G1 X110.782 Y120.905 E27.92342
G1 X110.733 Y120.368 E28.12457
G1 X110.64 Y119.734 E28.36359
G1 X110.513 Y119.152 E28.5858
G1 X110.352 Y118.569 E28.81141
G1 X110.166 Y118.038 E29.02128
G1 X109.94 Y117.489 E29.24274
G1 X109.676 Y116.944 E29.46863
G1 X109.385 Y116.428 E29.68961
G1 X109.071 Y115.942 E29.90544
G1 X108.724 Y115.471 E30.12367
G1 X108.341 Y115.011 E30.34695
G1 X107.927 Y114.569 E30.57285
G1 X107.507 Y114.174 E30.78792
G1 X107.052 Y113.794 E31.00905
G1 X106.564 Y113.433 E31.23548
G1 X106.068 Y113.113 E31.45566
G1 X105.564 Y112.828 E31.67164
G1 X105.038 Y112.572 E31.88985
G1 X104.476 Y112.34 E32.11665
G1 X103.945 Y112.155 E32.3264
G1 X103.36 Y111.991 E32.55303
G1 X102.777 Y111.863 E32.77568
G1 X102.147 Y111.765 E33.0135
G1 X101.605 Y111.719 E33.21641
G1 X101.014 Y111.701 E33.43696
G1 X100.411 Y111.718 E33.66198
G1 X99.868 Y111.767 E33.86536
G1 X99.236 Y111.86 E34.10364
G1 X98.652 Y111.987 E34.32658
G1 X98.069 Y112.148 E34.55219
G1 X97.538 Y112.335 E34.76219
G1 X96.992 Y112.559 E34.98233
G1 X96.444 Y112.824 E35.20939
G1 X95.928 Y113.115 E35.43037
G1 X95.442 Y113.429 E35.6462
G1 X94.971 Y113.776 E35.86442
G1 X94.511 Y114.159 E36.0877
G1 X94.069 Y114.573 E36.31361
G1 X93.674 Y114.993 E36.52868
G1 X93.294 Y115.448 E36.74981
G1 X92.933 Y115.936 E36.97623
G1 X92.613 Y116.432 E37.19641
G1 X92.328 Y116.936 E37.41239
G1 X92.072 Y117.463 E37.63094
G1 X91.838 Y118.028 E37.85906
G1 X91.655 Y118.555 E38.06715
G1 X91.491 Y119.14 E38.29378
G1 X91.363 Y119.723 E38.51643
G1 X91.265 Y120.353 E38.75426
G1 X91.219 Y120.895 E38.95716
G1 X91.201 Y121.488 E39.17847
G1 X91.218 Y122.089 E39.40274
G1 X91.267 Y122.632 E39.60611
G1 X91.36 Y123.265 E39.84477
G1 X91.485 Y123.843 E40.06536
G1 X91.648 Y124.431 E40.29297
G1 X91.833 Y124.958 E40.50131
G1 X92.059 Y125.508 E40.72311
G1 X92.323 Y126.054 E40.94934
G1 X92.613 Y126.568 E41.16948
G1 X92.925 Y127.052 E41.38429
G1 X93.276 Y127.528 E41.6049
G1 X93.656 Y127.985 E41.8266
G1 X94.069 Y128.427 E42.05225
G1 X94.491 Y128.824 E42.26837
G1 X94.946 Y129.205 E42.48974
G1 X95.43 Y129.563 E42.7143
G1 X95.928 Y129.885 E42.93552
G1 X96.432 Y130.17 E43.15149
G1 X96.963 Y130.428 E43.37171
G1 X97.524 Y130.66 E43.59816
G1 X98.055 Y130.845 E43.80791
G1 X98.64 Y131.009 E44.03454
G1 X99.223 Y131.137 E44.25719
G1 X99.853 Y131.235 E44.49502
G1 X100.395 Y131.281 E44.69792
G1 X100.986 Y131.299 E44.91848
G1 X101.589 Y131.282 E45.1435
G0 F6000 X101.788 Y131.265
G1 F1500 E44.1435
G1 F600 Z1.3
G0 F6000 X95.979 Y113.963 Z1.3
;TYPE:FILL
G1 F600 Z0.3
G1 F1500 E45.29893
G1 F2400 X108.535 Y126.52 E51.92284
G1 X108.757 Y126.179 E52.07463
G1 X109.007 Y125.734 E52.26502
G1 X96.764 Y113.492 E58.7233
G1 X97.611 Y113.081 E59.07447
G1 X109.412 Y124.882 E65.29985
G1 X109.655 Y124.159 E65.58436
G1 X103.655 Y130.159 E68.74954
G1 X103.434 Y130.219 E68.83496
G1 X92.268 Y119.053 E74.72535
G1 X92.042 Y120.084 E75.11906
G1 X102.401 Y130.443 E80.58374
G1 X102.063 Y130.494 E80.71125
G1 X110.026 Y122.53 E84.91222
G1 X110.051 Y121.75 E85.20333
G1 X100.749 Y112.448 E90.1104
G1 X101.251 Y112.447 E90.29766
G1 X91.948 Y121.75 E95.20526
G1 X91.964 Y122.288 E95.40604
G1 X92.003 Y122.56 E95.50853
G1 X99.942 Y130.499 E99.69659
G1 X99.596 Y130.446 E99.82716
G1 X109.958 Y120.084 E105.29341
G1 X109.735 Y119.05 E105.68798
G1 X98.567 Y130.218 E111.57943
G1 X98.34 Y130.154 E111.66741
G1 X92.338 Y124.153 E114.83337
G1 X92.589 Y124.881 E115.12062
G1 X104.389 Y113.08 E121.34572
G1 X105.236 Y113.491 E121.6969
G1 X92.993 Y125.734 E128.15544
G1 X93.244 Y126.181 E128.34667
G1 X93.464 Y126.52 E128.49742
G1 X106.029 Y113.955 E135.12582
G1 X108.507 Y116.434 E136.4333
G1 X108.009 Y115.747 E136.74981
G1 X95.242 Y128.514 E143.48478
G1 X94.595 Y127.904 E143.81647
G1 X107.404 Y115.095 E150.57359
G1 X106.758 Y114.483 E150.90553
G1 X93.99 Y127.252 E157.64129
G1 X93.49 Y126.561 E157.95944
G1 X95.971 Y129.042 E159.26824
G1 X108.535 Y116.478 E165.89612
G1 X108.755 Y116.817 E166.04687
G1 X109.007 Y117.263 E166.23795
G1 X96.764 Y129.507 E172.69676
G1 X97.608 Y129.919 E173.04709
G1 X109.411 Y118.117 E179.27326
G1 X109.659 Y118.843 E179.55943
G1 X103.66 Y112.844 E182.72408
G1 X103.433 Y112.779 E182.81216
G1 X92.265 Y123.947 E188.7036
G1 X92.041 Y122.914 E189.09789
G1 X102.403 Y112.553 E194.56388
G1 X102.058 Y112.499 E194.69414
G1 X109.995 Y120.436 E198.88114
G1 X110.036 Y120.714 E198.98596
G1 X110.051 Y121.249 E199.1856
G1 X100.748 Y130.551 E204.09294
G1 X101.25 Y130.55 E204.2802
G1 X91.947 Y121.247 E209.1878
G1 X91.974 Y120.467 E209.47893
G1 X99.938 Y112.503 E213.68017
G1 X99.598 Y112.554 E213.80842
G1 X109.959 Y122.915 E219.27415
G1 X109.733 Y123.946 E219.66786
G1 X98.566 Y112.779 E225.55878
G1 X98.345 Y112.839 E225.6442
G1 X92.343 Y118.84 E228.81016
G1 X92.589 Y118.117 E229.09504
G1 X104.372 Y129.9 E235.31092
G1 X104.707 Y129.765 E235.44564
G1 X105.235 Y129.506 E235.66502
G1 X92.991 Y117.262 E242.12408
G1 X93.448 Y116.462 E242.46776
G1 X106.029 Y129.042 E249.10434
G1 X108.505 Y126.566 E250.4105
G1 X108.457 Y126.643 E250.44434
G1 X108.009 Y127.251 E250.72606
G1 X95.243 Y114.485 E257.4605
G1 X94.596 Y115.095 E257.79219
G1 X107.404 Y127.903 E264.54878
G1 X106.759 Y128.515 E264.88045
G1 X93.991 Y115.748 E271.61568
G1 X93.494 Y116.432 E271.93106
G1 X95.938 Y113.989 E273.22008
G1 X96.317 Y113.745 E273.38822
G1 X96.401 Y113.691
G1 F1500 E272.38822
G1 F600 Z1.3
;MESH:NONMESH
G0 F6000 X101.565 Y130.882 Z1.3
;TIME_ELAPSED:30.916585
;LAYER:1
;MESH:Sajad.stl
G0 X101.565 Y130.882 Z1.6
;TYPE:WALL-INNER
G1 F600 Z0.6
G1 F1500 E273.54365
G1 F1800 X102.085 Y130.835 E273.73841
G1 X102.692 Y130.746 E273.96725
G1 X103.252 Y130.625 E274.18096
G1 X103.825 Y130.466 E274.40278
G1 X104.333 Y130.287 E274.60369
G1 X104.861 Y130.069 E274.81677
G1 X105.37 Y129.823 E275.02765
G1 X105.865 Y129.543 E275.23979
G1 X106.342 Y129.234 E275.45179
G1 X106.794 Y128.9 E275.66143
G1 X107.234 Y128.532 E275.8754
G1 X107.648 Y128.144 E276.08705
G1 X108.036 Y127.731 E276.29843
G1 X108.4 Y127.294 E276.51058
G1 X108.738 Y126.836 E276.72291
G1 X109.045 Y126.361 E276.93388
G1 X109.325 Y125.866 E277.14602
G1 X109.569 Y125.361 E277.35523
G1 X109.788 Y124.831 E277.56914
G1 X109.963 Y124.325 E277.76886
G1 X110.127 Y123.745 E277.99369
G1 X110.246 Y123.192 E278.20469
G1 X110.339 Y122.585 E278.43376
G1 X110.382 Y122.067 E278.62765
G1 X110.399 Y121.498 E278.83999
G1 X110.382 Y120.93 E279.05196
G1 X110.335 Y120.415 E279.24486
G1 X110.246 Y119.806 E279.47444
G1 X110.125 Y119.248 E279.68743
G1 X109.966 Y118.675 E279.90924
G1 X109.787 Y118.167 E280.11016
G1 X109.569 Y117.639 E280.32324
G1 X109.323 Y117.13 E280.53412
G1 X109.043 Y116.635 E280.74625
G1 X108.734 Y116.158 E280.95826
G1 X108.4 Y115.706 E281.1679
G1 X108.032 Y115.266 E281.38186
G1 X107.644 Y114.852 E281.59351
G1 X107.231 Y114.464 E281.80489
G1 X106.794 Y114.1 E282.01704
G1 X106.336 Y113.762 E282.22937
G1 X105.861 Y113.455 E282.44034
G1 X105.366 Y113.175 E282.65248
G1 X104.861 Y112.931 E282.86169
G1 X104.335 Y112.714 E283.07394
G1 X103.825 Y112.537 E283.27531
G1 X103.25 Y112.375 E283.49815
G1 X102.69 Y112.254 E283.71186
G1 X102.085 Y112.161 E283.94019
G1 X101.567 Y112.118 E284.13408
G1 X101 Y112.101 E284.34567
G1 X100.435 Y112.118 E284.55652
G1 X99.915 Y112.165 E284.75129
G1 X99.308 Y112.254 E284.98013
G1 X98.748 Y112.375 E285.19384
G1 X98.175 Y112.534 E285.41566
G1 X97.667 Y112.713 E285.61657
G1 X97.139 Y112.931 E285.82965
G1 X96.63 Y113.177 E286.04053
G1 X96.135 Y113.457 E286.25267
G1 X95.658 Y113.766 E286.46467
G1 X95.206 Y114.1 E286.67431
G1 X94.766 Y114.468 E286.88828
G1 X94.352 Y114.856 E287.09993
G1 X93.964 Y115.269 E287.31131
G1 X93.6 Y115.706 E287.52346
G1 X93.262 Y116.164 E287.73579
G1 X92.955 Y116.639 E287.94676
G1 X92.675 Y117.134 E288.1589
G1 X92.431 Y117.639 E288.36811
G1 X92.212 Y118.169 E288.58202
G1 X92.037 Y118.675 E288.78174
G1 X91.873 Y119.255 E289.00657
G1 X91.754 Y119.808 E289.21757
G1 X91.661 Y120.415 E289.44664
G1 X91.618 Y120.933 E289.64053
G1 X91.601 Y121.501 E289.8525
G1 X91.618 Y122.065 E290.06297
G1 X91.665 Y122.585 E290.25773
G1 X91.754 Y123.194 E290.48732
G1 X91.873 Y123.747 E290.69832
G1 X92.034 Y124.325 E290.92213
G1 X92.211 Y124.829 E291.12139
G1 X92.431 Y125.361 E291.33613
G1 X92.675 Y125.866 E291.54535
G1 X92.955 Y126.361 E291.75748
G1 X93.262 Y126.836 E291.96845
G1 X93.6 Y127.294 E292.18078
G1 X93.964 Y127.731 E292.39293
G1 X94.352 Y128.144 E292.60431
G1 X94.766 Y128.532 E292.81596
G1 X95.206 Y128.9 E293.02993
G1 X95.658 Y129.234 E293.23957
G1 X96.136 Y129.543 E293.45189
G1 X96.63 Y129.823 E293.6637
G1 X97.139 Y130.069 E293.87458
G1 X97.665 Y130.286 E294.08683
G1 X98.175 Y130.463 E294.2882
G1 X98.75 Y130.625 E294.51103
G1 X99.31 Y130.746 E294.72475
G1 X99.915 Y130.839 E294.95307
G1 X100.433 Y130.882 E295.14696
G1 X101 Y130.899 E295.35856
G1 X101.565 Y130.882 E295.56941
G0 F6000 X101.589 Y131.282
;TYPE:WALL-OUTER
G1 F1800 X102.132 Y131.233 E295.77278
G1 X102.764 Y131.14 E296.01107
G1 X103.348 Y131.013 E296.234
G1 X103.945 Y130.848 E296.46505
G1 X104.476 Y130.661 E296.67504
G1 X105.025 Y130.434 E296.89665
G1 X105.556 Y130.177 E297.1167
G1 X106.072 Y129.885 E297.33786
G1 X106.57 Y129.563 E297.55907
G1 X107.041 Y129.215 E297.77752
G1 X107.5 Y128.832 E298.00051
G1 X107.931 Y128.427 E298.22112
G1 X108.336 Y127.996 E298.44174
G1 X108.715 Y127.541 E298.66263
G1 X109.067 Y127.064 E298.88376
G1 X109.387 Y126.568 E299.10394
G1 X109.679 Y126.052 E299.3251
G1 X109.934 Y125.525 E299.54349
G1 X110.162 Y124.973 E299.76627
G1 X110.345 Y124.445 E299.97472
G1 X110.515 Y123.842 E300.20841
G1 X110.64 Y123.264 E300.429
G1 X110.737 Y122.632 E300.66751
G1 X110.782 Y122.089 E300.87076
G1 X110.799 Y121.498 E301.0913
G1 X110.782 Y120.906 E301.31222
G1 X110.733 Y120.368 E301.51374
G1 X110.64 Y119.734 E301.75276
G1 X110.513 Y119.152 E301.97497
G1 X110.348 Y118.555 E302.20601
G1 X110.161 Y118.024 E302.41601
G1 X109.934 Y117.475 E302.63761
G1 X109.677 Y116.944 E302.85766
G1 X109.385 Y116.428 E303.07882
G1 X109.063 Y115.93 E303.30003
G1 X108.715 Y115.459 E303.51848
G1 X108.332 Y115 E303.74147
G1 X107.927 Y114.569 E303.96209
G1 X107.496 Y114.164 E304.1827
G1 X107.041 Y113.785 E304.40359
G1 X106.564 Y113.433 E304.62472
G1 X106.068 Y113.113 E304.84491
G1 X105.552 Y112.821 E305.06607
G1 X105.025 Y112.566 E305.28445
G1 X104.477 Y112.34 E305.50557
G1 X103.945 Y112.155 E305.71567
G1 X103.347 Y111.987 E305.94737
G1 X102.763 Y111.86 E306.1703
G1 X102.132 Y111.763 E306.40844
G1 X101.589 Y111.718 E306.61169
G1 X101 Y111.701 E306.83149
G1 X100.411 Y111.718 E307.05129
G1 X99.868 Y111.767 E307.25466
G1 X99.236 Y111.86 E307.49295
G1 X98.652 Y111.987 E307.71588
G1 X98.055 Y112.152 E307.94692
G1 X97.524 Y112.339 E308.15692
G1 X96.975 Y112.566 E308.37852
G1 X96.444 Y112.823 E308.59858
G1 X95.928 Y113.115 E308.81974
G1 X95.43 Y113.437 E309.04095
G1 X94.959 Y113.785 E309.2594
G1 X94.5 Y114.168 E309.48239
G1 X94.069 Y114.573 E309.703
G1 X93.664 Y115.004 E309.92362
G1 X93.285 Y115.459 E310.14451
G1 X92.933 Y115.936 E310.36564
G1 X92.613 Y116.432 E310.58582
G1 X92.321 Y116.948 E310.80698
G1 X92.066 Y117.475 E311.02537
G1 X91.838 Y118.027 E311.24815
G1 X91.655 Y118.555 E311.45659
G1 X91.485 Y119.158 E311.69029
G1 X91.36 Y119.736 E311.91088
G1 X91.263 Y120.368 E312.14939
G1 X91.218 Y120.911 E312.35263
G1 X91.201 Y121.501 E312.57281
G1 X91.218 Y122.089 E312.79223
G1 X91.267 Y122.632 E312.99561
G1 X91.36 Y123.265 E313.23426
G1 X91.485 Y123.843 E313.45485
G1 X91.652 Y124.445 E313.68789
G1 X91.837 Y124.972 E313.89623
G1 X92.066 Y125.525 E314.1195
G1 X92.321 Y126.052 E314.33788
