;FLAVOR:Marlin
;TIME:322
;Filament used: 3.06407m, 0m
;Layer height: 0.3
;MINX:91.201
;MINY:111.701
;MINZ:0.3
;MAXX:110.799
;MAXY:131.299
;MAXZ:7
;Generated with Cura_SteamEngine 5.0.1
T0
M140 S40
M105
M190 S40
M104 S200
M105
M109 S200
M82 ;absolute extrusion mode
M900 K0.020;
G28 ; home all axes
G1 Z5 F5000 ; lift nozzle
G1 X-45 Y70 F2500; go to glycerin roller;
G92 E0
G1 X-23 F5000; park to start
G92 E0; Extrude a small amount to clear nozzle
G1 E20 F4000
G4 P2000
G92 E0


G92 E0
G1 F1500 E-1
;LAYER_COUNT:20
;LAYER:0
M107
M204 S500
G1 F600 Z1.3
;MESH:Sajad.stl
G0 F6000 X101.565 Y130.882 Z1.3
;TYPE:WALL-INNER
G1 F600 Z0.3
G1 F1500 E0.15542
G1 F1800 X102.085 Y130.835 E0.35019
G1 X102.692 Y130.746 E0.57903
G1 X103.252 Y130.625 E0.79274
G1 X103.811 Y130.47 E1.00913
G1 X104.32 Y130.291 E1.21039
G1 X104.845 Y130.075 E1.42215
G1 X105.37 Y129.821 E1.6397
G1 X105.865 Y129.543 E1.85148
G1 X106.33 Y129.242 E2.0581
G1 X106.782 Y128.909 E2.26752
G1 X107.224 Y128.541 E2.48206
G1 X107.648 Y128.144 E2.69873
G1 X108.026 Y127.741 E2.90483
G1 X108.392 Y127.304 E3.11746
G1 X108.738 Y126.836 E3.33456
G1 X109.045 Y126.361 E3.54553
G1 X109.318 Y125.878 E3.75249
G1 X109.563 Y125.373 E3.96186
G1 X109.788 Y124.83 E4.18111
G1 X109.963 Y124.325 E4.38048
G1 X110.121 Y123.763 E4.59824
G1 X110.243 Y123.203 E4.81203
G1 X110.337 Y122.599 E5.04005
G1 X110.381 Y122.082 E5.2336
G1 X110.399 Y121.512 E5.44632
G1 X110.382 Y120.929 E5.66389
G1 X110.335 Y120.415 E5.85642
G1 X110.246 Y119.806 E6.086
G1 X110.125 Y119.248 E6.29898
G1 X109.97 Y118.689 E6.51537
G1 X109.792 Y118.18 E6.71651
G1 X109.574 Y117.653 E6.92925
G1 X109.322 Y117.13 E7.1458
G1 X109.043 Y116.635 E7.35775
G1 X108.742 Y116.17 E7.56438
G1 X108.409 Y115.718 E7.7738
G1 X108.041 Y115.276 E7.98834
G1 X107.644 Y114.852 E8.205
G1 X107.241 Y114.474 E8.41111
G1 X106.804 Y114.108 E8.62374
G1 X106.336 Y113.762 E8.84084
G1 X105.861 Y113.455 E9.05181
G1 X105.378 Y113.182 E9.25877
G1 X104.874 Y112.937 E9.46781
G1 X104.334 Y112.714 E9.68574
G1 X103.825 Y112.537 E9.88676
G1 X103.263 Y112.379 E10.10452
G1 X102.703 Y112.257 E10.31831
G1 X102.099 Y112.163 E10.54633
G1 X101.582 Y112.119 E10.73987
G1 X101.014 Y112.101 E10.95186
G1 X100.435 Y112.118 E11.16793
G1 X99.915 Y112.165 E11.36269
G1 X99.308 Y112.254 E11.59153
G1 X98.748 Y112.375 E11.80524
G1 X98.189 Y112.53 E12.02163
G1 X97.68 Y112.709 E12.22289
G1 X97.155 Y112.924 E12.43451
G1 X96.63 Y113.179 E12.65223
G1 X96.135 Y113.457 E12.864
G1 X95.67 Y113.758 E13.07062
G1 X95.218 Y114.091 E13.28004
G1 X94.776 Y114.459 E13.49458
G1 X94.352 Y114.856 E13.71125
G1 X93.974 Y115.259 E13.91736
G1 X93.608 Y115.696 E14.12998
G1 X93.262 Y116.164 E14.34709
G1 X92.955 Y116.639 E14.55806
G1 X92.682 Y117.122 E14.76501
G1 X92.437 Y117.627 E14.97439
G1 X92.212 Y118.17 E15.19364
G1 X92.037 Y118.675 E15.393
G1 X91.879 Y119.237 E15.61077
G1 X91.757 Y119.797 E15.82456
G1 X91.663 Y120.401 E16.05257
G1 X91.619 Y120.918 E16.24612
G1 X91.601 Y121.488 E16.45885
G1 X91.618 Y122.065 E16.67417
G1 X91.665 Y122.585 E16.86893
G1 X91.754 Y123.194 E17.09851
G1 X91.873 Y123.747 E17.30952
G1 X92.03 Y124.311 E17.5279
G1 X92.207 Y124.816 E17.72751
G1 X92.424 Y125.344 E17.94045
G1 X92.678 Y125.868 E18.15766
G1 X92.955 Y126.361 E18.3686
G1 X93.255 Y126.825 E18.57471
G1 X93.591 Y127.282 E18.78629
G1 X93.956 Y127.72 E18.99897
G1 X94.352 Y128.144 E19.21538
G1 X94.757 Y128.525 E19.4228
G1 X95.194 Y128.891 E19.63543
G1 X95.658 Y129.234 E19.85067
G1 X96.136 Y129.543 E20.06298
G1 X96.618 Y129.816 E20.26961
G1 X97.127 Y130.063 E20.48065
G1 X97.666 Y130.286 E20.69824
G1 X98.175 Y130.463 E20.89926
G1 X98.737 Y130.621 E21.11702
G1 X99.297 Y130.743 E21.33081
G1 X99.901 Y130.837 E21.55883
G1 X100.418 Y130.881 E21.75238
G1 X100.986 Y130.899 E21.96436
G1 X101.565 Y130.882 E22.18043
G0 F6000 X101.589 Y131.282
;TYPE:WALL-OUTER
G1 F1800 X102.132 Y131.233 E22.3838
G1 X102.764 Y131.14 E22.62209
G1 X103.348 Y131.013 E22.84502
G1 X103.931 Y130.852 E23.07064
G1 X104.462 Y130.665 E23.28063
G1 X105.008 Y130.441 E23.50077
G1 X105.556 Y130.176 E23.72784
G1 X106.072 Y129.885 E23.94881
G1 X106.558 Y129.571 E24.16465
G1 X107.029 Y129.224 E24.38287
G1 X107.489 Y128.841 E24.60615
G1 X107.931 Y128.427 E24.83205
G1 X108.326 Y128.007 E25.04712
G1 X108.706 Y127.552 E25.26825
G1 X109.067 Y127.064 E25.49468
G1 X109.387 Y126.568 E25.71486
G1 X109.672 Y126.064 E25.93084
G1 X109.928 Y125.537 E26.14939
G1 X110.162 Y124.972 E26.3775
G1 X110.345 Y124.445 E26.5856
G1 X110.509 Y123.86 E26.81223
G1 X110.637 Y123.277 E27.03488
G1 X110.735 Y122.647 E27.27271
G1 X110.781 Y122.105 E27.47561
G1 X110.799 Y121.512 E27.69691
G1 X110.782 Y120.905 E27.92342
G1 X110.733 Y120.368 E28.12457
G1 X110.64 Y119.734 E28.36359
G1 X110.513 Y119.152 E28.5858
G1 X110.352 Y118.569 E28.81141
G1 X110.166 Y118.038 E29.02128
G1 X109.94 Y117.489 E29.24274
G1 X109.676 Y116.944 E29.46863
G1 X109.385 Y116.428 E29.68961
G1 X109.071 Y115.942 E29.90544
G1 X108.724 Y115.471 E30.12367
G1 X108.341 Y115.011 E30.34695
G1 X107.927 Y114.569 E30.57285
G1 X107.507 Y114.174 E30.78792
G1 X107.052 Y113.794 E31.00905
G1 X106.564 Y113.433 E31.23548
G1 X106.068 Y113.113 E31.45566
G1 X105.564 Y112.828 E31.67164
G1 X105.038 Y112.572 E31.88985
G1 X104.476 Y112.34 E32.11665
G1 X103.945 Y112.155 E32.3264
G1 X103.36 Y111.991 E32.55303
G1 X102.777 Y111.863 E32.77568
G1 X102.147 Y111.765 E33.0135
G1 X101.605 Y111.719 E33.21641
G1 X101.014 Y111.701 E33.43696
G1 X100.411 Y111.718 E33.66198
G1 X99.868 Y111.767 E33.86536
G1 X99.236 Y111.86 E34.10364
G1 X98.652 Y111.987 E34.32658
G1 X98.069 Y112.148 E34.55219
G1 X97.538 Y112.335 E34.76219
G1 X96.992 Y112.559 E34.98233
G1 X96.444 Y112.824 E35.20939
G1 X95.928 Y113.115 E35.43037
G1 X95.442 Y113.429 E35.6462
G1 X94.971 Y113.776 E35.86442
G1 X94.511 Y114.159 E36.0877
G1 X94.069 Y114.573 E36.31361
G1 X93.674 Y114.993 E36.52868
G1 X93.294 Y115.448 E36.74981
G1 X92.933 Y115.936 E36.97623
G1 X92.613 Y116.432 E37.19641
G1 X92.328 Y116.936 E37.41239
G1 X92.072 Y117.463 E37.63094
G1 X91.838 Y118.028 E37.85906
G1 X91.655 Y118.555 E38.06715
G1 X91.491 Y119.14 E38.29378
G1 X91.363 Y119.723 E38.51643
G1 X91.265 Y120.353 E38.75426
G1 X91.219 Y120.895 E38.95716
G1 X91.201 Y121.488 E39.17847
G1 X91.218 Y122.089 E39.40274
G1 X91.267 Y122.632 E39.60611
G1 X91.36 Y123.265 E39.84477
G1 X91.485 Y123.843 E40.06536
G1 X91.648 Y124.431 E40.29297
G1 X91.833 Y124.958 E40.50131
G1 X92.059 Y125.508 E40.72311
G1 X92.323 Y126.054 E40.94934
G1 X92.613 Y126.568 E41.16948
G1 X92.925 Y127.052 E41.38429
G1 X93.276 Y127.528 E41.6049
G1 X93.656 Y127.985 E41.8266
G1 X94.069 Y128.427 E42.05225
G1 X94.491 Y128.824 E42.26837
G1 X94.946 Y129.205 E42.48974
G1 X95.43 Y129.563 E42.7143
G1 X95.928 Y129.885 E42.93552
G1 X96.432 Y130.17 E43.15149
G1 X96.963 Y130.428 E43.37171
G1 X97.524 Y130.66 E43.59816
G1 X98.055 Y130.845 E43.80791
G1 X98.64 Y131.009 E44.03454
G1 X99.223 Y131.137 E44.25719
G1 X99.853 Y131.235 E44.49502
G1 X100.395 Y131.281 E44.69792
G1 X100.986 Y131.299 E44.91848
G1 X101.589 Y131.282 E45.1435
G0 F6000 X101.788 Y131.265
G0 X101.556 Y130.541
;TYPE:FILL
G1 F2400 X100.986 Y130.559 E45.35623
G1 X100.443 Y130.541 E45.55889
G1 X110.042 Y120.942 E50.62264
G1 X110.036 Y120.714 E50.70772
G1 X109.91 Y119.86 E51.02973
G1 X109.797 Y119.336 E51.22968
G1 X109.66 Y118.845 E51.41983
G1 X103.658 Y112.843 E54.58606
G1 X103.729 Y112.864 E54.61368
G1 X103.914 Y112.927 E54.68658
G1 X92.427 Y124.415 E60.74657
G1 X92.523 Y124.69 E60.85522
G1 X92.732 Y125.2 E61.06081
G1 X92.981 Y125.714 E61.27386
G1 X93.244 Y126.181 E61.47378
G1 X93.341 Y126.329 E61.53979
G1 X105.831 Y113.839 E68.12863
G1 X106.141 Y114.042 E68.26685
G1 X106.59 Y114.373 E68.47493
G1 X107.021 Y114.732 E68.68417
G1 X107.398 Y115.088 E68.87759
G1 X107.404 Y115.095 E68.88103
G1 X94.595 Y127.904 E75.63815
G1 X94.987 Y128.274 E75.83922
G1 X95.4 Y128.62 E76.04019
G1 X95.851 Y128.953 E76.24931
G1 X96.169 Y129.158 E76.39045
G1 X108.658 Y116.669 E82.97876
G1 X108.755 Y116.817 E83.04477
G1 X109.017 Y117.281 E83.24353
G1 X109.262 Y117.785 E83.45257
G1 X109.472 Y118.296 E83.65865
G1 X109.572 Y118.583 E83.77202
G1 X98.085 Y130.07 E89.83175
G1 X98.271 Y130.136 E89.90537
G1 X98.342 Y130.155 E89.93278
G1 X92.338 Y124.151 E93.10007
G1 X92.203 Y123.66 E93.29002
G1 X92.089 Y123.134 E93.49078
G1 X91.964 Y122.288 E93.80978
G1 X91.957 Y122.056 E93.89636
G1 X101.556 Y112.457 E98.96011
G1 X101.014 Y112.441 E99.16238
G1 X100.443 Y112.456 E99.37545
G1 X110.042 Y122.055 E104.4392
G1 X110.032 Y122.354 E104.55079
G1 X109.908 Y123.146 E104.84982
G1 X109.792 Y123.675 E105.05184
G1 X109.655 Y124.157 E105.23876
G1 X103.653 Y130.159 E108.40498
G1 X103.708 Y130.145 E108.42616
G1 X103.915 Y130.071 E108.50816
G1 X92.428 Y118.583 E114.56815
G1 X92.528 Y118.296 E114.68152
G1 X92.744 Y117.772 E114.89293
G1 X92.986 Y117.275 E115.09913
G1 X93.243 Y116.821 E115.29373
G1 X93.34 Y116.668 E115.36131
G1 X105.83 Y129.158 E121.95015
G1 X106.143 Y128.958 E122.0887
G1 X106.568 Y128.645 E122.28559
G1 X107.004 Y128.282 E122.49722
G1 X107.404 Y127.903 E122.70276
G1 X94.596 Y115.095 E129.45936
G1 X94.996 Y114.718 E129.66439
G1 X95.432 Y114.355 E129.87602
G1 X95.858 Y114.042 E130.0732
G1 X96.317 Y113.745 E130.27714
G1 X96.17 Y113.84 E130.34242
G1 X108.658 Y126.329 E136.93047
G1 X108.757 Y126.179 E136.99751
G1 X109.018 Y125.717 E137.19545
G1 X109.256 Y125.228 E137.39831
G1 X109.472 Y124.704 E137.60973
G1 X109.572 Y124.414 E137.72415
G1 X98.084 Y112.927 E143.78415
G1 X98.292 Y112.855 E143.86625
G1 X98.347 Y112.838 E143.88772
G1 X92.343 Y118.842 E147.05501
G1 X92.208 Y119.325 E147.24208
G1 X92.092 Y119.854 E147.4441
G1 X91.968 Y120.646 E147.74313
G1 X91.957 Y120.942 E147.85362
G1 X101.556 Y130.541 E152.91737
G1 F1500 E151.91737
;MESH:NONMESH
G0 F600 X101.556 Y130.541 Z0.6
G0 F6000 X101.565 Y130.882
;TIME_ELAPSED:18.556766
;LAYER:1
;TYPE:WALL-INNER
;MESH:Sajad.stl
G1 F1500 E153.07279
G1 F1800 X102.085 Y130.835 E153.26756
G1 X102.692 Y130.746 E153.4964
G1 X103.252 Y130.625 E153.71011
G1 X103.825 Y130.466 E153.93193
G1 X104.333 Y130.287 E154.13284
G1 X104.861 Y130.069 E154.34592
G1 X105.37 Y129.823 E154.5568
G1 X105.865 Y129.543 E154.76894
G1 X106.342 Y129.234 E154.98094
G1 X106.794 Y128.9 E155.19058
G1 X107.234 Y128.532 E155.40455
G1 X107.648 Y128.144 E155.6162
G1 X108.036 Y127.731 E155.82758
G1 X108.4 Y127.294 E156.03973
G1 X108.738 Y126.836 E156.25206
G1 X109.045 Y126.361 E156.46303
G1 X109.325 Y125.866 E156.67517
G1 X109.569 Y125.361 E156.88438
G1 X109.788 Y124.831 E157.09829
G1 X109.963 Y124.325 E157.29801
G1 X110.127 Y123.745 E157.52284
G1 X110.246 Y123.192 E157.73384
G1 X110.339 Y122.585 E157.96291
G1 X110.382 Y122.067 E158.1568
G1 X110.399 Y121.498 E158.36914
G1 X110.382 Y120.93 E158.58111
G1 X110.335 Y120.415 E158.77401
G1 X110.246 Y119.806 E159.00359
G1 X110.125 Y119.248 E159.21658
G1 X109.966 Y118.675 E159.43839
G1 X109.787 Y118.167 E159.63931
G1 X109.569 Y117.639 E159.85239
G1 X109.323 Y117.13 E160.06327
G1 X109.043 Y116.635 E160.2754
G1 X108.734 Y116.158 E160.48741
G1 X108.4 Y115.706 E160.69705
G1 X108.032 Y115.266 E160.91101
G1 X107.644 Y114.852 E161.12266
G1 X107.231 Y114.464 E161.33404
G1 X106.794 Y114.1 E161.54619
G1 X106.336 Y113.762 E161.75852
G1 X105.861 Y113.455 E161.96949
G1 X105.366 Y113.175 E162.18163
G1 X104.861 Y112.931 E162.39084
G1 X104.335 Y112.714 E162.60309
G1 X103.825 Y112.537 E162.80446
G1 X103.25 Y112.375 E163.0273
G1 X102.69 Y112.254 E163.24101
G1 X102.085 Y112.161 E163.46934
G1 X101.567 Y112.118 E163.66323
G1 X101 Y112.101 E163.87482
G1 X100.435 Y112.118 E164.08567
G1 X99.915 Y112.165 E164.28043
G1 X99.308 Y112.254 E164.50928
G1 X98.748 Y112.375 E164.72299
G1 X98.175 Y112.534 E164.94481
G1 X97.667 Y112.713 E165.14572
G1 X97.139 Y112.931 E165.3588
G1 X96.63 Y113.177 E165.56968
G1 X96.135 Y113.457 E165.78182
G1 X95.658 Y113.766 E165.99382
G1 X95.206 Y114.1 E166.20346
G1 X94.766 Y114.468 E166.41743
G1 X94.352 Y114.856 E166.62908
G1 X93.964 Y115.269 E166.84046
G1 X93.6 Y115.706 E167.05261
G1 X93.262 Y116.164 E167.26494
G1 X92.955 Y116.639 E167.47591
G1 X92.675 Y117.134 E167.68804
G1 X92.431 Y117.639 E167.89725
G1 X92.212 Y118.169 E168.11117
G1 X92.037 Y118.675 E168.31089
G1 X91.873 Y119.255 E168.53572
G1 X91.754 Y119.808 E168.74672
G1 X91.661 Y120.415 E168.97579
G1 X91.618 Y120.933 E169.16967
G1 X91.601 Y121.501 E169.38164
G1 X91.618 Y122.065 E169.59212
G1 X91.665 Y122.585 E169.78688
G1 X91.754 Y123.194 E170.01647
G1 X91.873 Y123.747 E170.22747
G1 X92.034 Y124.325 E170.45128
G1 X92.211 Y124.829 E170.65054
G1 X92.431 Y125.361 E170.86528
G1 X92.675 Y125.866 E171.07449
G1 X92.955 Y126.361 E171.28663
G1 X93.262 Y126.836 E171.4976
G1 X93.6 Y127.294 E171.70993
G1 X93.964 Y127.731 E171.92208
G1 X94.352 Y128.144 E172.13346
G1 X94.766 Y128.532 E172.34511
G1 X95.206 Y128.9 E172.55908
G1 X95.658 Y129.234 E172.76872
G1 X96.136 Y129.543 E172.98103
G1 X96.63 Y129.823 E173.19285
G1 X97.139 Y130.069 E173.40373
G1 X97.665 Y130.286 E173.61598
G1 X98.175 Y130.463 E173.81735
G1 X98.75 Y130.625 E174.04018
G1 X99.31 Y130.746 E174.25389
G1 X99.915 Y130.839 E174.48222
G1 X100.433 Y130.882 E174.67611
G1 X101 Y130.899 E174.88771
G1 X101.565 Y130.882 E175.09856
G0 F6000 X101.589 Y131.282
;TYPE:WALL-OUTER
G1 F1800 X102.132 Y131.233 E175.30193
G1 X102.764 Y131.14 E175.54022
G1 X103.348 Y131.013 E175.76315
G1 X103.945 Y130.848 E175.9942
G1 X104.476 Y130.661 E176.20419
G1 X105.025 Y130.434 E176.4258
G1 X105.556 Y130.177 E176.64585
G1 X106.072 Y129.885 E176.86701
G1 X106.57 Y129.563 E177.08822
G1 X107.041 Y129.215 E177.30667
G1 X107.5 Y128.832 E177.52966
G1 X107.931 Y128.427 E177.75027
G1 X108.336 Y127.996 E177.97089
G1 X108.715 Y127.541 E178.19178
G1 X109.067 Y127.064 E178.41291
G1 X109.387 Y126.568 E178.63309
G1 X109.679 Y126.052 E178.85425
G1 X109.934 Y125.525 E179.07264
G1 X110.162 Y124.973 E179.29542
G1 X110.345 Y124.445 E179.50386
G1 X110.515 Y123.842 E179.73756
G1 X110.64 Y123.264 E179.95815
G1 X110.737 Y122.632 E180.19666
G1 X110.782 Y122.089 E180.39991
G1 X110.799 Y121.498 E180.62045
G1 X110.782 Y120.906 E180.84137
G1 X110.733 Y120.368 E181.04288
G1 X110.64 Y119.734 E181.28191
G1 X110.513 Y119.152 E181.50412
G1 X110.348 Y118.555 E181.73516
G1 X110.161 Y118.024 E181.94515
G1 X109.934 Y117.475 E182.16676
G1 X109.677 Y116.944 E182.38681
G1 X109.385 Y116.428 E182.60797
G1 X109.063 Y115.93 E182.82918
G1 X108.715 Y115.459 E183.04763
G1 X108.332 Y115 E183.27062
G1 X107.927 Y114.569 E183.49124
G1 X107.496 Y114.164 E183.71185
G1 X107.041 Y113.785 E183.93274
G1 X106.564 Y113.433 E184.15387
G1 X106.068 Y113.113 E184.37405
G1 X105.552 Y112.821 E184.59521
G1 X105.025 Y112.566 E184.8136
G1 X104.477 Y112.34 E185.03471
G1 X103.945 Y112.155 E185.24482
G1 X103.347 Y111.987 E185.47652
G1 X102.763 Y111.86 E185.69945
G1 X102.132 Y111.763 E185.93759
G1 X101.589 Y111.718 E186.14084
G1 X101 Y111.701 E186.36064
G1 X100.411 Y111.718 E186.58044
G1 X99.868 Y111.767 E186.78381
G1 X99.236 Y111.86 E187.0221
G1 X98.652 Y111.987 E187.24503
G1 X98.055 Y112.152 E187.47607
G1 X97.524 Y112.339 E187.68607
G1 X96.975 Y112.566 E187.90767
G1 X96.444 Y112.823 E188.12773
G1 X95.928 Y113.115 E188.34889
G1 X95.43 Y113.437 E188.5701
G1 X94.959 Y113.785 E188.78854
G1 X94.5 Y114.168 E189.01154
G1 X94.069 Y114.573 E189.23215
G1 X93.664 Y115.004 E189.45277
G1 X93.285 Y115.459 E189.67366
G1 X92.933 Y115.936 E189.89479
G1 X92.613 Y116.432 E190.11497
G1 X92.321 Y116.948 E190.33613
G1 X92.066 Y117.475 E190.55451
G1 X91.838 Y118.027 E190.77729
G1 X91.655 Y118.555 E190.98574
G1 X91.485 Y119.158 E191.21944
G1 X91.36 Y119.736 E191.44003
G1 X91.263 Y120.368 E191.67854
G1 X91.218 Y120.911 E191.88178
G1 X91.201 Y121.501 E192.10196
G1 X91.218 Y122.089 E192.32138
G1 X91.267 Y122.632 E192.52476
G1 X91.36 Y123.265 E192.76341
G1 X91.485 Y123.843 E192.984
G1 X91.652 Y124.445 E193.21704
G1 X91.837 Y124.972 E193.42538
G1 X92.066 Y125.525 E193.64865
G1 X92.321 Y126.052 E193.86703
G1 X92.613 Y126.568 E194.08819
G1 X92.933 Y127.064 E194.30837
G1 X93.285 Y127.541 E194.52951
G1 X93.664 Y127.996 E194.7504
G1 X94.069 Y128.427 E194.97101
G1 X94.5 Y128.832 E195.19163
G1 X94.959 Y129.215 E195.41462
G1 X95.43 Y129.563 E195.63306
