;FLAVOR:Marlin
;TIME:384
;Filament used: 3.98371m, 0m
;Layer height: 0.3
;MINX:91.201
;MINY:111.701
;MINZ:0.3
;MAXX:110.799
;MAXY:131.299
;MAXZ:6
;Generated with Cura_SteamEngine 5.0.1
T0
M140 S40
M105
M190 S40
M104 S200
M105
M109 S200
M82 ;absolute extrusion mode
M900 K0.020;
G28 ; home all axes
G1 Z5 F5000 ; lift nozzle
G1 X-45 Y70 F2500; go to glycerin roller;
G92 E0
G1 X-23 F5000; park to start
G92 E0; Extrude a small amount to clear nozzle
G1 E20 F4000
G4 P2000
G92 E0


G92 E0
G1 F1500 E-1
;LAYER_COUNT:20
;LAYER:0
M107
M204 S500
G1 F600 Z1.3
;MESH:Sajad.stl
G0 F6000 X101.565 Y130.882 Z1.3
;TYPE:WALL-INNER
G1 F600 Z0.3
G1 F1500 E0.15542
G1 F1800 X102.085 Y130.835 E0.35019
G1 X102.692 Y130.746 E0.57903
G1 X103.252 Y130.625 E0.79274
G1 X103.811 Y130.47 E1.00913
G1 X104.32 Y130.291 E1.21039
G1 X104.845 Y130.075 E1.42215
G1 X105.37 Y129.821 E1.6397
G1 X105.865 Y129.543 E1.85148
G1 X106.33 Y129.242 E2.0581
G1 X106.782 Y128.909 E2.26752
G1 X107.224 Y128.541 E2.48206
G1 X107.648 Y128.144 E2.69873
G1 X108.026 Y127.741 E2.90483
G1 X108.392 Y127.304 E3.11746
G1 X108.738 Y126.836 E3.33456
G1 X109.045 Y126.361 E3.54553
G1 X109.318 Y125.878 E3.75249
G1 X109.563 Y125.373 E3.96186
G1 X109.788 Y124.83 E4.18111
G1 X109.963 Y124.325 E4.38048
G1 X110.121 Y123.763 E4.59824
G1 X110.243 Y123.203 E4.81203
G1 X110.337 Y122.599 E5.04005
G1 X110.381 Y122.082 E5.2336
G1 X110.399 Y121.512 E5.44632
G1 X110.382 Y120.929 E5.66389
G1 X110.335 Y120.415 E5.85642
G1 X110.246 Y119.806 E6.086
G1 X110.125 Y119.248 E6.29898
G1 X109.97 Y118.689 E6.51537
G1 X109.792 Y118.18 E6.71651
G1 X109.574 Y117.653 E6.92925
G1 X109.322 Y117.13 E7.1458
G1 X109.043 Y116.635 E7.35775
G1 X108.742 Y116.17 E7.56438
G1 X108.409 Y115.718 E7.7738
G1 X108.041 Y115.276 E7.98834
G1 X107.644 Y114.852 E8.205
G1 X107.241 Y114.474 E8.41111
G1 X106.804 Y114.108 E8.62374
G1 X106.336 Y113.762 E8.84084
G1 X105.861 Y113.455 E9.05181
G1 X105.378 Y113.182 E9.25877
G1 X104.874 Y112.937 E9.46781
G1 X104.334 Y112.714 E9.68574
G1 X103.825 Y112.537 E9.88676
G1 X103.263 Y112.379 E10.10452
G1 X102.703 Y112.257 E10.31831
G1 X102.099 Y112.163 E10.54633
G1 X101.582 Y112.119 E10.73987
G1 X101.014 Y112.101 E10.95186
G1 X100.435 Y112.118 E11.16793
G1 X99.915 Y112.165 E11.36269
G1 X99.308 Y112.254 E11.59153
G1 X98.748 Y112.375 E11.80524
G1 X98.189 Y112.53 E12.02163
G1 X97.68 Y112.709 E12.22289
G1 X97.155 Y112.924 E12.43451
G1 X96.63 Y113.179 E12.65223
G1 X96.135 Y113.457 E12.864
G1 X95.67 Y113.758 E13.07062
G1 X95.218 Y114.091 E13.28004
G1 X94.776 Y114.459 E13.49458
G1 X94.352 Y114.856 E13.71125
G1 X93.974 Y115.259 E13.91736
G1 X93.608 Y115.696 E14.12998
G1 X93.262 Y116.164 E14.34709
G1 X92.955 Y116.639 E14.55806
G1 X92.682 Y117.122 E14.76501
G1 X92.437 Y117.627 E14.97439
G1 X92.212 Y118.17 E15.19364
G1 X92.037 Y118.675 E15.393
G1 X91.879 Y119.237 E15.61077
G1 X91.757 Y119.797 E15.82456
G1 X91.663 Y120.401 E16.05257
G1 X91.619 Y120.918 E16.24612
G1 X91.601 Y121.488 E16.45885
G1 X91.618 Y122.065 E16.67417
G1 X91.665 Y122.585 E16.86893
G1 X91.754 Y123.194 E17.09851
G1 X91.873 Y123.747 E17.30952
G1 X92.03 Y124.311 E17.5279
G1 X92.207 Y124.816 E17.72751
G1 X92.424 Y125.344 E17.94045
G1 X92.678 Y125.868 E18.15766
G1 X92.955 Y126.361 E18.3686
G1 X93.255 Y126.825 E18.57471
G1 X93.591 Y127.282 E18.78629
G1 X93.956 Y127.72 E18.99897
G1 X94.352 Y128.144 E19.21538
G1 X94.757 Y128.525 E19.4228
G1 X95.194 Y128.891 E19.63543
G1 X95.658 Y129.234 E19.85067
G1 X96.136 Y129.543 E20.06298
G1 X96.618 Y129.816 E20.26961
G1 X97.127 Y130.063 E20.48065
G1 X97.666 Y130.286 E20.69824
G1 X98.175 Y130.463 E20.89926
G1 X98.737 Y130.621 E21.11702
G1 X99.297 Y130.743 E21.33081
G1 X99.901 Y130.837 E21.55883
G1 X100.418 Y130.881 E21.75238
G1 X100.986 Y130.899 E21.96436
G1 X101.565 Y130.882 E22.18043
G0 F6000 X101.589 Y131.282
;TYPE:WALL-OUTER
G1 F1800 X102.132 Y131.233 E22.3838
G1 X102.764 Y131.14 E22.62209
G1 X103.348 Y131.013 E22.84502
G1 X103.931 Y130.852 E23.07064
G1 X104.462 Y130.665 E23.28063
G1 X105.008 Y130.441 E23.50077
G1 X105.556 Y130.176 E23.72784
G1 X106.072 Y129.885 E23.94881
G1 X106.558 Y129.571 E24.16465
G1 X107.029 Y129.224 E24.38287
G1 X107.489 Y128.841 E24.60615
G1 X107.931 Y128.427 E24.83205
G1 X108.326 Y128.007 E25.04712
G1 X108.706 Y127.552 E25.26825
G1 X109.067 Y127.064 E25.49468
G1 X109.387 Y126.568 E25.71486
G1 X109.672 Y126.064 E25.93084
G1 X109.928 Y125.537 E26.14939
G1 X110.162 Y124.972 E26.3775
G1 X110.345 Y124.445 E26.5856
G1 X110.509 Y123.86 E26.81223
G1 X110.637 Y123.277 E27.03488
G1 X110.735 Y122.647 E27.27271
G1 X110.781 Y122.105 E27.47561
G1 X110.799 Y121.512 E27.69691
G1 X110.782 Y120.905 E27.92342
G1 X110.733 Y120.368 E28.12457
G1 X110.64 Y119.734 E28.36359
G1 X110.513 Y119.152 E28.5858
G1 X110.352 Y118.569 E28.81141
G1 X110.166 Y118.038 E29.02128
G1 X109.94 Y117.489 E29.24274
G1 X109.676 Y116.944 E29.46863
G1 X109.385 Y116.428 E29.68961
G1 X109.071 Y115.942 E29.90544
G1 X108.724 Y115.471 E30.12367
G1 X108.341 Y115.011 E30.34695
G1 X107.927 Y114.569 E30.57285
G1 X107.507 Y114.174 E30.78792
G1 X107.052 Y113.794 E31.00905
G1 X106.564 Y113.433 E31.23548
G1 X106.068 Y113.113 E31.45566
G1 X105.564 Y112.828 E31.67164
G1 X105.038 Y112.572 E31.88985
G1 X104.476 Y112.34 E32.11665
G1 X103.945 Y112.155 E32.3264
G1 X103.36 Y111.991 E32.55303
G1 X102.777 Y111.863 E32.77568
G1 X102.147 Y111.765 E33.0135
G1 X101.605 Y111.719 E33.21641
G1 X101.014 Y111.701 E33.43696
G1 X100.411 Y111.718 E33.66198
G1 X99.868 Y111.767 E33.86536
G1 X99.236 Y111.86 E34.10364
G1 X98.652 Y111.987 E34.32658
G1 X98.069 Y112.148 E34.55219
G1 X97.538 Y112.335 E34.76219
G1 X96.992 Y112.559 E34.98233
G1 X96.444 Y112.824 E35.20939
G1 X95.928 Y113.115 E35.43037
G1 X95.442 Y113.429 E35.6462
G1 X94.971 Y113.776 E35.86442
G1 X94.511 Y114.159 E36.0877
G1 X94.069 Y114.573 E36.31361
G1 X93.674 Y114.993 E36.52868
G1 X93.294 Y115.448 E36.74981
G1 X92.933 Y115.936 E36.97623
G1 X92.613 Y116.432 E37.19641
G1 X92.328 Y116.936 E37.41239
G1 X92.072 Y117.463 E37.63094
G1 X91.838 Y118.028 E37.85906
G1 X91.655 Y118.555 E38.06715
G1 X91.491 Y119.14 E38.29378
G1 X91.363 Y119.723 E38.51643
G1 X91.265 Y120.353 E38.75426
G1 X91.219 Y120.895 E38.95716
G1 X91.201 Y121.488 E39.17847
G1 X91.218 Y122.089 E39.40274
G1 X91.267 Y122.632 E39.60611
G1 X91.36 Y123.265 E39.84477
G1 X91.485 Y123.843 E40.06536
G1 X91.648 Y124.431 E40.29297
G1 X91.833 Y124.958 E40.50131
G1 X92.059 Y125.508 E40.72311
G1 X92.323 Y126.054 E40.94934
G1 X92.613 Y126.568 E41.16948
G1 X92.925 Y127.052 E41.38429
G1 X93.276 Y127.528 E41.6049
G1 X93.656 Y127.985 E41.8266
G1 X94.069 Y128.427 E42.05225
G1 X94.491 Y128.824 E42.26837
G1 X94.946 Y129.205 E42.48974
G1 X95.43 Y129.563 E42.7143
G1 X95.928 Y129.885 E42.93552
G1 X96.432 Y130.17 E43.15149
G1 X96.963 Y130.428 E43.37171
G1 X97.524 Y130.66 E43.59816
G1 X98.055 Y130.845 E43.80791
G1 X98.64 Y131.009 E44.03454
G1 X99.223 Y131.137 E44.25719
G1 X99.853 Y131.235 E44.49502
G1 X100.395 Y131.281 E44.69792
G1 X100.986 Y131.299 E44.91848
G1 X101.589 Y131.282 E45.1435
G0 F6000 X101.788 Y131.265
G1 F1500 E44.1435
G1 F600 Z1.3
G0 F6000 X95.61 Y114.223 Z1.3
;TYPE:FILL
G1 F600 Z0.3
G1 F1500 E45.29893
G1 F2400 X108.289 Y126.902 E51.98747
G1 X108.757 Y126.179 E52.30873
G1 X109.007 Y125.736 E52.49848
G1 X96.764 Y113.492 E58.95728
G1 X97.293 Y113.235 E59.17666
G1 X98.073 Y112.916 E59.49101
G1 X109.571 Y124.415 E65.5568
G1 X109.656 Y124.153 E65.65955
G1 X103.649 Y130.16 E68.82841
G1 X103.165 Y130.295 E69.01585
G1 X102.418 Y130.458 E69.30105
G1 X92.053 Y120.093 E74.76889
G1 X91.968 Y120.646 E74.97759
G1 X91.952 Y121.121 E75.15487
G1 X100.622 Y112.451 E79.72855
G1 X101.379 Y112.452 E80.01093
G1 X110.047 Y121.121 E84.58381
G1 X110.036 Y120.714 E84.73569
G1 X109.944 Y120.095 E84.96912
G1 X99.581 Y130.458 E90.43591
G1 X98.825 Y130.292 E90.72463
G1 X98.345 Y130.155 E90.91083
G1 X92.337 Y124.147 E94.08022
G1 X92.428 Y124.416 E94.18615
G1 X103.929 Y112.914 E100.25353
G1 X104.736 Y113.248 E100.57932
G1 X105.237 Y113.492 E100.78718
G1 X92.994 Y125.734 E107.24546
G1 X93.244 Y126.181 E107.43651
G1 X93.71 Y126.903 E107.75705
G1 X106.399 Y114.214 E114.45087
G1 X107.021 Y114.732 E114.75281
G1 X107.404 Y115.095 E114.94965
G1 X94.595 Y127.904 E121.70677
G1 X94.987 Y128.274 E121.90784
G1 X95.598 Y128.786 E122.2052
G1 X108.288 Y116.096 E128.89954
G1 X108.755 Y116.817 E129.21997
G1 X109.006 Y117.263 E129.41088
G1 X96.762 Y129.507 E135.86994
G1 X97.265 Y129.752 E136.07865
G1 X98.069 Y130.085 E136.40326
G1 X109.571 Y118.583 E142.4709
G1 X109.66 Y118.849 E142.57553
G1 X103.617 Y112.805 E145.76365
G1 X102.417 Y112.542 E146.2219
G1 X92.055 Y122.903 E151.68789
G1 X91.964 Y122.288 E151.9198
G1 X91.951 Y121.876 E152.07356
G1 X100.622 Y130.546 E156.6475
G1 X101.377 Y130.547 E156.92913
G1 X110.047 Y121.878 E161.50254
G1 X110.032 Y122.354 E161.68019
G1 X109.946 Y122.905 E161.88821
G1 X99.583 Y112.542 E167.35499
G1 X98.835 Y112.705 E167.64056
G1 X98.35 Y112.837 E167.82805
G1 X92.342 Y118.846 E170.99771
G1 X92.428 Y118.582 E171.10128
G1 X103.929 Y130.083 E177.16839
G1 X104.707 Y129.765 E177.48191
G1 X105.236 Y129.505 E177.70178
G1 X92.992 Y117.261 E184.16085
G1 X93.243 Y116.821 E184.34981
G1 X93.712 Y116.097 E184.67158
G1 X106.4 Y128.784 E191.36461
G1 X107.004 Y128.282 E191.65757
G1 X107.404 Y127.903 E191.86312
G1 X94.596 Y115.095 E198.61971
G1 X94.996 Y114.718 E198.82475
G1 X95.432 Y114.355 E199.03637
G1 X95.858 Y114.042 E199.23356
G1 X96.317 Y113.745 E199.43749
G1 X96.401 Y113.691
G1 F1500 E198.43749
G1 F600 Z1.3
;MESH:NONMESH
G0 F6000 X101.565 Y130.882 Z1.3
;TIME_ELAPSED:23.806741
;LAYER:1
;MESH:Sajad.stl
G0 X101.565 Y130.882 Z1.6
;TYPE:WALL-INNER
G1 F600 Z0.6
G1 F1500 E199.59292
G1 F1800 X102.085 Y130.835 E199.78768
G1 X102.692 Y130.746 E200.01652
G1 X103.252 Y130.625 E200.23023
G1 X103.825 Y130.466 E200.45205
G1 X104.333 Y130.287 E200.65296
G1 X104.861 Y130.069 E200.86604
G1 X105.37 Y129.823 E201.07692
G1 X105.865 Y129.543 E201.28906
G1 X106.342 Y129.234 E201.50106
G1 X106.794 Y128.9 E201.7107
G1 X107.234 Y128.532 E201.92467
G1 X107.648 Y128.144 E202.13632
G1 X108.036 Y127.731 E202.3477
G1 X108.4 Y127.294 E202.55985
G1 X108.738 Y126.836 E202.77218
G1 X109.045 Y126.361 E202.98315
G1 X109.325 Y125.866 E203.19529
G1 X109.569 Y125.361 E203.4045
G1 X109.788 Y124.831 E203.61841
G1 X109.963 Y124.325 E203.81813
G1 X110.127 Y123.745 E204.04296
G1 X110.246 Y123.192 E204.25396
G1 X110.339 Y122.585 E204.48303
G1 X110.382 Y122.067 E204.67692
G1 X110.399 Y121.498 E204.88926
G1 X110.382 Y120.93 E205.10123
G1 X110.335 Y120.415 E205.29413
G1 X110.246 Y119.806 E205.52372
G1 X110.125 Y119.248 E205.7367
G1 X109.966 Y118.675 E205.95851
G1 X109.787 Y118.167 E206.15943
G1 X109.569 Y117.639 E206.37251
G1 X109.323 Y117.13 E206.58339
G1 X109.043 Y116.635 E206.79553
G1 X108.734 Y116.158 E207.00753
G1 X108.4 Y115.706 E207.21717
G1 X108.032 Y115.266 E207.43114
G1 X107.644 Y114.852 E207.64279
G1 X107.231 Y114.464 E207.85416
G1 X106.794 Y114.1 E208.06632
G1 X106.336 Y113.762 E208.27864
G1 X105.861 Y113.455 E208.48961
G1 X105.366 Y113.175 E208.70175
G1 X104.861 Y112.931 E208.91096
G1 X104.335 Y112.714 E209.12321
G1 X103.825 Y112.537 E209.32458
G1 X103.25 Y112.375 E209.54742
G1 X102.69 Y112.254 E209.76113
G1 X102.085 Y112.161 E209.98946
G1 X101.567 Y112.118 E210.18335
G1 X101 Y112.101 E210.39494
G1 X100.435 Y112.118 E210.6058
G1 X99.915 Y112.165 E210.80056
G1 X99.308 Y112.254 E211.0294
G1 X98.748 Y112.375 E211.24311
G1 X98.175 Y112.534 E211.46493
G1 X97.667 Y112.713 E211.66584
G1 X97.139 Y112.931 E211.87892
G1 X96.63 Y113.177 E212.0898
G1 X96.135 Y113.457 E212.30194
G1 X95.658 Y113.766 E212.51394
G1 X95.206 Y114.1 E212.72358
G1 X94.766 Y114.468 E212.93755
G1 X94.352 Y114.856 E213.1492
G1 X93.964 Y115.269 E213.36058
G1 X93.6 Y115.706 E213.57273
G1 X93.262 Y116.164 E213.78506
G1 X92.955 Y116.639 E213.99603
G1 X92.675 Y117.134 E214.20817
G1 X92.431 Y117.639 E214.41738
G1 X92.212 Y118.169 E214.63129
G1 X92.037 Y118.675 E214.83101
G1 X91.873 Y119.255 E215.05584
G1 X91.754 Y119.808 E215.26684
G1 X91.661 Y120.415 E215.49591
G1 X91.618 Y120.933 E215.6898
G1 X91.601 Y121.501 E215.90177
G1 X91.618 Y122.065 E216.11225
G1 X91.665 Y122.585 E216.30701
G1 X91.754 Y123.194 E216.53659
G1 X91.873 Y123.747 E216.74759
G1 X92.034 Y124.325 E216.9714
G1 X92.211 Y124.829 E217.17066
G1 X92.431 Y125.361 E217.38541
G1 X92.675 Y125.866 E217.59462
G1 X92.955 Y126.361 E217.80675
G1 X93.262 Y126.836 E218.01773
G1 X93.6 Y127.294 E218.23005
G1 X93.964 Y127.731 E218.44221
G1 X94.352 Y128.144 E218.65358
G1 X94.766 Y128.532 E218.86523
G1 X95.206 Y128.9 E219.0792
G1 X95.658 Y129.234 E219.28884
G1 X96.136 Y129.543 E219.50116
G1 X96.63 Y129.823 E219.71297
G1 X97.139 Y130.069 E219.92385
G1 X97.665 Y130.286 E220.1361
G1 X98.175 Y130.463 E220.33747
G1 X98.75 Y130.625 E220.56031
G1 X99.31 Y130.746 E220.77402
G1 X99.915 Y130.839 E221.00234
G1 X100.433 Y130.882 E221.19623
G1 X101 Y130.899 E221.40783
G1 X101.565 Y130.882 E221.61868
G0 F6000 X101.589 Y131.282
;TYPE:WALL-OUTER
G1 F1800 X102.132 Y131.233 E221.82205
G1 X102.764 Y131.14 E222.06034
G1 X103.348 Y131.013 E222.28328
G1 X103.945 Y130.848 E222.51432
G1 X104.476 Y130.661 E222.72431
G1 X105.025 Y130.434 E222.94592
G1 X105.556 Y130.177 E223.16597
G1 X106.072 Y129.885 E223.38713
G1 X106.57 Y129.563 E223.60834
G1 X107.041 Y129.215 E223.82679
G1 X107.5 Y128.832 E224.04978
G1 X107.931 Y128.427 E224.2704
G1 X108.336 Y127.996 E224.49101
G1 X108.715 Y127.541 E224.7119
G1 X109.067 Y127.064 E224.93303
G1 X109.387 Y126.568 E225.15321
G1 X109.679 Y126.052 E225.37437
G1 X109.934 Y125.525 E225.59276
G1 X110.162 Y124.973 E225.81554
G1 X110.345 Y124.445 E226.02399
G1 X110.515 Y123.842 E226.25769
G1 X110.64 Y123.264 E226.47828
G1 X110.737 Y122.632 E226.71678
G1 X110.782 Y122.089 E226.92003
G1 X110.799 Y121.498 E227.14057
G1 X110.782 Y120.906 E227.36149
G1 X110.733 Y120.368 E227.56301
G1 X110.64 Y119.734 E227.80203
G1 X110.513 Y119.152 E228.02424
G1 X110.348 Y118.555 E228.25528
G1 X110.161 Y118.024 E228.46528
G1 X109.934 Y117.475 E228.68688
G1 X109.677 Y116.944 E228.90693
G1 X109.385 Y116.428 E229.12809
G1 X109.063 Y115.93 E229.34931
G1 X108.715 Y115.459 E229.56775
G1 X108.332 Y115 E229.79074
G1 X107.927 Y114.569 E230.01136
G1 X107.496 Y114.164 E230.23197
G1 X107.041 Y113.785 E230.45286
G1 X106.564 Y113.433 E230.674
G1 X106.068 Y113.113 E230.89418
G1 X105.552 Y112.821 E231.11534
G1 X105.025 Y112.566 E231.33372
G1 X104.477 Y112.34 E231.55484
G1 X103.945 Y112.155 E231.76494
G1 X103.347 Y111.987 E231.99664
G1 X102.763 Y111.86 E232.21958
G1 X102.132 Y111.763 E232.45772
G1 X101.589 Y111.718 E232.66096
G1 X101 Y111.701 E232.88076
G1 X100.411 Y111.718 E233.10056
G1 X99.868 Y111.767 E233.30393
G1 X99.236 Y111.86 E233.54222
G1 X98.652 Y111.987 E233.76515
G1 X98.055 Y112.152 E233.9962
G1 X97.524 Y112.339 E234.20619
G1 X96.975 Y112.566 E234.4278
G1 X96.444 Y112.823 E234.64785
G1 X95.928 Y113.115 E234.86901
G1 X95.43 Y113.437 E235.09022
G1 X94.959 Y113.785 E235.30867
G1 X94.5 Y114.168 E235.53166
G1 X94.069 Y114.573 E235.75227
G1 X93.664 Y115.004 E235.97289
G1 X93.285 Y115.459 E236.19378
G1 X92.933 Y115.936 E236.41491
G1 X92.613 Y116.432 E236.63509
G1 X92.321 Y116.948 E236.85625
G1 X92.066 Y117.475 E237.07464
G1 X91.838 Y118.027 E237.29742
G1 X91.655 Y118.555 E237.50587
G1 X91.485 Y119.158 E237.73956
G1 X91.36 Y119.736 E237.96015
G1 X91.263 Y120.368 E238.19866
G1 X91.218 Y120.911 E238.40191
G1 X91.201 Y121.501 E238.62208
G1 X91.218 Y122.089 E238.84151
G1 X91.267 Y122.632 E239.04488
G1 X91.36 Y123.265 E239.28353
G1 X91.485 Y123.843 E239.50412
G1 X91.652 Y124.445 E239.73716
G1 X91.837 Y124.972 E239.9455
G1 X92.066 Y125.525 E240.16877
G1 X92.321 Y126.052 E240.38716
G1 X92.613 Y126.568 E240.60832
G1 X92.933 Y127.064 E240.8285
G1 X93.285 Y127.541 E241.04963
G1 X93.664 Y127.996 E241.27052
G1 X94.069 Y128.427 E241.49113
G1 X94.5 Y128.832 E241.71175
G1 X94.959 Y129.215 E241.93474
G1 X95.43 Y129.563 E242.15319
G1 X95.928 Y129.885 E242.3744
G1 X96.444 Y130.177 E242.59556
G1 X96.975 Y130.434 E242.81561
G1 X97.523 Y130.66 E243.03673
G1 X98.055 Y130.845 E243.24683
G1 X98.653 Y131.013 E243.47853
G1 X99.237 Y131.14 E243.70147
