;FLAVOR:Marlin
;TIME:192
;Filament used: 1.66208m, 0m
;Layer height: 0.3
;MINX:91.201
;MINY:111.701
;MINZ:0.3
;MAXX:110.799
;MAXY:131.299
;MAXZ:7
;Generated with Cura_SteamEngine 5.0.1
T0
M140 S40
M105
M190 S40
M104 S200
M105
M109 S200
M82 ;absolute extrusion mode
M900 K0.020;
G28 ; home all axes
G1 Z5 F5000 ; lift nozzle
G1 X-45 Y70 F2500; go to glycerin roller;
G92 E0
G1 X-23 F5000; park to start
G92 E0; Extrude a small amount to clear nozzle
G1 E20 F4000
G4 P2000
G92 E0


G92 E0
G1 F1500 E-1
;LAYER_COUNT:20
;LAYER:0
M107
M204 S500
G1 F600 Z1.3
;MESH:Sajad.stl
G0 F6000 X101.565 Y130.882 Z1.3
;TYPE:WALL-INNER
G1 F600 Z0.3
G1 F1500 E0.15542
G1 F1800 X102.085 Y130.835 E0.35019
G1 X102.692 Y130.746 E0.57903
G1 X103.252 Y130.625 E0.79274
G1 X103.811 Y130.47 E1.00913
G1 X104.32 Y130.291 E1.21039
G1 X104.845 Y130.075 E1.42215
G1 X105.37 Y129.821 E1.6397
G1 X105.865 Y129.543 E1.85148
G1 X106.33 Y129.242 E2.0581
G1 X106.782 Y128.909 E2.26752
G1 X107.224 Y128.541 E2.48206
G1 X107.648 Y128.144 E2.69873
G1 X108.026 Y127.741 E2.90483
G1 X108.392 Y127.304 E3.11746
G1 X108.738 Y126.836 E3.33456
G1 X109.045 Y126.361 E3.54553
G1 X109.318 Y125.878 E3.75249
G1 X109.563 Y125.373 E3.96186
G1 X109.788 Y124.83 E4.18111
G1 X109.963 Y124.325 E4.38048
G1 X110.121 Y123.763 E4.59824
G1 X110.243 Y123.203 E4.81203
G1 X110.337 Y122.599 E5.04005
G1 X110.381 Y122.082 E5.2336
G1 X110.399 Y121.512 E5.44632
G1 X110.382 Y120.929 E5.66389
G1 X110.335 Y120.415 E5.85642
G1 X110.246 Y119.806 E6.086
G1 X110.125 Y119.248 E6.29898
G1 X109.97 Y118.689 E6.51537
G1 X109.792 Y118.18 E6.71651
G1 X109.574 Y117.653 E6.92925
G1 X109.322 Y117.13 E7.1458
G1 X109.043 Y116.635 E7.35775
G1 X108.742 Y116.17 E7.56438
G1 X108.409 Y115.718 E7.7738
G1 X108.041 Y115.276 E7.98834
G1 X107.644 Y114.852 E8.205
G1 X107.241 Y114.474 E8.41111
G1 X106.804 Y114.108 E8.62374
G1 X106.336 Y113.762 E8.84084
G1 X105.861 Y113.455 E9.05181
G1 X105.378 Y113.182 E9.25877
G1 X104.874 Y112.937 E9.46781
G1 X104.334 Y112.714 E9.68574
G1 X103.825 Y112.537 E9.88676
G1 X103.263 Y112.379 E10.10452
G1 X102.703 Y112.257 E10.31831
G1 X102.099 Y112.163 E10.54633
G1 X101.582 Y112.119 E10.73987
G1 X101.014 Y112.101 E10.95186
G1 X100.435 Y112.118 E11.16793
G1 X99.915 Y112.165 E11.36269
G1 X99.308 Y112.254 E11.59153
G1 X98.748 Y112.375 E11.80524
G1 X98.189 Y112.53 E12.02163
G1 X97.68 Y112.709 E12.22289
G1 X97.155 Y112.924 E12.43451
G1 X96.63 Y113.179 E12.65223
G1 X96.135 Y113.457 E12.864
G1 X95.67 Y113.758 E13.07062
G1 X95.218 Y114.091 E13.28004
G1 X94.776 Y114.459 E13.49458
G1 X94.352 Y114.856 E13.71125
G1 X93.974 Y115.259 E13.91736
G1 X93.608 Y115.696 E14.12998
G1 X93.262 Y116.164 E14.34709
G1 X92.955 Y116.639 E14.55806
G1 X92.682 Y117.122 E14.76501
G1 X92.437 Y117.627 E14.97439
G1 X92.212 Y118.17 E15.19364
G1 X92.037 Y118.675 E15.393
G1 X91.879 Y119.237 E15.61077
G1 X91.757 Y119.797 E15.82456
G1 X91.663 Y120.401 E16.05257
G1 X91.619 Y120.918 E16.24612
G1 X91.601 Y121.488 E16.45885
G1 X91.618 Y122.065 E16.67417
G1 X91.665 Y122.585 E16.86893
G1 X91.754 Y123.194 E17.09851
G1 X91.873 Y123.747 E17.30952
G1 X92.03 Y124.311 E17.5279
G1 X92.207 Y124.816 E17.72751
G1 X92.424 Y125.344 E17.94045
G1 X92.678 Y125.868 E18.15766
G1 X92.955 Y126.361 E18.3686
G1 X93.255 Y126.825 E18.57471
G1 X93.591 Y127.282 E18.78629
G1 X93.956 Y127.72 E18.99897
G1 X94.352 Y128.144 E19.21538
G1 X94.757 Y128.525 E19.4228
G1 X95.194 Y128.891 E19.63543
G1 X95.658 Y129.234 E19.85067
G1 X96.136 Y129.543 E20.06298
G1 X96.618 Y129.816 E20.26961
G1 X97.127 Y130.063 E20.48065
G1 X97.666 Y130.286 E20.69824
G1 X98.175 Y130.463 E20.89926
G1 X98.737 Y130.621 E21.11702
G1 X99.297 Y130.743 E21.33081
G1 X99.901 Y130.837 E21.55883
G1 X100.418 Y130.881 E21.75238
G1 X100.986 Y130.899 E21.96436
G1 X101.565 Y130.882 E22.18043
G0 F6000 X101.589 Y131.282
;TYPE:WALL-OUTER
G1 F1800 X102.132 Y131.233 E22.3838
G1 X102.764 Y131.14 E22.62209
G1 X103.348 Y131.013 E22.84502
G1 X103.931 Y130.852 E23.07064
G1 X104.462 Y130.665 E23.28063
G1 X105.008 Y130.441 E23.50077
G1 X105.556 Y130.176 E23.72784
G1 X106.072 Y129.885 E23.94881
G1 X106.558 Y129.571 E24.16465
G1 X107.029 Y129.224 E24.38287
G1 X107.489 Y128.841 E24.60615
G1 X107.931 Y128.427 E24.83205
G1 X108.326 Y128.007 E25.04712
G1 X108.706 Y127.552 E25.26825
G1 X109.067 Y127.064 E25.49468
G1 X109.387 Y126.568 E25.71486
G1 X109.672 Y126.064 E25.93084
G1 X109.928 Y125.537 E26.14939
G1 X110.162 Y124.972 E26.3775
G1 X110.345 Y124.445 E26.5856
G1 X110.509 Y123.86 E26.81223
G1 X110.637 Y123.277 E27.03488
G1 X110.735 Y122.647 E27.27271
G1 X110.781 Y122.105 E27.47561
G1 X110.799 Y121.512 E27.69691
G1 X110.782 Y120.905 E27.92342
G1 X110.733 Y120.368 E28.12457
G1 X110.64 Y119.734 E28.36359
G1 X110.513 Y119.152 E28.5858
G1 X110.352 Y118.569 E28.81141
G1 X110.166 Y118.038 E29.02128
G1 X109.94 Y117.489 E29.24274
G1 X109.676 Y116.944 E29.46863
G1 X109.385 Y116.428 E29.68961
G1 X109.071 Y115.942 E29.90544
G1 X108.724 Y115.471 E30.12367
G1 X108.341 Y115.011 E30.34695
G1 X107.927 Y114.569 E30.57285
G1 X107.507 Y114.174 E30.78792
G1 X107.052 Y113.794 E31.00905
G1 X106.564 Y113.433 E31.23548
G1 X106.068 Y113.113 E31.45566
G1 X105.564 Y112.828 E31.67164
G1 X105.038 Y112.572 E31.88985
G1 X104.476 Y112.34 E32.11665
G1 X103.945 Y112.155 E32.3264
G1 X103.36 Y111.991 E32.55303
G1 X102.777 Y111.863 E32.77568
G1 X102.147 Y111.765 E33.0135
G1 X101.605 Y111.719 E33.21641
G1 X101.014 Y111.701 E33.43696
G1 X100.411 Y111.718 E33.66198
G1 X99.868 Y111.767 E33.86536
G1 X99.236 Y111.86 E34.10364
G1 X98.652 Y111.987 E34.32658
G1 X98.069 Y112.148 E34.55219
G1 X97.538 Y112.335 E34.76219
G1 X96.992 Y112.559 E34.98233
G1 X96.444 Y112.824 E35.20939
G1 X95.928 Y113.115 E35.43037
G1 X95.442 Y113.429 E35.6462
G1 X94.971 Y113.776 E35.86442
G1 X94.511 Y114.159 E36.0877
G1 X94.069 Y114.573 E36.31361
G1 X93.674 Y114.993 E36.52868
G1 X93.294 Y115.448 E36.74981
G1 X92.933 Y115.936 E36.97623
G1 X92.613 Y116.432 E37.19641
G1 X92.328 Y116.936 E37.41239
G1 X92.072 Y117.463 E37.63094
G1 X91.838 Y118.028 E37.85906
G1 X91.655 Y118.555 E38.06715
G1 X91.491 Y119.14 E38.29378
G1 X91.363 Y119.723 E38.51643
G1 X91.265 Y120.353 E38.75426
G1 X91.219 Y120.895 E38.95716
G1 X91.201 Y121.488 E39.17847
G1 X91.218 Y122.089 E39.40274
G1 X91.267 Y122.632 E39.60611
G1 X91.36 Y123.265 E39.84477
G1 X91.485 Y123.843 E40.06536
G1 X91.648 Y124.431 E40.29297
G1 X91.833 Y124.958 E40.50131
G1 X92.059 Y125.508 E40.72311
G1 X92.323 Y126.054 E40.94934
G1 X92.613 Y126.568 E41.16948
G1 X92.925 Y127.052 E41.38429
G1 X93.276 Y127.528 E41.6049
G1 X93.656 Y127.985 E41.8266
G1 X94.069 Y128.427 E42.05225
G1 X94.491 Y128.824 E42.26837
G1 X94.946 Y129.205 E42.48974
G1 X95.43 Y129.563 E42.7143
G1 X95.928 Y129.885 E42.93552
G1 X96.432 Y130.17 E43.15149
G1 X96.963 Y130.428 E43.37171
G1 X97.524 Y130.66 E43.59816
G1 X98.055 Y130.845 E43.80791
G1 X98.64 Y131.009 E44.03454
G1 X99.223 Y131.137 E44.25719
G1 X99.853 Y131.235 E44.49502
G1 X100.395 Y131.281 E44.69792
G1 X100.986 Y131.299 E44.91848
G1 X101.589 Y131.282 E45.1435
G0 F6000 X101.788 Y131.265
G1 F1500 E44.1435
G1 F600 Z1.3
G0 F6000 X94.596 Y115.095 Z1.3
;TYPE:FILL
G1 F600 Z0.3
G1 F1500 E45.29893
G1 F2400 X107.404 Y127.903 E52.05552
G1 X107.768 Y127.521 E52.25234
G1 X108.127 Y127.09 E52.46158
G1 X108.457 Y126.643 E52.66884
G1 X108.757 Y126.179 E52.87494
G1 X109.018 Y125.717 E53.07288
G1 X109.256 Y125.228 E53.27574
G1 X109.472 Y124.704 E53.48716
G1 X109.655 Y124.157 E53.70232
G1 X103.653 Y130.159 E56.86855
G1 X103.165 Y130.295 E57.05752
G1 X102.638 Y130.41 E57.25872
G1 X101.788 Y130.536 E57.57925
G1 X100.986 Y130.559 E57.87854
G1 X100.145 Y130.532 E58.19241
G1 X99.353 Y130.408 E58.49144
G1 X98.825 Y130.292 E58.69309
G1 X98.342 Y130.155 E58.88037
G1 X92.338 Y124.151 E62.04765
G1 X92.523 Y124.69 E62.26022
G1 X92.732 Y125.2 E62.46582
G1 X92.981 Y125.714 E62.67886
G1 X93.244 Y126.181 E62.87879
G1 X93.531 Y126.626 E63.07631
G1 X93.856 Y127.067 E63.28066
G1 X94.212 Y127.496 E63.48861
G1 X94.594 Y127.904 E63.69709
G1 X107.404 Y115.095 E70.45448
G1 X107.782 Y115.496 E70.66004
G1 X108.137 Y115.923 E70.86718
G1 X108.458 Y116.358 E71.06884
G1 X108.755 Y116.817 E71.27277
G1 X109.017 Y117.281 E71.47154
G1 X109.262 Y117.785 E71.68057
G1 X109.472 Y118.296 E71.88665
G1 X109.66 Y118.845 E72.10312
G1 X103.658 Y112.843 E75.26935
G1 X103.175 Y112.708 E75.45642
G1 X102.647 Y112.592 E75.65807
G1 X101.855 Y112.468 E75.9571
G1 X101.014 Y112.441 E76.27097
G1 X100.212 Y112.464 E76.57026
G1 X99.362 Y112.59 E76.89079
G1 X98.835 Y112.705 E77.092
G1 X98.347 Y112.838 E77.28067
G1 X92.343 Y118.842 E80.44795
G1 X92.528 Y118.296 E80.663
G1 X92.744 Y117.772 E80.87441
G1 X92.986 Y117.275 E81.08061
G1 X93.243 Y116.821 E81.27521
G1 X93.546 Y116.353 E81.48318
G1 X93.873 Y115.91 E81.68857
G1 X94.232 Y115.479 E81.89781
G1 X94.588 Y115.102 E82.09123
G1 X94.996 Y114.718 E82.30023
G1 X95.432 Y114.355 E82.51185
G1 X95.858 Y114.042 E82.70904
G1 X96.317 Y113.745 E82.91297
G1 X96.401 Y113.691
G1 F1500 E81.91297
G1 F600 Z1.3
;MESH:NONMESH
G0 F6000 X101.565 Y130.882 Z1.3
;TIME_ELAPSED:12.984518
;LAYER:1
;MESH:Sajad.stl
G0 X101.565 Y130.882 Z1.6
;TYPE:WALL-INNER
G1 F600 Z0.6
G1 F1500 E83.0684
G1 F1800 X102.085 Y130.835 E83.26316
G1 X102.692 Y130.746 E83.492
G1 X103.252 Y130.625 E83.70571
G1 X103.825 Y130.466 E83.92753
G1 X104.333 Y130.287 E84.12844
G1 X104.861 Y130.069 E84.34152
G1 X105.37 Y129.823 E84.5524
G1 X105.865 Y129.543 E84.76454
G1 X106.342 Y129.234 E84.97654
G1 X106.794 Y128.9 E85.18618
G1 X107.234 Y128.532 E85.40015
G1 X107.648 Y128.144 E85.6118
G1 X108.036 Y127.731 E85.82318
G1 X108.4 Y127.294 E86.03533
G1 X108.738 Y126.836 E86.24766
G1 X109.045 Y126.361 E86.45863
G1 X109.325 Y125.866 E86.67077
G1 X109.569 Y125.361 E86.87998
G1 X109.788 Y124.831 E87.09389
G1 X109.963 Y124.325 E87.29361
G1 X110.127 Y123.745 E87.51844
G1 X110.246 Y123.192 E87.72944
G1 X110.339 Y122.585 E87.95851
G1 X110.382 Y122.067 E88.1524
G1 X110.399 Y121.498 E88.36474
G1 X110.382 Y120.93 E88.57671
G1 X110.335 Y120.415 E88.76961
G1 X110.246 Y119.806 E88.9992
G1 X110.125 Y119.248 E89.21218
G1 X109.966 Y118.675 E89.43399
G1 X109.787 Y118.167 E89.63491
G1 X109.569 Y117.639 E89.84799
G1 X109.323 Y117.13 E90.05887
G1 X109.043 Y116.635 E90.27101
G1 X108.734 Y116.158 E90.48301
G1 X108.4 Y115.706 E90.69265
G1 X108.032 Y115.266 E90.90662
G1 X107.644 Y114.852 E91.11827
G1 X107.231 Y114.464 E91.32964
G1 X106.794 Y114.1 E91.5418
G1 X106.336 Y113.762 E91.75412
G1 X105.861 Y113.455 E91.96509
G1 X105.366 Y113.175 E92.17723
G1 X104.861 Y112.931 E92.38644
G1 X104.335 Y112.714 E92.59869
G1 X103.825 Y112.537 E92.80006
G1 X103.25 Y112.375 E93.0229
G1 X102.69 Y112.254 E93.23661
G1 X102.085 Y112.161 E93.46494
G1 X101.567 Y112.118 E93.65883
G1 X101 Y112.101 E93.87042
G1 X100.435 Y112.118 E94.08128
G1 X99.915 Y112.165 E94.27604
G1 X99.308 Y112.254 E94.50488
G1 X98.748 Y112.375 E94.71859
G1 X98.175 Y112.534 E94.94041
G1 X97.667 Y112.713 E95.14132
G1 X97.139 Y112.931 E95.3544
G1 X96.63 Y113.177 E95.56528
G1 X96.135 Y113.457 E95.77742
G1 X95.658 Y113.766 E95.98942
G1 X95.206 Y114.1 E96.19906
G1 X94.766 Y114.468 E96.41303
G1 X94.352 Y114.856 E96.62468
G1 X93.964 Y115.269 E96.83606
G1 X93.6 Y115.706 E97.04821
G1 X93.262 Y116.164 E97.26054
G1 X92.955 Y116.639 E97.47151
G1 X92.675 Y117.134 E97.68365
G1 X92.431 Y117.639 E97.89286
G1 X92.212 Y118.169 E98.10677
G1 X92.037 Y118.675 E98.30649
G1 X91.873 Y119.255 E98.53132
G1 X91.754 Y119.808 E98.74232
G1 X91.661 Y120.415 E98.97139
G1 X91.618 Y120.933 E99.16528
G1 X91.601 Y121.501 E99.37725
G1 X91.618 Y122.065 E99.58773
G1 X91.665 Y122.585 E99.78249
G1 X91.754 Y123.194 E100.01207
G1 X91.873 Y123.747 E100.22307
G1 X92.034 Y124.325 E100.44688
G1 X92.211 Y124.829 E100.64614
G1 X92.431 Y125.361 E100.86089
G1 X92.675 Y125.866 E101.0701
G1 X92.955 Y126.361 E101.28223
G1 X93.262 Y126.836 E101.4932
G1 X93.6 Y127.294 E101.70553
G1 X93.964 Y127.731 E101.91768
G1 X94.352 Y128.144 E102.12906
G1 X94.766 Y128.532 E102.34071
G1 X95.206 Y128.9 E102.55468
G1 X95.658 Y129.234 E102.76432
G1 X96.136 Y129.543 E102.97664
G1 X96.63 Y129.823 E103.18845
G1 X97.139 Y130.069 E103.39933
G1 X97.665 Y130.286 E103.61158
G1 X98.175 Y130.463 E103.81295
G1 X98.75 Y130.625 E104.03579
G1 X99.31 Y130.746 E104.2495
G1 X99.915 Y130.839 E104.47782
G1 X100.433 Y130.882 E104.67171
G1 X101 Y130.899 E104.88331
G1 X101.565 Y130.882 E105.09416
G0 F6000 X101.589 Y131.282
;TYPE:WALL-OUTER
G1 F1800 X102.132 Y131.233 E105.29753
G1 X102.764 Y131.14 E105.53582
G1 X103.348 Y131.013 E105.75876
G1 X103.945 Y130.848 E105.9898
G1 X104.476 Y130.661 E106.19979
G1 X105.025 Y130.434 E106.4214
G1 X105.556 Y130.177 E106.64145
G1 X106.072 Y129.885 E106.86261
G1 X106.57 Y129.563 E107.08382
G1 X107.041 Y129.215 E107.30227
G1 X107.5 Y128.832 E107.52526
G1 X107.931 Y128.427 E107.74588
G1 X108.336 Y127.996 E107.96649
G1 X108.715 Y127.541 E108.18738
G1 X109.067 Y127.064 E108.40851
G1 X109.387 Y126.568 E108.62869
G1 X109.679 Y126.052 E108.84985
G1 X109.934 Y125.525 E109.06824
G1 X110.162 Y124.973 E109.29102
G1 X110.345 Y124.445 E109.49947
G1 X110.515 Y123.842 E109.73317
G1 X110.64 Y123.264 E109.95376
G1 X110.737 Y122.632 E110.19226
G1 X110.782 Y122.089 E110.39551
G1 X110.799 Y121.498 E110.61605
G1 X110.782 Y120.906 E110.83697
G1 X110.733 Y120.368 E111.03849
G1 X110.64 Y119.734 E111.27751
G1 X110.513 Y119.152 E111.49972
G1 X110.348 Y118.555 E111.73076
G1 X110.161 Y118.024 E111.94076
G1 X109.934 Y117.475 E112.16236
G1 X109.677 Y116.944 E112.38241
G1 X109.385 Y116.428 E112.60357
G1 X109.063 Y115.93 E112.82479
G1 X108.715 Y115.459 E113.04323
G1 X108.332 Y115 E113.26622
G1 X107.927 Y114.569 E113.48684
G1 X107.496 Y114.164 E113.70745
G1 X107.041 Y113.785 E113.92834
G1 X106.564 Y113.433 E114.14948
G1 X106.068 Y113.113 E114.36966
G1 X105.552 Y112.821 E114.59082
G1 X105.025 Y112.566 E114.8092
G1 X104.477 Y112.34 E115.03032
G1 X103.945 Y112.155 E115.24042
G1 X103.347 Y111.987 E115.47212
G1 X102.763 Y111.86 E115.69506
G1 X102.132 Y111.763 E115.9332
G1 X101.589 Y111.718 E116.13644
G1 X101 Y111.701 E116.35624
G1 X100.411 Y111.718 E116.57604
G1 X99.868 Y111.767 E116.77941
G1 X99.236 Y111.86 E117.0177
G1 X98.652 Y111.987 E117.24063
G1 X98.055 Y112.152 E117.47168
G1 X97.524 Y112.339 E117.68167
G1 X96.975 Y112.566 E117.90328
G1 X96.444 Y112.823 E118.12333
G1 X95.928 Y113.115 E118.34449
G1 X95.43 Y113.437 E118.5657
G1 X94.959 Y113.785 E118.78415
G1 X94.5 Y114.168 E119.00714
G1 X94.069 Y114.573 E119.22775
G1 X93.664 Y115.004 E119.44837
G1 X93.285 Y115.459 E119.66926
G1 X92.933 Y115.936 E119.89039
G1 X92.613 Y116.432 E120.11057
G1 X92.321 Y116.948 E120.33173
G1 X92.066 Y117.475 E120.55012
G1 X91.838 Y118.027 E120.7729
G1 X91.655 Y118.555 E120.98135
G1 X91.485 Y119.158 E121.21504
G1 X91.36 Y119.736 E121.43563
G1 X91.263 Y120.368 E121.67414
G1 X91.218 Y120.911 E121.87739
G1 X91.201 Y121.501 E122.09756
G1 X91.218 Y122.089 E122.31699
G1 X91.267 Y122.632 E122.52036
G1 X91.36 Y123.265 E122.75901
G1 X91.485 Y123.843 E122.9796
G1 X91.652 Y124.445 E123.21264
G1 X91.837 Y124.972 E123.42098
G1 X92.066 Y125.525 E123.64425
G1 X92.321 Y126.052 E123.86264
G1 X92.613 Y126.568 E124.0838
G1 X92.933 Y127.064 E124.30398
G1 X93.285 Y127.541 E124.52511
G1 X93.664 Y127.996 E124.746
G1 X94.069 Y128.427 E124.96661
G1 X94.5 Y128.832 E125.18723
G1 X94.959 Y129.215 E125.41022
G1 X95.43 Y129.563 E125.62867
G1 X95.928 Y129.885 E125.84988
G1 X96.444 Y130.177 E126.07104
G1 X96.975 Y130.434 E126.29109
G1 X97.523 Y130.66 E126.51221
G1 X98.055 Y130.845 E126.72231
G1 X98.653 Y131.013 E126.95401
G1 X99.237 Y131.14 E127.17695
G1 X99.868 Y131.237 E127.41509
G1 X100.411 Y131.282 E127.61833
G1 X101 Y131.299 E127.83813
G1 X101.589 Y131.282 E128.05793
G0 F6000 X101.788 Y131.265
G1 F1500 E127.05793
G1 F600 Z1.6
G0 F6000 X98.346 Y112.839 Z1.6
;TYPE:FILL
G1 F600 Z0.6
G1 F1500 E128.21336
G1 F2400 X92.341 Y118.844 E131.38117
G1 X92.204 Y119.331 E131.56988
G1 X92.09 Y119.865 E131.77356
G1 X91.967 Y120.655 E132.0718
G1 X91.941 Y121.507 E132.38976
G1 X91.964 Y122.289 E132.68158
G1 X92.089 Y123.135 E133.00058
G1 X92.203 Y123.66 E133.20098
G1 X92.339 Y124.152 E133.39139
G1 X98.344 Y130.157 E136.5592
G1 X97.788 Y129.969 E136.77814
