;FLAVOR:Marlin
;TIME:712
;Filament used: 5.41101m, 0m
;Layer height: 0.3
;MINX:91.201
;MINY:111.701
;MINZ:0.3
;MAXX:110.799
;MAXY:131.299
;MAXZ:7
;Generated with Cura_SteamEngine 5.0.1
T0
M140 S40
M105
M190 S40
M104 S200
M105
M109 S200
M82 ;absolute extrusion mode
M900 K0.020;
G28 ; home all axes
G1 Z5 F5000 ; lift nozzle
G1 X-45 Y70 F2500; go to glycerin roller;
G92 E0
G1 X-23 F5000; park to start
G92 E0; Extrude a small amount to clear nozzle
G1 E20 F4000
G4 P2000
G92 E0


G92 E0
G1 F1500 E-1
;LAYER_COUNT:20
;LAYER:0
M107
M204 S500
G1 F600 Z1.3
;MESH:Sajad.stl
G0 F6000 X101.565 Y130.882 Z1.3
;TYPE:WALL-INNER
G1 F600 Z0.3
G1 F1500 E0.15542
G1 F1800 X102.085 Y130.835 E0.35019
G1 X102.692 Y130.746 E0.57903
G1 X103.252 Y130.625 E0.79274
G1 X103.811 Y130.47 E1.00913
G1 X104.32 Y130.291 E1.21039
G1 X104.845 Y130.075 E1.42215
G1 X105.37 Y129.821 E1.6397
G1 X105.865 Y129.543 E1.85148
G1 X106.33 Y129.242 E2.0581
G1 X106.782 Y128.909 E2.26752
G1 X107.224 Y128.541 E2.48206
G1 X107.648 Y128.144 E2.69873
G1 X108.026 Y127.741 E2.90483
G1 X108.392 Y127.304 E3.11746
G1 X108.738 Y126.836 E3.33456
G1 X109.045 Y126.361 E3.54553
G1 X109.318 Y125.878 E3.75249
G1 X109.563 Y125.373 E3.96186
G1 X109.788 Y124.83 E4.18111
G1 X109.963 Y124.325 E4.38048
G1 X110.121 Y123.763 E4.59824
G1 X110.243 Y123.203 E4.81203
G1 X110.337 Y122.599 E5.04005
G1 X110.381 Y122.082 E5.2336
G1 X110.399 Y121.512 E5.44632
G1 X110.382 Y120.929 E5.66389
G1 X110.335 Y120.415 E5.85642
G1 X110.246 Y119.806 E6.086
G1 X110.125 Y119.248 E6.29898
G1 X109.97 Y118.689 E6.51537
G1 X109.792 Y118.18 E6.71651
G1 X109.574 Y117.653 E6.92925
G1 X109.322 Y117.13 E7.1458
G1 X109.043 Y116.635 E7.35775
G1 X108.742 Y116.17 E7.56438
G1 X108.409 Y115.718 E7.7738
G1 X108.041 Y115.276 E7.98834
G1 X107.644 Y114.852 E8.205
G1 X107.241 Y114.474 E8.41111
G1 X106.804 Y114.108 E8.62374
G1 X106.336 Y113.762 E8.84084
G1 X105.861 Y113.455 E9.05181
G1 X105.378 Y113.182 E9.25877
G1 X104.874 Y112.937 E9.46781
G1 X104.334 Y112.714 E9.68574
G1 X103.825 Y112.537 E9.88676
G1 X103.263 Y112.379 E10.10452
G1 X102.703 Y112.257 E10.31831
G1 X102.099 Y112.163 E10.54633
G1 X101.582 Y112.119 E10.73987
G1 X101.014 Y112.101 E10.95186
G1 X100.435 Y112.118 E11.16793
G1 X99.915 Y112.165 E11.36269
G1 X99.308 Y112.254 E11.59153
G1 X98.748 Y112.375 E11.80524
G1 X98.189 Y112.53 E12.02163
G1 X97.68 Y112.709 E12.22289
G1 X97.155 Y112.924 E12.43451
G1 X96.63 Y113.179 E12.65223
G1 X96.135 Y113.457 E12.864
G1 X95.67 Y113.758 E13.07062
G1 X95.218 Y114.091 E13.28004
G1 X94.776 Y114.459 E13.49458
G1 X94.352 Y114.856 E13.71125
G1 X93.974 Y115.259 E13.91736
G1 X93.608 Y115.696 E14.12998
G1 X93.262 Y116.164 E14.34709
G1 X92.955 Y116.639 E14.55806
G1 X92.682 Y117.122 E14.76501
G1 X92.437 Y117.627 E14.97439
G1 X92.212 Y118.17 E15.19364
G1 X92.037 Y118.675 E15.393
G1 X91.879 Y119.237 E15.61077
G1 X91.757 Y119.797 E15.82456
G1 X91.663 Y120.401 E16.05257
G1 X91.619 Y120.918 E16.24612
G1 X91.601 Y121.488 E16.45885
G1 X91.618 Y122.065 E16.67417
G1 X91.665 Y122.585 E16.86893
G1 X91.754 Y123.194 E17.09851
G1 X91.873 Y123.747 E17.30952
G1 X92.03 Y124.311 E17.5279
G1 X92.207 Y124.816 E17.72751
G1 X92.424 Y125.344 E17.94045
G1 X92.678 Y125.868 E18.15766
G1 X92.955 Y126.361 E18.3686
G1 X93.255 Y126.825 E18.57471
G1 X93.591 Y127.282 E18.78629
G1 X93.956 Y127.72 E18.99897
G1 X94.352 Y128.144 E19.21538
G1 X94.757 Y128.525 E19.4228
G1 X95.194 Y128.891 E19.63543
G1 X95.658 Y129.234 E19.85067
G1 X96.136 Y129.543 E20.06298
G1 X96.618 Y129.816 E20.26961
G1 X97.127 Y130.063 E20.48065
G1 X97.666 Y130.286 E20.69824
G1 X98.175 Y130.463 E20.89926
G1 X98.737 Y130.621 E21.11702
G1 X99.297 Y130.743 E21.33081
G1 X99.901 Y130.837 E21.55883
G1 X100.418 Y130.881 E21.75238
G1 X100.986 Y130.899 E21.96436
G1 X101.565 Y130.882 E22.18043
G0 F6000 X101.589 Y131.282
;TYPE:WALL-OUTER
G1 F1800 X102.132 Y131.233 E22.3838
G1 X102.764 Y131.14 E22.62209
G1 X103.348 Y131.013 E22.84502
G1 X103.931 Y130.852 E23.07064
G1 X104.462 Y130.665 E23.28063
G1 X105.008 Y130.441 E23.50077
G1 X105.556 Y130.176 E23.72784
G1 X106.072 Y129.885 E23.94881
G1 X106.558 Y129.571 E24.16465
G1 X107.029 Y129.224 E24.38287
G1 X107.489 Y128.841 E24.60615
G1 X107.931 Y128.427 E24.83205
G1 X108.326 Y128.007 E25.04712
G1 X108.706 Y127.552 E25.26825
G1 X109.067 Y127.064 E25.49468
G1 X109.387 Y126.568 E25.71486
G1 X109.672 Y126.064 E25.93084
G1 X109.928 Y125.537 E26.14939
G1 X110.162 Y124.972 E26.3775
G1 X110.345 Y124.445 E26.5856
G1 X110.509 Y123.86 E26.81223
G1 X110.637 Y123.277 E27.03488
G1 X110.735 Y122.647 E27.27271
G1 X110.781 Y122.105 E27.47561
G1 X110.799 Y121.512 E27.69691
G1 X110.782 Y120.905 E27.92342
G1 X110.733 Y120.368 E28.12457
G1 X110.64 Y119.734 E28.36359
G1 X110.513 Y119.152 E28.5858
G1 X110.352 Y118.569 E28.81141
G1 X110.166 Y118.038 E29.02128
G1 X109.94 Y117.489 E29.24274
G1 X109.676 Y116.944 E29.46863
G1 X109.385 Y116.428 E29.68961
G1 X109.071 Y115.942 E29.90544
G1 X108.724 Y115.471 E30.12367
G1 X108.341 Y115.011 E30.34695
G1 X107.927 Y114.569 E30.57285
G1 X107.507 Y114.174 E30.78792
G1 X107.052 Y113.794 E31.00905
G1 X106.564 Y113.433 E31.23548
G1 X106.068 Y113.113 E31.45566
G1 X105.564 Y112.828 E31.67164
G1 X105.038 Y112.572 E31.88985
G1 X104.476 Y112.34 E32.11665
G1 X103.945 Y112.155 E32.3264
G1 X103.36 Y111.991 E32.55303
G1 X102.777 Y111.863 E32.77568
G1 X102.147 Y111.765 E33.0135
G1 X101.605 Y111.719 E33.21641
G1 X101.014 Y111.701 E33.43696
G1 X100.411 Y111.718 E33.66198
G1 X99.868 Y111.767 E33.86536
G1 X99.236 Y111.86 E34.10364
G1 X98.652 Y111.987 E34.32658
G1 X98.069 Y112.148 E34.55219
G1 X97.538 Y112.335 E34.76219
G1 X96.992 Y112.559 E34.98233
G1 X96.444 Y112.824 E35.20939
G1 X95.928 Y113.115 E35.43037
G1 X95.442 Y113.429 E35.6462
G1 X94.971 Y113.776 E35.86442
G1 X94.511 Y114.159 E36.0877
G1 X94.069 Y114.573 E36.31361
G1 X93.674 Y114.993 E36.52868
G1 X93.294 Y115.448 E36.74981
G1 X92.933 Y115.936 E36.97623
G1 X92.613 Y116.432 E37.19641
G1 X92.328 Y116.936 E37.41239
G1 X92.072 Y117.463 E37.63094
G1 X91.838 Y118.028 E37.85906
G1 X91.655 Y118.555 E38.06715
G1 X91.491 Y119.14 E38.29378
G1 X91.363 Y119.723 E38.51643
G1 X91.265 Y120.353 E38.75426
G1 X91.219 Y120.895 E38.95716
G1 X91.201 Y121.488 E39.17847
G1 X91.218 Y122.089 E39.40274
G1 X91.267 Y122.632 E39.60611
G1 X91.36 Y123.265 E39.84477
G1 X91.485 Y123.843 E40.06536
G1 X91.648 Y124.431 E40.29297
G1 X91.833 Y124.958 E40.50131
G1 X92.059 Y125.508 E40.72311
G1 X92.323 Y126.054 E40.94934
G1 X92.613 Y126.568 E41.16948
G1 X92.925 Y127.052 E41.38429
G1 X93.276 Y127.528 E41.6049
G1 X93.656 Y127.985 E41.8266
G1 X94.069 Y128.427 E42.05225
G1 X94.491 Y128.824 E42.26837
G1 X94.946 Y129.205 E42.48974
G1 X95.43 Y129.563 E42.7143
G1 X95.928 Y129.885 E42.93552
G1 X96.432 Y130.17 E43.15149
G1 X96.963 Y130.428 E43.37171
G1 X97.524 Y130.66 E43.59816
G1 X98.055 Y130.845 E43.80791
G1 X98.64 Y131.009 E44.03454
G1 X99.223 Y131.137 E44.25719
G1 X99.853 Y131.235 E44.49502
G1 X100.395 Y131.281 E44.69792
G1 X100.986 Y131.299 E44.91848
G1 X101.589 Y131.282 E45.1435
G0 F6000 X101.788 Y131.265
G1 F1500 E44.1435
G1 F600 Z1.3
G0 F6000 X102.094 Y130.491 Z1.3
;TYPE:FILL
G1 F600 Z0.3
G1 F1500 E45.29893
G1 F2400 X101.994 Y130.427 E45.34321
G1 X101.713 Y130.538 E45.45591
G1 X101.128 Y130.555 E45.67422
G1 X100.926 Y130.427 E45.76343
G1 X100.63 Y130.548 E45.88271
G1 X99.984 Y130.507 E46.12416
G1 X99.858 Y130.427 E46.17984
G1 X99.706 Y130.485 E46.24052
G1 X98.825 Y130.292 E46.57695
G1 X98.305 Y130.145 E46.77852
G1 X98.523 Y130.062 E46.86553
G1 X98.79 Y129.893 E46.9834
G1 X99.057 Y129.995 E47.09002
G1 X99.324 Y130.164 E47.20789
G1 X99.591 Y130.062 E47.31451
G1 X99.858 Y129.893 E47.43238
G1 X100.125 Y129.995 E47.53899
G1 X100.392 Y130.164 E47.65686
G1 X100.659 Y130.062 E47.76348
G1 X100.926 Y129.893 E47.88135
G1 X101.193 Y129.995 E47.98797
G1 X101.46 Y130.164 E48.10584
G1 X101.727 Y130.062 E48.21245
G1 X101.994 Y129.893 E48.33032
G1 X102.261 Y129.995 E48.43694
G1 X102.528 Y130.164 E48.55481
G1 X102.795 Y130.062 E48.66143
G1 X103.062 Y129.893 E48.7793
G1 X103.329 Y129.995 E48.88591
G1 X103.596 Y130.164 E49.00378
G1 X103.863 Y130.062 E49.1104
G1 X104.13 Y129.893 E49.22827
G1 X104.267 Y129.945 E49.28293
G1 X104.707 Y129.765 E49.46026
G1 X105.348 Y129.454 E49.72603
G1 X105.198 Y129.359 E49.79226
G1 X104.931 Y129.461 E49.89887
G1 X104.664 Y129.63 E50.01674
G1 X104.397 Y129.528 E50.12336
G1 X104.13 Y129.359 E50.24123
G1 X103.863 Y129.461 E50.34785
G1 X103.596 Y129.63 E50.46572
G1 X103.329 Y129.528 E50.57233
G1 X103.062 Y129.359 E50.6902
G1 X102.795 Y129.461 E50.79682
G1 X102.528 Y129.63 E50.91469
G1 X102.261 Y129.528 E51.02131
G1 X101.994 Y129.359 E51.13918
G1 X101.727 Y129.461 E51.24579
G1 X101.46 Y129.63 E51.36367
G1 X101.193 Y129.528 E51.47028
G1 X100.926 Y129.359 E51.58815
G1 X100.659 Y129.461 E51.69477
G1 X100.392 Y129.63 E51.81264
G1 X100.125 Y129.528 E51.91926
G1 X99.858 Y129.359 E52.03713
G1 X99.591 Y129.461 E52.14374
G1 X99.324 Y129.63 E52.26161
G1 X99.057 Y129.528 E52.36823
G1 X98.79 Y129.359 E52.4861
G1 X98.523 Y129.461 E52.59272
G1 X98.256 Y129.63 E52.71059
G1 X97.989 Y129.528 E52.8172
G1 X97.722 Y129.359 E52.93507
G1 X97.455 Y129.461 E53.04169
G1 X97.188 Y129.63 E53.15956
G1 X96.921 Y129.528 E53.26618
G1 X96.654 Y129.359 E53.38405
G1 X96.542 Y129.402 E53.4288
G1 X97.65 Y129.938 E53.88793
G1 X97.722 Y129.893 E53.9196
G1 X98.14 Y130.09 E54.09197
G1 F1500 E53.09197
G1 F600 Z1.3
G0 F6000 X95.776 Y128.898 Z1.3
G1 F600 Z0.3
G1 F1500 E54.24739
G1 F2400 X96.12 Y129.096 E54.39545
G1 X96.387 Y128.994 E54.50207
G1 X96.654 Y128.825 E54.61994
G1 X96.921 Y128.927 E54.72655
G1 X97.188 Y129.096 E54.84442
G1 X97.455 Y128.994 E54.95104
G1 X97.722 Y128.825 E55.06891
G1 X97.989 Y128.927 E55.17553
G1 X98.256 Y129.096 E55.2934
G1 X98.523 Y128.994 E55.40001
G1 X98.79 Y128.825 E55.51788
G1 X99.057 Y128.927 E55.6245
G1 X99.324 Y129.096 E55.74237
G1 X99.591 Y128.994 E55.84899
G1 X99.858 Y128.825 E55.96686
G1 X100.125 Y128.927 E56.07347
G1 X100.392 Y129.096 E56.19134
G1 X100.659 Y128.994 E56.29796
G1 X100.926 Y128.825 E56.41583
G1 X101.193 Y128.927 E56.52245
G1 X101.46 Y129.096 E56.64032
G1 X101.727 Y128.994 E56.74693
G1 X101.994 Y128.825 E56.86481
G1 X102.261 Y128.927 E56.97142
G1 X102.528 Y129.096 E57.08929
G1 X102.795 Y128.994 E57.19591
G1 X103.062 Y128.825 E57.31378
G1 X103.329 Y128.927 E57.4204
G1 X103.596 Y129.096 E57.53827
G1 X103.863 Y128.994 E57.64488
G1 X104.13 Y128.825 E57.76275
G1 X104.397 Y128.927 E57.86937
G1 X104.664 Y129.096 E57.98724
G1 X104.931 Y128.994 E58.09386
G1 X105.198 Y128.825 E58.21173
G1 X105.465 Y128.927 E58.31834
G1 X105.732 Y129.096 E58.43621
G1 X105.999 Y128.994 E58.54283
G1 X106.266 Y128.825 E58.6607
G1 X106.304 Y128.839 E58.67581
G1 X106.709 Y128.527 E58.86651
G1 X106.266 Y128.291 E59.05374
G1 X105.999 Y128.393 E59.16036
G1 X105.732 Y128.562 E59.27823
G1 X105.465 Y128.46 E59.38485
G1 X105.198 Y128.291 E59.50272
G1 X104.931 Y128.393 E59.60933
G1 X104.664 Y128.562 E59.7272
G1 X104.397 Y128.46 E59.83382
G1 X104.13 Y128.291 E59.95169
G1 X103.863 Y128.393 E60.05831
G1 X103.596 Y128.562 E60.17618
G1 X103.329 Y128.46 E60.2828
G1 X103.062 Y128.291 E60.40067
G1 X102.795 Y128.393 E60.50728
G1 X102.528 Y128.562 E60.62515
G1 X102.261 Y128.46 E60.73177
G1 X101.994 Y128.291 E60.84964
G1 X101.727 Y128.393 E60.95626
G1 X101.46 Y128.562 E61.07413
G1 X101.193 Y128.46 E61.18074
G1 X100.926 Y128.291 E61.29861
G1 X100.659 Y128.393 E61.40523
G1 X100.392 Y128.562 E61.5231
G1 X100.125 Y128.46 E61.62972
G1 X99.858 Y128.291 E61.74759
G1 X99.591 Y128.393 E61.8542
G1 X99.324 Y128.562 E61.97207
G1 X99.057 Y128.46 E62.07869
G1 X98.79 Y128.291 E62.19656
G1 X98.523 Y128.393 E62.30318
G1 X98.256 Y128.562 E62.42105
G1 X97.989 Y128.46 E62.52766
G1 X97.722 Y128.291 E62.64554
G1 X97.455 Y128.393 E62.75215
G1 X97.188 Y128.562 E62.87002
G1 X96.921 Y128.46 E62.97664
G1 X96.654 Y128.291 E63.09451
G1 X96.387 Y128.393 E63.20113
G1 X96.12 Y128.562 E63.319
G1 X95.853 Y128.46 E63.42561
G1 X95.586 Y128.291 E63.54348
G1 X95.196 Y128.471 E63.70371
G1 X94.47 Y127.787 E64.07578
G1 X94.518 Y127.757 E64.0969
G1 X94.785 Y127.859 E64.20351
G1 X95.052 Y128.028 E64.32138
G1 X95.319 Y127.926 E64.428
G1 X95.586 Y127.757 E64.54587
G1 X95.853 Y127.859 E64.65249
G1 X96.12 Y128.028 E64.77036
G1 X96.387 Y127.926 E64.87697
G1 X96.654 Y127.757 E64.99484
G1 X96.921 Y127.859 E65.10146
G1 X97.188 Y128.028 E65.21933
G1 X97.455 Y127.926 E65.32595
G1 X97.722 Y127.757 E65.44382
G1 X97.989 Y127.859 E65.55043
G1 X98.256 Y128.028 E65.6683
G1 X98.523 Y127.926 E65.77492
G1 X98.79 Y127.757 E65.89279
G1 X99.057 Y127.859 E65.99941
G1 X99.324 Y128.028 E66.11728
G1 X99.591 Y127.926 E66.22389
G1 X99.858 Y127.757 E66.34176
G1 X100.125 Y127.859 E66.44838
G1 X100.392 Y128.028 E66.56625
G1 X100.659 Y127.926 E66.67287
G1 X100.926 Y127.757 E66.79074
G1 X101.193 Y127.859 E66.89735
G1 X101.46 Y128.028 E67.01523
G1 X101.727 Y127.926 E67.12184
G1 X101.994 Y127.757 E67.23971
G1 X102.261 Y127.859 E67.34633
G1 X102.528 Y128.028 E67.4642
G1 X102.795 Y127.926 E67.57082
G1 X103.062 Y127.757 E67.68869
G1 X103.329 Y127.859 E67.7953
G1 X103.596 Y128.028 E67.91317
G1 X103.863 Y127.926 E68.01979
G1 X104.13 Y127.757 E68.13766
G1 X104.397 Y127.859 E68.24428
G1 X104.664 Y128.028 E68.36215
G1 X104.931 Y127.926 E68.46876
G1 X105.198 Y127.757 E68.58663
G1 X105.465 Y127.859 E68.69325
G1 X105.732 Y128.028 E68.81112
G1 X105.999 Y127.926 E68.91774
G1 X106.266 Y127.757 E69.03561
G1 X106.533 Y127.859 E69.14222
G1 X106.8 Y128.028 E69.26009
G1 X107.067 Y127.926 E69.36671
G1 X107.334 Y127.757 E69.48458
G1 X107.489 Y127.816 E69.54645
G1 X107.809 Y127.472 E69.7217
G1 X107.601 Y127.392 E69.80483
G1 X107.334 Y127.223 E69.9227
G1 X107.067 Y127.325 E70.02932
G1 X106.8 Y127.494 E70.14719
G1 X106.533 Y127.392 E70.2538
G1 X106.266 Y127.223 E70.37167
G1 X105.999 Y127.325 E70.47829
G1 X105.732 Y127.494 E70.59616
G1 X105.465 Y127.392 E70.70278
G1 X105.198 Y127.223 E70.82065
G1 X104.931 Y127.325 E70.92726
G1 X104.664 Y127.494 E71.04514
G1 X104.397 Y127.392 E71.15175
G1 X104.13 Y127.223 E71.26962
G1 X103.863 Y127.325 E71.37624
G1 X103.596 Y127.494 E71.49411
G1 X103.329 Y127.392 E71.60073
G1 X103.062 Y127.223 E71.7186
G1 X102.795 Y127.325 E71.82521
G1 X102.528 Y127.494 E71.94308
G1 X102.261 Y127.392 E72.0497
G1 X101.994 Y127.223 E72.16757
G1 X101.727 Y127.325 E72.27419
G1 X101.46 Y127.494 E72.39206
G1 X101.193 Y127.392 E72.49867
G1 X100.926 Y127.223 E72.61654
G1 X100.659 Y127.325 E72.72316
G1 X100.392 Y127.494 E72.84103
G1 X100.125 Y127.392 E72.94765
G1 X99.858 Y127.223 E73.06552
G1 X99.591 Y127.325 E73.17213
G1 X99.324 Y127.494 E73.29
G1 X99.057 Y127.392 E73.39662
G1 X98.79 Y127.223 E73.51449
G1 X98.523 Y127.325 E73.62111
G1 X98.256 Y127.494 E73.73898
G1 X97.989 Y127.392 E73.84559
G1 X97.722 Y127.223 E73.96347
G1 X97.455 Y127.325 E74.07008
G1 X97.188 Y127.494 E74.18795
G1 X96.921 Y127.392 E74.29457
G1 X96.654 Y127.223 E74.41244
G1 X96.387 Y127.325 E74.51906
G1 X96.12 Y127.494 E74.63693
G1 X95.853 Y127.392 E74.74354
G1 X95.586 Y127.223 E74.86141
G1 X95.319 Y127.325 E74.96803
G1 X95.052 Y127.494 E75.0859
G1 X94.785 Y127.392 E75.19252
G1 X94.518 Y127.223 E75.31039
G1 X94.132 Y127.4 E75.46879
G1 X93.627 Y126.757 E75.77377
G1 X93.984 Y126.96 E75.92696
G1 X94.251 Y126.858 E76.03358
G1 X94.518 Y126.689 E76.15145
G1 X94.785 Y126.791 E76.25807
G1 X95.052 Y126.96 E76.37594
G1 X95.319 Y126.858 E76.48255
G1 X95.586 Y126.689 E76.60042
G1 X95.853 Y126.791 E76.70704
G1 X96.12 Y126.96 E76.82491
G1 X96.387 Y126.858 E76.93153
G1 X96.654 Y126.689 E77.0494
G1 X96.921 Y126.791 E77.15601
G1 X97.188 Y126.96 E77.27388
G1 X97.455 Y126.858 E77.3805
G1 X97.722 Y126.689 E77.49837
G1 X97.989 Y126.791 E77.60499
G1 X98.256 Y126.96 E77.72286
G1 X98.523 Y126.858 E77.82947
G1 X98.79 Y126.689 E77.94734
G1 X99.057 Y126.791 E78.05396
G1 X99.324 Y126.96 E78.17183
G1 X99.591 Y126.858 E78.27845
G1 X99.858 Y126.689 E78.39632
G1 X100.125 Y126.791 E78.50293
G1 X100.392 Y126.96 E78.62081
G1 X100.659 Y126.858 E78.72742
G1 X100.926 Y126.689 E78.84529
G1 X101.193 Y126.791 E78.95191
G1 X101.46 Y126.96 E79.06978
G1 X101.727 Y126.858 E79.1764
G1 X101.994 Y126.689 E79.29427
G1 X102.261 Y126.791 E79.40088
