;FLAVOR:Marlin
;TIME:585
;Filament used: 4.62459m, 0m
;Layer height: 0.3
;MINX:91.201
;MINY:111.701
;MINZ:0.3
;MAXX:110.799
;MAXY:131.299
;MAXZ:7
;Generated with Cura_SteamEngine 5.0.1
T0
M140 S40
M105
M190 S40
M104 S200
M105
M109 S200
M82 ;absolute extrusion mode
M900 K0.020;
G28 ; home all axes
G1 Z5 F5000 ; lift nozzle
G1 X-45 Y70 F2500; go to glycerin roller;
G92 E0
G1 X-23 F5000; park to start
G92 E0; Extrude a small amount to clear nozzle
G1 E20 F4000
G4 P2000
G92 E0


G92 E0
G1 F1500 E-1
;LAYER_COUNT:20
;LAYER:0
M107
M204 S500
G1 F600 Z1.3
;MESH:Sajad.stl
G0 F6000 X101.565 Y130.882 Z1.3
;TYPE:WALL-INNER
G1 F600 Z0.3
G1 F1500 E0.15542
G1 F1800 X102.085 Y130.835 E0.35019
G1 X102.692 Y130.746 E0.57903
G1 X103.252 Y130.625 E0.79274
G1 X103.811 Y130.47 E1.00913
G1 X104.32 Y130.291 E1.21039
G1 X104.845 Y130.075 E1.42215
G1 X105.37 Y129.821 E1.6397
G1 X105.865 Y129.543 E1.85148
G1 X106.33 Y129.242 E2.0581
G1 X106.782 Y128.909 E2.26752
G1 X107.224 Y128.541 E2.48206
G1 X107.648 Y128.144 E2.69873
G1 X108.026 Y127.741 E2.90483
G1 X108.392 Y127.304 E3.11746
G1 X108.738 Y126.836 E3.33456
G1 X109.045 Y126.361 E3.54553
G1 X109.318 Y125.878 E3.75249
G1 X109.563 Y125.373 E3.96186
G1 X109.788 Y124.83 E4.18111
G1 X109.963 Y124.325 E4.38048
G1 X110.121 Y123.763 E4.59824
G1 X110.243 Y123.203 E4.81203
G1 X110.337 Y122.599 E5.04005
G1 X110.381 Y122.082 E5.2336
G1 X110.399 Y121.512 E5.44632
G1 X110.382 Y120.929 E5.66389
G1 X110.335 Y120.415 E5.85642
G1 X110.246 Y119.806 E6.086
G1 X110.125 Y119.248 E6.29898
G1 X109.97 Y118.689 E6.51537
G1 X109.792 Y118.18 E6.71651
G1 X109.574 Y117.653 E6.92925
G1 X109.322 Y117.13 E7.1458
G1 X109.043 Y116.635 E7.35775
G1 X108.742 Y116.17 E7.56438
G1 X108.409 Y115.718 E7.7738
G1 X108.041 Y115.276 E7.98834
G1 X107.644 Y114.852 E8.205
G1 X107.241 Y114.474 E8.41111
G1 X106.804 Y114.108 E8.62374
G1 X106.336 Y113.762 E8.84084
G1 X105.861 Y113.455 E9.05181
G1 X105.378 Y113.182 E9.25877
G1 X104.874 Y112.937 E9.46781
G1 X104.334 Y112.714 E9.68574
G1 X103.825 Y112.537 E9.88676
G1 X103.263 Y112.379 E10.10452
G1 X102.703 Y112.257 E10.31831
G1 X102.099 Y112.163 E10.54633
G1 X101.582 Y112.119 E10.73987
G1 X101.014 Y112.101 E10.95186
G1 X100.435 Y112.118 E11.16793
G1 X99.915 Y112.165 E11.36269
G1 X99.308 Y112.254 E11.59153
G1 X98.748 Y112.375 E11.80524
G1 X98.189 Y112.53 E12.02163
G1 X97.68 Y112.709 E12.22289
G1 X97.155 Y112.924 E12.43451
G1 X96.63 Y113.179 E12.65223
G1 X96.135 Y113.457 E12.864
G1 X95.67 Y113.758 E13.07062
G1 X95.218 Y114.091 E13.28004
G1 X94.776 Y114.459 E13.49458
G1 X94.352 Y114.856 E13.71125
G1 X93.974 Y115.259 E13.91736
G1 X93.608 Y115.696 E14.12998
G1 X93.262 Y116.164 E14.34709
G1 X92.955 Y116.639 E14.55806
G1 X92.682 Y117.122 E14.76501
G1 X92.437 Y117.627 E14.97439
G1 X92.212 Y118.17 E15.19364
G1 X92.037 Y118.675 E15.393
G1 X91.879 Y119.237 E15.61077
G1 X91.757 Y119.797 E15.82456
G1 X91.663 Y120.401 E16.05257
G1 X91.619 Y120.918 E16.24612
G1 X91.601 Y121.488 E16.45885
G1 X91.618 Y122.065 E16.67417
G1 X91.665 Y122.585 E16.86893
G1 X91.754 Y123.194 E17.09851
G1 X91.873 Y123.747 E17.30952
G1 X92.03 Y124.311 E17.5279
G1 X92.207 Y124.816 E17.72751
G1 X92.424 Y125.344 E17.94045
G1 X92.678 Y125.868 E18.15766
G1 X92.955 Y126.361 E18.3686
G1 X93.255 Y126.825 E18.57471
G1 X93.591 Y127.282 E18.78629
G1 X93.956 Y127.72 E18.99897
G1 X94.352 Y128.144 E19.21538
G1 X94.757 Y128.525 E19.4228
G1 X95.194 Y128.891 E19.63543
G1 X95.658 Y129.234 E19.85067
G1 X96.136 Y129.543 E20.06298
G1 X96.618 Y129.816 E20.26961
G1 X97.127 Y130.063 E20.48065
G1 X97.666 Y130.286 E20.69824
G1 X98.175 Y130.463 E20.89926
G1 X98.737 Y130.621 E21.11702
G1 X99.297 Y130.743 E21.33081
G1 X99.901 Y130.837 E21.55883
G1 X100.418 Y130.881 E21.75238
G1 X100.986 Y130.899 E21.96436
G1 X101.565 Y130.882 E22.18043
G0 F6000 X101.589 Y131.282
;TYPE:WALL-OUTER
G1 F1800 X102.132 Y131.233 E22.3838
G1 X102.764 Y131.14 E22.62209
G1 X103.348 Y131.013 E22.84502
G1 X103.931 Y130.852 E23.07064
G1 X104.462 Y130.665 E23.28063
G1 X105.008 Y130.441 E23.50077
G1 X105.556 Y130.176 E23.72784
G1 X106.072 Y129.885 E23.94881
G1 X106.558 Y129.571 E24.16465
G1 X107.029 Y129.224 E24.38287
G1 X107.489 Y128.841 E24.60615
G1 X107.931 Y128.427 E24.83205
G1 X108.326 Y128.007 E25.04712
G1 X108.706 Y127.552 E25.26825
G1 X109.067 Y127.064 E25.49468
G1 X109.387 Y126.568 E25.71486
G1 X109.672 Y126.064 E25.93084
G1 X109.928 Y125.537 E26.14939
G1 X110.162 Y124.972 E26.3775
G1 X110.345 Y124.445 E26.5856
G1 X110.509 Y123.86 E26.81223
G1 X110.637 Y123.277 E27.03488
G1 X110.735 Y122.647 E27.27271
G1 X110.781 Y122.105 E27.47561
G1 X110.799 Y121.512 E27.69691
G1 X110.782 Y120.905 E27.92342
G1 X110.733 Y120.368 E28.12457
G1 X110.64 Y119.734 E28.36359
G1 X110.513 Y119.152 E28.5858
G1 X110.352 Y118.569 E28.81141
G1 X110.166 Y118.038 E29.02128
G1 X109.94 Y117.489 E29.24274
G1 X109.676 Y116.944 E29.46863
G1 X109.385 Y116.428 E29.68961
G1 X109.071 Y115.942 E29.90544
G1 X108.724 Y115.471 E30.12367
G1 X108.341 Y115.011 E30.34695
G1 X107.927 Y114.569 E30.57285
G1 X107.507 Y114.174 E30.78792
G1 X107.052 Y113.794 E31.00905
G1 X106.564 Y113.433 E31.23548
G1 X106.068 Y113.113 E31.45566
G1 X105.564 Y112.828 E31.67164
G1 X105.038 Y112.572 E31.88985
G1 X104.476 Y112.34 E32.11665
G1 X103.945 Y112.155 E32.3264
G1 X103.36 Y111.991 E32.55303
G1 X102.777 Y111.863 E32.77568
G1 X102.147 Y111.765 E33.0135
G1 X101.605 Y111.719 E33.21641
G1 X101.014 Y111.701 E33.43696
G1 X100.411 Y111.718 E33.66198
G1 X99.868 Y111.767 E33.86536
G1 X99.236 Y111.86 E34.10364
G1 X98.652 Y111.987 E34.32658
G1 X98.069 Y112.148 E34.55219
G1 X97.538 Y112.335 E34.76219
G1 X96.992 Y112.559 E34.98233
G1 X96.444 Y112.824 E35.20939
G1 X95.928 Y113.115 E35.43037
G1 X95.442 Y113.429 E35.6462
G1 X94.971 Y113.776 E35.86442
G1 X94.511 Y114.159 E36.0877
G1 X94.069 Y114.573 E36.31361
G1 X93.674 Y114.993 E36.52868
G1 X93.294 Y115.448 E36.74981
G1 X92.933 Y115.936 E36.97623
G1 X92.613 Y116.432 E37.19641
G1 X92.328 Y116.936 E37.41239
G1 X92.072 Y117.463 E37.63094
G1 X91.838 Y118.028 E37.85906
G1 X91.655 Y118.555 E38.06715
G1 X91.491 Y119.14 E38.29378
G1 X91.363 Y119.723 E38.51643
G1 X91.265 Y120.353 E38.75426
G1 X91.219 Y120.895 E38.95716
G1 X91.201 Y121.488 E39.17847
G1 X91.218 Y122.089 E39.40274
G1 X91.267 Y122.632 E39.60611
G1 X91.36 Y123.265 E39.84477
G1 X91.485 Y123.843 E40.06536
G1 X91.648 Y124.431 E40.29297
G1 X91.833 Y124.958 E40.50131
G1 X92.059 Y125.508 E40.72311
G1 X92.323 Y126.054 E40.94934
G1 X92.613 Y126.568 E41.16948
G1 X92.925 Y127.052 E41.38429
G1 X93.276 Y127.528 E41.6049
G1 X93.656 Y127.985 E41.8266
G1 X94.069 Y128.427 E42.05225
G1 X94.491 Y128.824 E42.26837
G1 X94.946 Y129.205 E42.48974
G1 X95.43 Y129.563 E42.7143
G1 X95.928 Y129.885 E42.93552
G1 X96.432 Y130.17 E43.15149
G1 X96.963 Y130.428 E43.37171
G1 X97.524 Y130.66 E43.59816
G1 X98.055 Y130.845 E43.80791
G1 X98.64 Y131.009 E44.03454
G1 X99.223 Y131.137 E44.25719
G1 X99.853 Y131.235 E44.49502
G1 X100.395 Y131.281 E44.69792
G1 X100.986 Y131.299 E44.91848
G1 X101.589 Y131.282 E45.1435
G0 F6000 X101.788 Y131.265
G1 F1500 E44.1435
G1 F600 Z1.3
G0 F6000 X100.649 Y130.548 Z1.3
;TYPE:FILL
G1 F600 Z0.3
G1 F1500 E45.29893
G1 F2400 X100.794 Y130.485 E45.3579
G1 X100.92 Y130.557 E45.41203
G1 X101.788 Y130.536 E45.73591
G1 X102.089 Y130.491 E45.84943
G1 X102.638 Y130.41 E46.05644
G1 X103.165 Y130.295 E46.25764
G1 X103.882 Y130.097 E46.53511
G1 X103.362 Y129.843 E46.75098
G1 X102.72 Y130.166 E47.01906
G1 X102.078 Y129.843 E47.28714
G1 X101.436 Y130.166 E47.55522
G1 X100.794 Y129.843 E47.8233
G1 X100.152 Y130.166 E48.09138
G1 X99.51 Y129.843 E48.35946
G1 X98.868 Y130.166 E48.62754
G1 X98.226 Y129.843 E48.89562
G1 X97.914 Y130.021 E49.02961
G1 X97.265 Y129.752 E49.29167
G1 X96.525 Y129.394 E49.59831
G1 X96.942 Y129.201 E49.76971
G1 X97.584 Y129.524 E50.03779
G1 X98.226 Y129.201 E50.30587
G1 X98.868 Y129.524 E50.57395
G1 X99.51 Y129.201 E50.84203
G1 X100.152 Y129.524 E51.11011
G1 X100.794 Y129.201 E51.37819
G1 X101.436 Y129.524 E51.64627
G1 X102.078 Y129.201 E51.91435
G1 X102.72 Y129.524 E52.18243
G1 X103.362 Y129.201 E52.45051
G1 X104.004 Y129.524 E52.71859
G1 X104.646 Y129.201 E52.98667
G1 X105.242 Y129.504 E53.23607
G1 X105.692 Y129.249 E53.429
G1 X106.408 Y128.787 E53.74686
G1 X105.93 Y128.559 E53.94441
G1 X105.288 Y128.882 E54.21249
G1 X104.646 Y128.559 E54.48057
G1 X104.004 Y128.882 E54.74865
G1 X103.362 Y128.559 E55.01673
G1 X102.72 Y128.882 E55.28481
G1 X102.078 Y128.559 E55.55288
G1 X101.436 Y128.882 E55.82096
G1 X100.794 Y128.559 E56.08904
G1 X100.152 Y128.882 E56.35712
G1 X99.51 Y128.559 E56.6252
G1 X98.868 Y128.882 E56.89328
G1 X98.226 Y128.559 E57.16136
G1 X97.584 Y128.882 E57.42944
G1 X96.942 Y128.559 E57.69752
G1 X96.3 Y128.882 E57.9656
G1 X95.658 Y128.559 E58.23368
G1 X95.466 Y128.669 E58.31622
G1 X94.987 Y128.274 E58.54781
G1 X94.895 Y128.187 E58.59505
G1 X95.016 Y128.24 E58.64432
G1 X95.658 Y127.917 E58.9124
G1 X96.3 Y128.24 E59.18048
G1 X96.942 Y127.917 E59.44856
G1 X97.584 Y128.24 E59.71664
G1 X98.226 Y127.917 E59.98472
G1 X98.868 Y128.24 E60.2528
G1 X99.51 Y127.917 E60.52088
G1 X100.152 Y128.24 E60.78896
G1 X100.794 Y127.917 E61.05704
G1 X101.436 Y128.24 E61.32512
G1 X102.078 Y127.917 E61.5932
G1 X102.72 Y128.24 E61.86128
G1 X103.362 Y127.917 E62.12935
G1 X104.004 Y128.24 E62.39743
G1 X104.646 Y127.917 E62.66551
G1 X105.288 Y128.24 E62.93359
G1 X105.93 Y127.917 E63.20167
G1 X106.572 Y128.24 E63.46975
G1 X107.214 Y127.917 E63.73783
G1 X107.325 Y127.98 E63.78544
G1 X107.752 Y127.538 E64.01469
G1 X107.214 Y127.275 E64.23807
G1 X106.572 Y127.598 E64.50615
G1 X105.93 Y127.275 E64.77423
G1 X105.288 Y127.598 E65.04231
G1 X104.646 Y127.275 E65.31038
G1 X104.004 Y127.598 E65.57846
G1 X103.362 Y127.275 E65.84654
G1 X102.72 Y127.598 E66.11462
G1 X102.078 Y127.275 E66.3827
G1 X101.436 Y127.598 E66.65078
G1 X100.794 Y127.275 E66.91886
G1 X100.152 Y127.598 E67.18694
G1 X99.51 Y127.275 E67.45502
G1 X98.868 Y127.598 E67.7231
G1 X98.226 Y127.275 E67.99118
G1 X97.584 Y127.598 E68.25926
G1 X96.942 Y127.275 E68.52734
G1 X96.3 Y127.598 E68.79542
G1 X95.658 Y127.275 E69.0635
G1 X95.016 Y127.598 E69.33158
G1 X94.374 Y127.275 E69.59966
G1 X94.14 Y127.409 E69.70024
G1 X93.762 Y126.939 E69.92523
G1 X94.374 Y126.633 E70.18046
G1 X95.016 Y126.956 E70.44854
G1 X95.658 Y126.633 E70.71662
G1 X96.3 Y126.956 E70.9847
G1 X96.942 Y126.633 E71.25278
G1 X97.584 Y126.956 E71.52086
G1 X98.226 Y126.633 E71.78894
G1 X98.868 Y126.956 E72.05702
G1 X99.51 Y126.633 E72.3251
G1 X100.152 Y126.956 E72.59318
G1 X100.794 Y126.633 E72.86126
G1 X101.436 Y126.956 E73.12934
G1 X102.078 Y126.633 E73.39741
G1 X102.72 Y126.956 E73.66549
G1 X103.362 Y126.633 E73.93357
G1 X104.004 Y126.956 E74.20165
G1 X104.646 Y126.633 E74.46973
G1 X105.288 Y126.956 E74.73781
G1 X105.93 Y126.633 E75.00589
G1 X106.572 Y126.956 E75.27397
G1 X107.214 Y126.633 E75.54205
G1 X107.856 Y126.956 E75.81013
G1 X108.448 Y126.655 E76.05786
G1 X108.791 Y126.119 E76.29523
G1 X108.498 Y125.991 E76.4145
G1 X107.856 Y126.314 E76.68258
G1 X107.214 Y125.991 E76.95066
G1 X106.572 Y126.314 E77.21874
G1 X105.93 Y125.991 E77.48682
G1 X105.288 Y126.314 E77.7549
G1 X104.646 Y125.991 E78.02298
G1 X104.004 Y126.314 E78.29106
G1 X103.362 Y125.991 E78.55914
G1 X102.72 Y126.314 E78.82722
G1 X102.078 Y125.991 E79.0953
G1 X101.436 Y126.314 E79.36338
G1 X100.794 Y125.991 E79.63146
G1 X100.152 Y126.314 E79.89954
G1 X99.51 Y125.991 E80.16762
G1 X98.868 Y126.314 E80.4357
G1 X98.226 Y125.991 E80.70378
G1 X97.584 Y126.314 E80.97186
G1 X96.942 Y125.991 E81.23994
G1 X96.3 Y126.314 E81.50801
G1 X95.658 Y125.991 E81.77609
G1 X95.016 Y126.314 E82.04417
G1 X94.374 Y125.991 E82.31225
G1 X93.732 Y126.314 E82.58033
G1 X93.152 Y126.018 E82.82323
G1 X92.854 Y125.452 E83.06183
G1 X93.09 Y125.349 E83.15789
G1 X93.732 Y125.672 E83.42597
G1 X94.374 Y125.349 E83.69404
G1 X95.016 Y125.672 E83.96212
G1 X95.658 Y125.349 E84.2302
G1 X96.3 Y125.672 E84.49828
G1 X96.942 Y125.349 E84.76636
G1 X97.584 Y125.672 E85.03444
G1 X98.226 Y125.349 E85.30252
G1 X98.868 Y125.672 E85.5706
G1 X99.51 Y125.349 E85.83868
G1 X100.152 Y125.672 E86.10676
G1 X100.794 Y125.349 E86.37484
G1 X101.436 Y125.672 E86.64292
G1 X102.078 Y125.349 E86.911
G1 X102.72 Y125.672 E87.17908
G1 X103.362 Y125.349 E87.44716
G1 X104.004 Y125.672 E87.71524
G1 X104.646 Y125.349 E87.98332
G1 X105.288 Y125.672 E88.2514
G1 X105.93 Y125.349 E88.51948
G1 X106.572 Y125.672 E88.78756
G1 X107.214 Y125.349 E89.05564
G1 X107.856 Y125.672 E89.32371
G1 X108.498 Y125.349 E89.59179
G1 X109.057 Y125.636 E89.82619
G1 X109.381 Y124.925 E90.11764
G1 X109.14 Y125.03 E90.2157
G1 X108.498 Y124.707 E90.48378
G1 X107.856 Y125.03 E90.75186
G1 X107.214 Y124.707 E91.01994
G1 X106.572 Y125.03 E91.28802
G1 X105.93 Y124.707 E91.5561
G1 X105.288 Y125.03 E91.82418
G1 X104.646 Y124.707 E92.09226
G1 X104.004 Y125.03 E92.36034
G1 X103.362 Y124.707 E92.62842
G1 X102.72 Y125.03 E92.8965
G1 X102.078 Y124.707 E93.16458
G1 X101.436 Y125.03 E93.43266
G1 X100.794 Y124.707 E93.70074
G1 X100.152 Y125.03 E93.96882
G1 X99.51 Y124.707 E94.2369
G1 X98.868 Y125.03 E94.50498
G1 X98.226 Y124.707 E94.77306
G1 X97.584 Y125.03 E95.04114
G1 X96.942 Y124.707 E95.30922
G1 X96.3 Y125.03 E95.57729
G1 X95.658 Y124.707 E95.84537
G1 X95.016 Y125.03 E96.11345
G1 X94.374 Y124.707 E96.38153
G1 X93.732 Y125.03 E96.64961
G1 X93.09 Y124.707 E96.91769
G1 X92.63 Y124.951 E97.11193
G1 X92.412 Y124.372 E97.34271
G1 X92.448 Y124.388 E97.3574
G1 X93.09 Y124.065 E97.62548
G1 X93.732 Y124.388 E97.89356
G1 X94.374 Y124.065 E98.16164
G1 X95.016 Y124.388 E98.42972
G1 X95.658 Y124.065 E98.6978
G1 X96.3 Y124.388 E98.96588
G1 X96.942 Y124.065 E99.23396
G1 X97.584 Y124.388 E99.50204
G1 X98.226 Y124.065 E99.77012
G1 X98.868 Y124.388 E100.0382
G1 X99.51 Y124.065 E100.30628
G1 X100.152 Y124.388 E100.57436
G1 X100.794 Y124.065 E100.84243
G1 X101.436 Y124.388 E101.11051
G1 X102.078 Y124.065 E101.37859
G1 X102.72 Y124.388 E101.64667
G1 X103.362 Y124.065 E101.91475
G1 X104.004 Y124.388 E102.18283
G1 X104.646 Y124.065 E102.45091
G1 X105.288 Y124.388 E102.71899
G1 X105.93 Y124.065 E102.98707
G1 X106.572 Y124.388 E103.25515
G1 X107.214 Y124.065 E103.52323
G1 X107.856 Y124.388 E103.79131
G1 X108.498 Y124.065 E104.05939
G1 X109.14 Y124.388 E104.32747
G1 X109.668 Y124.115 E104.54919
G1 X109.842 Y123.449 E104.80596
G1 X109.782 Y123.423 E104.83035
G1 X109.14 Y123.746 E105.09843
G1 X108.498 Y123.423 E105.36651
G1 X107.856 Y123.746 E105.63459
G1 X107.214 Y123.423 E105.90267
G1 X106.572 Y123.746 E106.17075
G1 X105.93 Y123.423 E106.43883
G1 X105.288 Y123.746 E106.70691
G1 X104.646 Y123.423 E106.97499
G1 X104.004 Y123.746 E107.24307
G1 X103.362 Y123.423 E107.51115
G1 X102.72 Y123.746 E107.77923
G1 X102.078 Y123.423 E108.04731
G1 X101.436 Y123.746 E108.31539
G1 X100.794 Y123.423 E108.58347
G1 X100.152 Y123.746 E108.85155
G1 X99.51 Y123.423 E109.11963
G1 X98.868 Y123.746 E109.38771
G1 X98.226 Y123.423 E109.65578
G1 X97.584 Y123.746 E109.92386
G1 X96.942 Y123.423 E110.19194
G1 X96.3 Y123.746 E110.46002
G1 X95.658 Y123.423 E110.7281
G1 X95.016 Y123.746 E110.99618
G1 X94.374 Y123.423 E111.26426
G1 X93.732 Y123.746 E111.53234
G1 X93.09 Y123.423 E111.80042
G1 X92.448 Y123.746 E112.0685
G1 X92.19 Y123.599 E112.17926
G1 X92.058 Y122.925 E112.43546
G1 X92.448 Y123.104 E112.59552
G1 X93.09 Y122.781 E112.8636
G1 X93.732 Y123.104 E113.13168
G1 X94.374 Y122.781 E113.39976
G1 X95.016 Y123.104 E113.66784
G1 X95.658 Y122.781 E113.93592
G1 X96.3 Y123.104 E114.204
G1 X96.942 Y122.781 E114.47208
G1 X97.584 Y123.104 E114.74016
G1 X98.226 Y122.781 E115.00824
G1 X98.868 Y123.104 E115.27632
G1 X99.51 Y122.781 E115.5444
G1 X100.152 Y123.104 E115.81248
G1 X100.794 Y122.781 E116.08056
G1 X101.436 Y123.104 E116.34864
G1 X102.078 Y122.781 E116.61672
G1 X102.72 Y123.104 E116.8848
G1 X103.362 Y122.781 E117.15288
G1 X104.004 Y123.104 E117.42096
G1 X104.646 Y122.781 E117.68904
G1 X105.288 Y123.104 E117.95712
G1 X105.93 Y122.781 E118.22519
G1 X106.572 Y123.104 E118.49327
G1 X107.214 Y122.781 E118.76135
G1 X107.856 Y123.104 E119.02943
G1 X108.498 Y122.781 E119.29751
G1 X109.14 Y123.104 E119.56559
G1 X109.782 Y122.781 E119.83367
G1 X109.95 Y122.877 E119.90585
