;FLAVOR:Marlin
;TIME:251
;Filament used: 2.32414m, 0m
;Layer height: 0.3
;MINX:91.201
;MINY:111.701
;MINZ:0.3
;MAXX:110.799
;MAXY:131.299
;MAXZ:7
;Generated with Cura_SteamEngine 5.0.1
T0
M140 S40
M105
M190 S40
M104 S200
M105
M109 S200
M82 ;absolute extrusion mode
M900 K0.020;
G28 ; home all axes
G1 Z5 F5000 ; lift nozzle
G1 X-45 Y70 F2500; go to glycerin roller;
G92 E0
G1 X-23 F5000; park to start
G92 E0; Extrude a small amount to clear nozzle
G1 E20 F4000
G4 P2000
G92 E0


G92 E0
G1 F1500 E-1
;LAYER_COUNT:20
;LAYER:0
M107
M204 S500
G1 F600 Z1.3
;MESH:Sajad.stl
G0 F6000 X101.565 Y130.882 Z1.3
;TYPE:WALL-INNER
G1 F600 Z0.3
G1 F1500 E0.15542
G1 F1800 X102.085 Y130.835 E0.35019
G1 X102.692 Y130.746 E0.57903
G1 X103.252 Y130.625 E0.79274
G1 X103.811 Y130.47 E1.00913
G1 X104.32 Y130.291 E1.21039
G1 X104.845 Y130.075 E1.42215
G1 X105.37 Y129.821 E1.6397
G1 X105.865 Y129.543 E1.85148
G1 X106.33 Y129.242 E2.0581
G1 X106.782 Y128.909 E2.26752
G1 X107.224 Y128.541 E2.48206
G1 X107.648 Y128.144 E2.69873
G1 X108.026 Y127.741 E2.90483
G1 X108.392 Y127.304 E3.11746
G1 X108.738 Y126.836 E3.33456
G1 X109.045 Y126.361 E3.54553
G1 X109.318 Y125.878 E3.75249
G1 X109.563 Y125.373 E3.96186
G1 X109.788 Y124.83 E4.18111
G1 X109.963 Y124.325 E4.38048
G1 X110.121 Y123.763 E4.59824
G1 X110.243 Y123.203 E4.81203
G1 X110.337 Y122.599 E5.04005
G1 X110.381 Y122.082 E5.2336
G1 X110.399 Y121.512 E5.44632
G1 X110.382 Y120.929 E5.66389
G1 X110.335 Y120.415 E5.85642
G1 X110.246 Y119.806 E6.086
G1 X110.125 Y119.248 E6.29898
G1 X109.97 Y118.689 E6.51537
G1 X109.792 Y118.18 E6.71651
G1 X109.574 Y117.653 E6.92925
G1 X109.322 Y117.13 E7.1458
G1 X109.043 Y116.635 E7.35775
G1 X108.742 Y116.17 E7.56438
G1 X108.409 Y115.718 E7.7738
G1 X108.041 Y115.276 E7.98834
G1 X107.644 Y114.852 E8.205
G1 X107.241 Y114.474 E8.41111
G1 X106.804 Y114.108 E8.62374
G1 X106.336 Y113.762 E8.84084
G1 X105.861 Y113.455 E9.05181
G1 X105.378 Y113.182 E9.25877
G1 X104.874 Y112.937 E9.46781
G1 X104.334 Y112.714 E9.68574
G1 X103.825 Y112.537 E9.88676
G1 X103.263 Y112.379 E10.10452
G1 X102.703 Y112.257 E10.31831
G1 X102.099 Y112.163 E10.54633
G1 X101.582 Y112.119 E10.73987
G1 X101.014 Y112.101 E10.95186
G1 X100.435 Y112.118 E11.16793
G1 X99.915 Y112.165 E11.36269
G1 X99.308 Y112.254 E11.59153
G1 X98.748 Y112.375 E11.80524
G1 X98.189 Y112.53 E12.02163
G1 X97.68 Y112.709 E12.22289
G1 X97.155 Y112.924 E12.43451
G1 X96.63 Y113.179 E12.65223
G1 X96.135 Y113.457 E12.864
G1 X95.67 Y113.758 E13.07062
G1 X95.218 Y114.091 E13.28004
G1 X94.776 Y114.459 E13.49458
G1 X94.352 Y114.856 E13.71125
G1 X93.974 Y115.259 E13.91736
G1 X93.608 Y115.696 E14.12998
G1 X93.262 Y116.164 E14.34709
G1 X92.955 Y116.639 E14.55806
G1 X92.682 Y117.122 E14.76501
G1 X92.437 Y117.627 E14.97439
G1 X92.212 Y118.17 E15.19364
G1 X92.037 Y118.675 E15.393
G1 X91.879 Y119.237 E15.61077
G1 X91.757 Y119.797 E15.82456
G1 X91.663 Y120.401 E16.05257
G1 X91.619 Y120.918 E16.24612
G1 X91.601 Y121.488 E16.45885
G1 X91.618 Y122.065 E16.67417
G1 X91.665 Y122.585 E16.86893
G1 X91.754 Y123.194 E17.09851
G1 X91.873 Y123.747 E17.30952
G1 X92.03 Y124.311 E17.5279
G1 X92.207 Y124.816 E17.72751
G1 X92.424 Y125.344 E17.94045
G1 X92.678 Y125.868 E18.15766
G1 X92.955 Y126.361 E18.3686
G1 X93.255 Y126.825 E18.57471
G1 X93.591 Y127.282 E18.78629
G1 X93.956 Y127.72 E18.99897
G1 X94.352 Y128.144 E19.21538
G1 X94.757 Y128.525 E19.4228
G1 X95.194 Y128.891 E19.63543
G1 X95.658 Y129.234 E19.85067
G1 X96.136 Y129.543 E20.06298
G1 X96.618 Y129.816 E20.26961
G1 X97.127 Y130.063 E20.48065
G1 X97.666 Y130.286 E20.69824
G1 X98.175 Y130.463 E20.89926
G1 X98.737 Y130.621 E21.11702
G1 X99.297 Y130.743 E21.33081
G1 X99.901 Y130.837 E21.55883
G1 X100.418 Y130.881 E21.75238
G1 X100.986 Y130.899 E21.96436
G1 X101.565 Y130.882 E22.18043
G0 F6000 X101.589 Y131.282
;TYPE:WALL-OUTER
G1 F1800 X102.132 Y131.233 E22.3838
G1 X102.764 Y131.14 E22.62209
G1 X103.348 Y131.013 E22.84502
G1 X103.931 Y130.852 E23.07064
G1 X104.462 Y130.665 E23.28063
G1 X105.008 Y130.441 E23.50077
G1 X105.556 Y130.176 E23.72784
G1 X106.072 Y129.885 E23.94881
G1 X106.558 Y129.571 E24.16465
G1 X107.029 Y129.224 E24.38287
G1 X107.489 Y128.841 E24.60615
G1 X107.931 Y128.427 E24.83205
G1 X108.326 Y128.007 E25.04712
G1 X108.706 Y127.552 E25.26825
G1 X109.067 Y127.064 E25.49468
G1 X109.387 Y126.568 E25.71486
G1 X109.672 Y126.064 E25.93084
G1 X109.928 Y125.537 E26.14939
G1 X110.162 Y124.972 E26.3775
G1 X110.345 Y124.445 E26.5856
G1 X110.509 Y123.86 E26.81223
G1 X110.637 Y123.277 E27.03488
G1 X110.735 Y122.647 E27.27271
G1 X110.781 Y122.105 E27.47561
G1 X110.799 Y121.512 E27.69691
G1 X110.782 Y120.905 E27.92342
G1 X110.733 Y120.368 E28.12457
G1 X110.64 Y119.734 E28.36359
G1 X110.513 Y119.152 E28.5858
G1 X110.352 Y118.569 E28.81141
G1 X110.166 Y118.038 E29.02128
G1 X109.94 Y117.489 E29.24274
G1 X109.676 Y116.944 E29.46863
G1 X109.385 Y116.428 E29.68961
G1 X109.071 Y115.942 E29.90544
G1 X108.724 Y115.471 E30.12367
G1 X108.341 Y115.011 E30.34695
G1 X107.927 Y114.569 E30.57285
G1 X107.507 Y114.174 E30.78792
G1 X107.052 Y113.794 E31.00905
G1 X106.564 Y113.433 E31.23548
G1 X106.068 Y113.113 E31.45566
G1 X105.564 Y112.828 E31.67164
G1 X105.038 Y112.572 E31.88985
G1 X104.476 Y112.34 E32.11665
G1 X103.945 Y112.155 E32.3264
G1 X103.36 Y111.991 E32.55303
G1 X102.777 Y111.863 E32.77568
G1 X102.147 Y111.765 E33.0135
G1 X101.605 Y111.719 E33.21641
G1 X101.014 Y111.701 E33.43696
G1 X100.411 Y111.718 E33.66198
G1 X99.868 Y111.767 E33.86536
G1 X99.236 Y111.86 E34.10364
G1 X98.652 Y111.987 E34.32658
G1 X98.069 Y112.148 E34.55219
G1 X97.538 Y112.335 E34.76219
G1 X96.992 Y112.559 E34.98233
G1 X96.444 Y112.824 E35.20939
G1 X95.928 Y113.115 E35.43037
G1 X95.442 Y113.429 E35.6462
G1 X94.971 Y113.776 E35.86442
G1 X94.511 Y114.159 E36.0877
G1 X94.069 Y114.573 E36.31361
G1 X93.674 Y114.993 E36.52868
G1 X93.294 Y115.448 E36.74981
G1 X92.933 Y115.936 E36.97623
G1 X92.613 Y116.432 E37.19641
G1 X92.328 Y116.936 E37.41239
G1 X92.072 Y117.463 E37.63094
G1 X91.838 Y118.028 E37.85906
G1 X91.655 Y118.555 E38.06715
G1 X91.491 Y119.14 E38.29378
G1 X91.363 Y119.723 E38.51643
G1 X91.265 Y120.353 E38.75426
G1 X91.219 Y120.895 E38.95716
G1 X91.201 Y121.488 E39.17847
G1 X91.218 Y122.089 E39.40274
G1 X91.267 Y122.632 E39.60611
G1 X91.36 Y123.265 E39.84477
G1 X91.485 Y123.843 E40.06536
G1 X91.648 Y124.431 E40.29297
G1 X91.833 Y124.958 E40.50131
G1 X92.059 Y125.508 E40.72311
G1 X92.323 Y126.054 E40.94934
G1 X92.613 Y126.568 E41.16948
G1 X92.925 Y127.052 E41.38429
G1 X93.276 Y127.528 E41.6049
G1 X93.656 Y127.985 E41.8266
G1 X94.069 Y128.427 E42.05225
G1 X94.491 Y128.824 E42.26837
G1 X94.946 Y129.205 E42.48974
G1 X95.43 Y129.563 E42.7143
G1 X95.928 Y129.885 E42.93552
G1 X96.432 Y130.17 E43.15149
G1 X96.963 Y130.428 E43.37171
G1 X97.524 Y130.66 E43.59816
G1 X98.055 Y130.845 E43.80791
G1 X98.64 Y131.009 E44.03454
G1 X99.223 Y131.137 E44.25719
G1 X99.853 Y131.235 E44.49502
G1 X100.395 Y131.281 E44.69792
G1 X100.986 Y131.299 E44.91848
G1 X101.589 Y131.282 E45.1435
G0 F6000 X101.788 Y131.265
G1 F1500 E44.1435
G1 F600 Z1.3
G0 F6000 X109.157 Y125.43 Z1.3
;TYPE:FILL
G1 F600 Z0.3
G1 F1500 E45.29893
G1 F2400 X97.069 Y113.342 E51.6757
G1 X97.483 Y113.156 E51.845
G1 X109.354 Y125.028 E58.10756
G1 X109.018 Y125.717 E58.3935
G1 X108.757 Y126.179 E58.59144
G1 X108.457 Y126.643 E58.79754
G1 X108.127 Y127.09 E59.0048
G1 X107.768 Y127.521 E59.21404
G1 X107.412 Y127.898 E59.40745
G1 X107.004 Y128.282 E59.61645
G1 X106.568 Y128.645 E59.82808
G1 X106.143 Y128.958 E60.02496
G1 X105.692 Y129.249 E60.22518
G1 X104.946 Y129.671 E60.54489
G1 X92.832 Y117.557 E66.93537
G1 X92.528 Y118.296 E67.23345
G1 X92.364 Y118.771 E67.4209
G1 X92.208 Y119.325 E67.63558
G1 X92.092 Y119.854 E67.8376
G1 X91.968 Y120.646 E68.13663
G1 X91.941 Y121.494 E68.45311
G1 X91.964 Y122.288 E68.74941
G1 X92.089 Y123.134 E69.06841
G1 X92.203 Y123.66 E69.26918
G1 X92.353 Y124.203 E69.47931
G1 X92.642 Y125.031 E69.80645
G1 X104.518 Y113.156 E76.07112
G1 X104.932 Y113.341 E76.24027
G1 X92.829 Y125.444 E82.62495
G1 X93.244 Y126.181 E82.94045
G1 X93.531 Y126.626 E83.13798
G1 X93.856 Y127.067 E83.34232
G1 X94.212 Y127.496 E83.55027
G1 X94.594 Y127.904 E83.75876
G1 X94.987 Y128.274 E83.9601
G1 X95.4 Y128.62 E84.16108
G1 X95.851 Y128.953 E84.3702
G1 X96.313 Y129.252 E84.57548
G1 X97.052 Y129.672 E84.89255
G1 X109.156 Y117.568 E91.27776
G1 X109.342 Y117.982 E91.44706
G1 X97.467 Y129.857 E97.71147
G1 X98.271 Y130.136 E98.02892
G1 X98.825 Y130.292 E98.24361
G1 X99.353 Y130.408 E98.44526
G1 X100.145 Y130.532 E98.74429
G1 X100.986 Y130.559 E99.05816
G1 X101.788 Y130.536 E99.35745
G1 X102.638 Y130.41 E99.67798
G1 X103.165 Y130.295 E99.87918
G1 X103.708 Y130.145 E100.08932
G1 X104.531 Y129.856 E100.41469
G1 X92.657 Y117.981 E106.67884
G1 X92.587 Y117.911
G1 F1500 E105.67884
G1 F600 Z1.3
;MESH:NONMESH
G0 F6000 X101.565 Y130.882 Z1.3
;TIME_ELAPSED:14.981706
;LAYER:1
;MESH:Sajad.stl
G0 X101.565 Y130.882 Z1.6
;TYPE:WALL-INNER
G1 F600 Z0.6
G1 F1500 E106.83426
G1 F1800 X102.085 Y130.835 E107.02902
G1 X102.692 Y130.746 E107.25787
G1 X103.252 Y130.625 E107.47158
G1 X103.825 Y130.466 E107.69339
G1 X104.333 Y130.287 E107.89431
G1 X104.861 Y130.069 E108.10739
G1 X105.37 Y129.823 E108.31827
G1 X105.865 Y129.543 E108.5304
G1 X106.342 Y129.234 E108.74241
G1 X106.794 Y128.9 E108.95205
G1 X107.234 Y128.532 E109.16601
G1 X107.648 Y128.144 E109.37766
G1 X108.036 Y127.731 E109.58904
G1 X108.4 Y127.294 E109.80119
G1 X108.738 Y126.836 E110.01352
G1 X109.045 Y126.361 E110.22449
G1 X109.325 Y125.866 E110.43663
G1 X109.569 Y125.361 E110.64584
G1 X109.788 Y124.831 E110.85976
G1 X109.963 Y124.325 E111.05947
G1 X110.127 Y123.745 E111.28431
G1 X110.246 Y123.192 E111.49531
G1 X110.339 Y122.585 E111.72437
G1 X110.382 Y122.067 E111.91826
G1 X110.399 Y121.498 E112.1306
G1 X110.382 Y120.93 E112.34257
G1 X110.335 Y120.415 E112.53548
G1 X110.246 Y119.806 E112.76506
G1 X110.125 Y119.248 E112.97804
G1 X109.966 Y118.675 E113.19986
G1 X109.787 Y118.167 E113.40077
G1 X109.569 Y117.639 E113.61385
G1 X109.323 Y117.13 E113.82473
G1 X109.043 Y116.635 E114.03687
G1 X108.734 Y116.158 E114.24887
G1 X108.4 Y115.706 E114.45851
G1 X108.032 Y115.266 E114.67248
G1 X107.644 Y114.852 E114.88413
G1 X107.231 Y114.464 E115.09551
G1 X106.794 Y114.1 E115.30766
G1 X106.336 Y113.762 E115.51999
G1 X105.861 Y113.455 E115.73096
G1 X105.366 Y113.175 E115.9431
G1 X104.861 Y112.931 E116.15231
G1 X104.335 Y112.714 E116.36456
G1 X103.825 Y112.537 E116.56593
G1 X103.25 Y112.375 E116.78876
G1 X102.69 Y112.254 E117.00248
G1 X102.085 Y112.161 E117.2308
G1 X101.567 Y112.118 E117.42469
G1 X101 Y112.101 E117.63629
G1 X100.435 Y112.118 E117.84714
G1 X99.915 Y112.165 E118.0419
G1 X99.308 Y112.254 E118.27074
G1 X98.748 Y112.375 E118.48446
G1 X98.175 Y112.534 E118.70627
G1 X97.667 Y112.713 E118.90719
G1 X97.139 Y112.931 E119.12027
G1 X96.63 Y113.177 E119.33115
G1 X96.135 Y113.457 E119.54328
G1 X95.658 Y113.766 E119.75529
G1 X95.206 Y114.1 E119.96493
G1 X94.766 Y114.468 E120.17889
G1 X94.352 Y114.856 E120.39054
G1 X93.964 Y115.269 E120.60192
G1 X93.6 Y115.706 E120.81407
G1 X93.262 Y116.164 E121.0264
G1 X92.955 Y116.639 E121.23737
G1 X92.675 Y117.134 E121.44951
G1 X92.431 Y117.639 E121.65872
G1 X92.212 Y118.169 E121.87263
G1 X92.037 Y118.675 E122.07235
G1 X91.873 Y119.255 E122.29719
G1 X91.754 Y119.808 E122.50819
G1 X91.661 Y120.415 E122.73725
G1 X91.618 Y120.933 E122.93114
G1 X91.601 Y121.501 E123.14311
G1 X91.618 Y122.065 E123.35359
G1 X91.665 Y122.585 E123.54835
G1 X91.754 Y123.194 E123.77793
G1 X91.873 Y123.747 E123.98893
G1 X92.034 Y124.325 E124.21275
G1 X92.211 Y124.829 E124.412
G1 X92.431 Y125.361 E124.62675
G1 X92.675 Y125.866 E124.83596
G1 X92.955 Y126.361 E125.0481
G1 X93.262 Y126.836 E125.25907
G1 X93.6 Y127.294 E125.4714
G1 X93.964 Y127.731 E125.68355
G1 X94.352 Y128.144 E125.89493
G1 X94.766 Y128.532 E126.10658
G1 X95.206 Y128.9 E126.32054
G1 X95.658 Y129.234 E126.53019
G1 X96.136 Y129.543 E126.7425
G1 X96.63 Y129.823 E126.95431
G1 X97.139 Y130.069 E127.16519
G1 X97.665 Y130.286 E127.37744
G1 X98.175 Y130.463 E127.57881
G1 X98.75 Y130.625 E127.80165
G1 X99.31 Y130.746 E128.01536
G1 X99.915 Y130.839 E128.24369
G1 X100.433 Y130.882 E128.43758
G1 X101 Y130.899 E128.64917
G1 X101.565 Y130.882 E128.86003
G0 F6000 X101.589 Y131.282
;TYPE:WALL-OUTER
G1 F1800 X102.132 Y131.233 E129.0634
G1 X102.764 Y131.14 E129.30168
G1 X103.348 Y131.013 E129.52462
G1 X103.945 Y130.848 E129.75566
G1 X104.476 Y130.661 E129.96566
G1 X105.025 Y130.434 E130.18726
G1 X105.556 Y130.177 E130.40731
G1 X106.072 Y129.885 E130.62847
G1 X106.57 Y129.563 E130.84969
G1 X107.041 Y129.215 E131.06813
G1 X107.5 Y128.832 E131.29113
G1 X107.931 Y128.427 E131.51174
G1 X108.336 Y127.996 E131.73235
G1 X108.715 Y127.541 E131.95324
G1 X109.067 Y127.064 E132.17438
G1 X109.387 Y126.568 E132.39456
G1 X109.679 Y126.052 E132.61572
G1 X109.934 Y125.525 E132.8341
G1 X110.162 Y124.973 E133.05688
G1 X110.345 Y124.445 E133.26533
G1 X110.515 Y123.842 E133.49903
G1 X110.64 Y123.264 E133.71962
G1 X110.737 Y122.632 E133.95813
G1 X110.782 Y122.089 E134.16137
G1 X110.799 Y121.498 E134.38192
G1 X110.782 Y120.906 E134.60284
G1 X110.733 Y120.368 E134.80435
G1 X110.64 Y119.734 E135.04338
G1 X110.513 Y119.152 E135.26558
G1 X110.348 Y118.555 E135.49662
G1 X110.161 Y118.024 E135.70662
G1 X109.934 Y117.475 E135.92822
G1 X109.677 Y116.944 E136.14828
G1 X109.385 Y116.428 E136.36944
G1 X109.063 Y115.93 E136.59065
G1 X108.715 Y115.459 E136.8091
G1 X108.332 Y115 E137.03209
G1 X107.927 Y114.569 E137.2527
G1 X107.496 Y114.164 E137.47332
G1 X107.041 Y113.785 E137.69421
G1 X106.564 Y113.433 E137.91534
G1 X106.068 Y113.113 E138.13552
G1 X105.552 Y112.821 E138.35668
G1 X105.025 Y112.566 E138.57507
G1 X104.477 Y112.34 E138.79618
G1 X103.945 Y112.155 E139.00628
G1 X103.347 Y111.987 E139.23798
G1 X102.763 Y111.86 E139.46092
G1 X102.132 Y111.763 E139.69906
G1 X101.589 Y111.718 E139.9023
G1 X101 Y111.701 E140.1221
G1 X100.411 Y111.718 E140.3419
G1 X99.868 Y111.767 E140.54528
G1 X99.236 Y111.86 E140.78356
G1 X98.652 Y111.987 E141.0065
G1 X98.055 Y112.152 E141.23754
G1 X97.524 Y112.339 E141.44754
G1 X96.975 Y112.566 E141.66914
G1 X96.444 Y112.823 E141.88919
G1 X95.928 Y113.115 E142.11035
G1 X95.43 Y113.437 E142.33157
G1 X94.959 Y113.785 E142.55001
G1 X94.5 Y114.168 E142.773
G1 X94.069 Y114.573 E142.99362
G1 X93.664 Y115.004 E143.21423
G1 X93.285 Y115.459 E143.43512
G1 X92.933 Y115.936 E143.65625
G1 X92.613 Y116.432 E143.87644
G1 X92.321 Y116.948 E144.0976
G1 X92.066 Y117.475 E144.31598
G1 X91.838 Y118.027 E144.53876
G1 X91.655 Y118.555 E144.74721
G1 X91.485 Y119.158 E144.98091
G1 X91.36 Y119.736 E145.2015
G1 X91.263 Y120.368 E145.44001
G1 X91.218 Y120.911 E145.64325
G1 X91.201 Y121.501 E145.86342
G1 X91.218 Y122.089 E146.08285
G1 X91.267 Y122.632 E146.28622
G1 X91.36 Y123.265 E146.52488
G1 X91.485 Y123.843 E146.74547
G1 X91.652 Y124.445 E146.97851
G1 X91.837 Y124.972 E147.18685
G1 X92.066 Y125.525 E147.41011
G1 X92.321 Y126.052 E147.6285
G1 X92.613 Y126.568 E147.84966
G1 X92.933 Y127.064 E148.06984
G1 X93.285 Y127.541 E148.29097
G1 X93.664 Y127.996 E148.51186
G1 X94.069 Y128.427 E148.73248
G1 X94.5 Y128.832 E148.95309
G1 X94.959 Y129.215 E149.17608
G1 X95.43 Y129.563 E149.39453
G1 X95.928 Y129.885 E149.61574
G1 X96.444 Y130.177 E149.8369
G1 X96.975 Y130.434 E150.05696
G1 X97.523 Y130.66 E150.27807
G1 X98.055 Y130.845 E150.48817
G1 X98.653 Y131.013 E150.71988
G1 X99.237 Y131.14 E150.94281
G1 X99.868 Y131.237 E151.18095
G1 X100.411 Y131.282 E151.38419
G1 X101 Y131.299 E151.60399
G1 X101.589 Y131.282 E151.82379
G0 F6000 X101.788 Y131.265
G1 F1500 E150.82379
G1 F600 Z1.6
G0 F6000 X96.866 Y129.558 Z1.6
;TYPE:FILL
G1 F600 Z0.6
G1 F1500 E151.97922
G1 F2400 X109.059 Y117.366 E158.41112
G1 X109.43 Y118.194 E158.74956
G1 X97.694 Y129.93 E164.94065
G1 X97.277 Y129.758 E165.10891
G1 X96.782 Y129.518 E165.31411
G1 X96.317 Y129.255 E165.51339
G1 X95.851 Y128.953 E165.72052
G1 X95.417 Y128.633 E165.92166
G1 X94.986 Y128.273 E166.13114
G1 X94.593 Y127.903 E166.33248
G1 X94.219 Y127.506 E166.53594
G1 X93.864 Y127.079 E166.74307
G1 X93.543 Y126.644 E166.94473
