;FLAVOR:Marlin
;TIME:437
;Filament used: 4.04318m, 0m
;Layer height: 0.3
;MINX:91.201
;MINY:111.701
;MINZ:0.3
;MAXX:110.799
;MAXY:131.299
;MAXZ:7
;Generated with Cura_SteamEngine 5.0.1
T0
M140 S40
M105
M190 S40
M104 S200
M105
M109 S200
M82 ;absolute extrusion mode
M900 K0.020;
G28 ; home all axes
G1 Z5 F5000 ; lift nozzle
G1 X-45 Y70 F2500; go to glycerin roller;
G92 E0
G1 X-23 F5000; park to start
G92 E0; Extrude a small amount to clear nozzle
G1 E20 F4000
G4 P2000
G92 E0


G92 E0
G1 F1500 E-1
;LAYER_COUNT:20
;LAYER:0
M107
M204 S500
G1 F600 Z1.3
;MESH:Sajad.stl
G0 F6000 X101.565 Y130.882 Z1.3
;TYPE:WALL-INNER
G1 F600 Z0.3
G1 F1500 E0.15542
G1 F1800 X102.085 Y130.835 E0.35019
G1 X102.692 Y130.746 E0.57903
G1 X103.252 Y130.625 E0.79274
G1 X103.811 Y130.47 E1.00913
G1 X104.32 Y130.291 E1.21039
G1 X104.845 Y130.075 E1.42215
G1 X105.37 Y129.821 E1.6397
G1 X105.865 Y129.543 E1.85148
G1 X106.33 Y129.242 E2.0581
G1 X106.782 Y128.909 E2.26752
G1 X107.224 Y128.541 E2.48206
G1 X107.648 Y128.144 E2.69873
G1 X108.026 Y127.741 E2.90483
G1 X108.392 Y127.304 E3.11746
G1 X108.738 Y126.836 E3.33456
G1 X109.045 Y126.361 E3.54553
G1 X109.318 Y125.878 E3.75249
G1 X109.563 Y125.373 E3.96186
G1 X109.788 Y124.83 E4.18111
G1 X109.963 Y124.325 E4.38048
G1 X110.121 Y123.763 E4.59824
G1 X110.243 Y123.203 E4.81203
G1 X110.337 Y122.599 E5.04005
G1 X110.381 Y122.082 E5.2336
G1 X110.399 Y121.512 E5.44632
G1 X110.382 Y120.929 E5.66389
G1 X110.335 Y120.415 E5.85642
G1 X110.246 Y119.806 E6.086
G1 X110.125 Y119.248 E6.29898
G1 X109.97 Y118.689 E6.51537
G1 X109.792 Y118.18 E6.71651
G1 X109.574 Y117.653 E6.92925
G1 X109.322 Y117.13 E7.1458
G1 X109.043 Y116.635 E7.35775
G1 X108.742 Y116.17 E7.56438
G1 X108.409 Y115.718 E7.7738
G1 X108.041 Y115.276 E7.98834
G1 X107.644 Y114.852 E8.205
G1 X107.241 Y114.474 E8.41111
G1 X106.804 Y114.108 E8.62374
G1 X106.336 Y113.762 E8.84084
G1 X105.861 Y113.455 E9.05181
G1 X105.378 Y113.182 E9.25877
G1 X104.874 Y112.937 E9.46781
G1 X104.334 Y112.714 E9.68574
G1 X103.825 Y112.537 E9.88676
G1 X103.263 Y112.379 E10.10452
G1 X102.703 Y112.257 E10.31831
G1 X102.099 Y112.163 E10.54633
G1 X101.582 Y112.119 E10.73987
G1 X101.014 Y112.101 E10.95186
G1 X100.435 Y112.118 E11.16793
G1 X99.915 Y112.165 E11.36269
G1 X99.308 Y112.254 E11.59153
G1 X98.748 Y112.375 E11.80524
G1 X98.189 Y112.53 E12.02163
G1 X97.68 Y112.709 E12.22289
G1 X97.155 Y112.924 E12.43451
G1 X96.63 Y113.179 E12.65223
G1 X96.135 Y113.457 E12.864
G1 X95.67 Y113.758 E13.07062
G1 X95.218 Y114.091 E13.28004
G1 X94.776 Y114.459 E13.49458
G1 X94.352 Y114.856 E13.71125
G1 X93.974 Y115.259 E13.91736
G1 X93.608 Y115.696 E14.12998
G1 X93.262 Y116.164 E14.34709
G1 X92.955 Y116.639 E14.55806
G1 X92.682 Y117.122 E14.76501
G1 X92.437 Y117.627 E14.97439
G1 X92.212 Y118.17 E15.19364
G1 X92.037 Y118.675 E15.393
G1 X91.879 Y119.237 E15.61077
G1 X91.757 Y119.797 E15.82456
G1 X91.663 Y120.401 E16.05257
G1 X91.619 Y120.918 E16.24612
G1 X91.601 Y121.488 E16.45885
G1 X91.618 Y122.065 E16.67417
G1 X91.665 Y122.585 E16.86893
G1 X91.754 Y123.194 E17.09851
G1 X91.873 Y123.747 E17.30952
G1 X92.03 Y124.311 E17.5279
G1 X92.207 Y124.816 E17.72751
G1 X92.424 Y125.344 E17.94045
G1 X92.678 Y125.868 E18.15766
G1 X92.955 Y126.361 E18.3686
G1 X93.255 Y126.825 E18.57471
G1 X93.591 Y127.282 E18.78629
G1 X93.956 Y127.72 E18.99897
G1 X94.352 Y128.144 E19.21538
G1 X94.757 Y128.525 E19.4228
G1 X95.194 Y128.891 E19.63543
G1 X95.658 Y129.234 E19.85067
G1 X96.136 Y129.543 E20.06298
G1 X96.618 Y129.816 E20.26961
G1 X97.127 Y130.063 E20.48065
G1 X97.666 Y130.286 E20.69824
G1 X98.175 Y130.463 E20.89926
G1 X98.737 Y130.621 E21.11702
G1 X99.297 Y130.743 E21.33081
G1 X99.901 Y130.837 E21.55883
G1 X100.418 Y130.881 E21.75238
G1 X100.986 Y130.899 E21.96436
G1 X101.565 Y130.882 E22.18043
G0 F6000 X101.589 Y131.282
;TYPE:WALL-OUTER
G1 F1800 X102.132 Y131.233 E22.3838
G1 X102.764 Y131.14 E22.62209
G1 X103.348 Y131.013 E22.84502
G1 X103.931 Y130.852 E23.07064
G1 X104.462 Y130.665 E23.28063
G1 X105.008 Y130.441 E23.50077
G1 X105.556 Y130.176 E23.72784
G1 X106.072 Y129.885 E23.94881
G1 X106.558 Y129.571 E24.16465
G1 X107.029 Y129.224 E24.38287
G1 X107.489 Y128.841 E24.60615
G1 X107.931 Y128.427 E24.83205
G1 X108.326 Y128.007 E25.04712
G1 X108.706 Y127.552 E25.26825
G1 X109.067 Y127.064 E25.49468
G1 X109.387 Y126.568 E25.71486
G1 X109.672 Y126.064 E25.93084
G1 X109.928 Y125.537 E26.14939
G1 X110.162 Y124.972 E26.3775
G1 X110.345 Y124.445 E26.5856
G1 X110.509 Y123.86 E26.81223
G1 X110.637 Y123.277 E27.03488
G1 X110.735 Y122.647 E27.27271
G1 X110.781 Y122.105 E27.47561
G1 X110.799 Y121.512 E27.69691
G1 X110.782 Y120.905 E27.92342
G1 X110.733 Y120.368 E28.12457
G1 X110.64 Y119.734 E28.36359
G1 X110.513 Y119.152 E28.5858
G1 X110.352 Y118.569 E28.81141
G1 X110.166 Y118.038 E29.02128
G1 X109.94 Y117.489 E29.24274
G1 X109.676 Y116.944 E29.46863
G1 X109.385 Y116.428 E29.68961
G1 X109.071 Y115.942 E29.90544
G1 X108.724 Y115.471 E30.12367
G1 X108.341 Y115.011 E30.34695
G1 X107.927 Y114.569 E30.57285
G1 X107.507 Y114.174 E30.78792
G1 X107.052 Y113.794 E31.00905
G1 X106.564 Y113.433 E31.23548
G1 X106.068 Y113.113 E31.45566
G1 X105.564 Y112.828 E31.67164
G1 X105.038 Y112.572 E31.88985
G1 X104.476 Y112.34 E32.11665
G1 X103.945 Y112.155 E32.3264
G1 X103.36 Y111.991 E32.55303
G1 X102.777 Y111.863 E32.77568
G1 X102.147 Y111.765 E33.0135
G1 X101.605 Y111.719 E33.21641
G1 X101.014 Y111.701 E33.43696
G1 X100.411 Y111.718 E33.66198
G1 X99.868 Y111.767 E33.86536
G1 X99.236 Y111.86 E34.10364
G1 X98.652 Y111.987 E34.32658
G1 X98.069 Y112.148 E34.55219
G1 X97.538 Y112.335 E34.76219
G1 X96.992 Y112.559 E34.98233
G1 X96.444 Y112.824 E35.20939
G1 X95.928 Y113.115 E35.43037
G1 X95.442 Y113.429 E35.6462
G1 X94.971 Y113.776 E35.86442
G1 X94.511 Y114.159 E36.0877
G1 X94.069 Y114.573 E36.31361
G1 X93.674 Y114.993 E36.52868
G1 X93.294 Y115.448 E36.74981
G1 X92.933 Y115.936 E36.97623
G1 X92.613 Y116.432 E37.19641
G1 X92.328 Y116.936 E37.41239
G1 X92.072 Y117.463 E37.63094
G1 X91.838 Y118.028 E37.85906
G1 X91.655 Y118.555 E38.06715
G1 X91.491 Y119.14 E38.29378
G1 X91.363 Y119.723 E38.51643
G1 X91.265 Y120.353 E38.75426
G1 X91.219 Y120.895 E38.95716
G1 X91.201 Y121.488 E39.17847
G1 X91.218 Y122.089 E39.40274
G1 X91.267 Y122.632 E39.60611
G1 X91.36 Y123.265 E39.84477
G1 X91.485 Y123.843 E40.06536
G1 X91.648 Y124.431 E40.29297
G1 X91.833 Y124.958 E40.50131
G1 X92.059 Y125.508 E40.72311
G1 X92.323 Y126.054 E40.94934
G1 X92.613 Y126.568 E41.16948
G1 X92.925 Y127.052 E41.38429
G1 X93.276 Y127.528 E41.6049
G1 X93.656 Y127.985 E41.8266
G1 X94.069 Y128.427 E42.05225
G1 X94.491 Y128.824 E42.26837
G1 X94.946 Y129.205 E42.48974
G1 X95.43 Y129.563 E42.7143
G1 X95.928 Y129.885 E42.93552
G1 X96.432 Y130.17 E43.15149
G1 X96.963 Y130.428 E43.37171
G1 X97.524 Y130.66 E43.59816
G1 X98.055 Y130.845 E43.80791
G1 X98.64 Y131.009 E44.03454
G1 X99.223 Y131.137 E44.25719
G1 X99.853 Y131.235 E44.49502
G1 X100.395 Y131.281 E44.69792
G1 X100.986 Y131.299 E44.91848
G1 X101.589 Y131.282 E45.1435
G0 F6000 X101.788 Y131.265
G1 F1500 E44.1435
G1 F600 Z1.3
G0 F6000 X110.056 Y121.43 Z1.3
;TYPE:FILL
G1 F600 Z0.3
G1 F1500 E45.29893
G1 F2400 X101.069 Y112.442 E50.04009
G1 X101.689 Y112.462 E50.27149
G1 X110.039 Y120.812 E54.67635
G1 X110.056 Y121.568 E54.95843
G1 X101.068 Y130.556 E59.69986
G1 X100.931 Y130.556 E59.75096
G1 X91.942 Y121.567 E64.49292
G1 X91.964 Y122.288 E64.76199
G1 X92.089 Y123.134 E65.08099
G1 X92.203 Y123.66 E65.28176
G1 X92.35 Y124.193 E65.488
G1 X103.691 Y112.852 E71.47071
G1 X104.139 Y113.004 E71.64718
G1 X92.505 Y124.638 E77.78445
G1 X92.732 Y125.2 E78.01054
G1 X92.981 Y125.714 E78.22359
G1 X93.244 Y126.181 E78.42351
G1 X93.593 Y126.721 E78.66335
G1 X106.218 Y114.096 E85.3234
G1 X106.562 Y114.351 E85.48313
G1 X93.852 Y127.061 E92.18803
G1 X94.212 Y127.496 E92.39865
G1 X94.594 Y127.904 E92.60714
G1 X94.987 Y128.274 E92.80848
G1 X95.436 Y128.648 E93.02646
G1 X108.147 Y115.937 E99.73188
G1 X108.401 Y116.283 E99.89199
G1 X95.782 Y128.902 E106.54888
G1 X96.313 Y129.252 E106.78611
G1 X96.78 Y129.517 E106.9864
G1 X97.265 Y129.752 E107.18744
G1 X97.861 Y129.993 E107.42724
G1 X109.494 Y118.36 E113.56399
G1 X109.648 Y118.806 E113.73999
G1 X98.309 Y130.145 E119.72165
G1 X98.825 Y130.292 E119.92178
G1 X99.353 Y130.408 E120.12344
G1 X100.145 Y130.532 E120.42247
G1 X100.311 Y130.536 E120.4844
G1 X91.96 Y122.185 E124.8898
G1 X91.89 Y122.115
G1 F1500 E123.8898
G1 F600 Z1.3
G0 F6000 X91.962 Y120.811 Z1.3
G1 F600 Z0.3
G1 F1500 E125.04522
G1 F2400 X100.314 Y112.459 E129.45115
G1 X100.931 Y112.442 E129.68139
G1 X91.942 Y121.43 E134.42308
G1 X91.968 Y120.646 E134.71569
G1 X92.092 Y119.854 E135.01472
G1 X92.208 Y119.325 E135.21674
G1 X92.353 Y118.807 E135.41739
G1 X103.693 Y130.147 E141.39957
G1 X103.165 Y130.295 E141.60411
G1 X102.638 Y130.41 E141.80532
G1 X101.671 Y130.553 E142.16995
G1 X110.037 Y122.188 E146.583
G1 X110.032 Y122.354 E146.64495
G1 X109.908 Y123.146 E146.94398
G1 X109.792 Y123.675 E147.14599
G1 X109.646 Y124.19 E147.34567
G1 X98.306 Y112.85 E153.32785
G1 X97.862 Y113.005 E153.50327
G1 X109.494 Y124.638 E159.63975
G1 X109.256 Y125.228 E159.87707
G1 X109.018 Y125.717 E160.07993
G1 X108.757 Y126.179 E160.27787
G1 X108.407 Y126.721 E160.51853
G1 X95.782 Y114.096 E167.17859
G1 X95.436 Y114.35 E167.33869
G1 X108.147 Y127.061 E174.04412
G1 X107.768 Y127.521 E174.26644
G1 X107.412 Y127.898 E174.45986
G1 X107.004 Y128.282 E174.66886
G1 X106.563 Y128.647 E174.8824
G1 X93.852 Y115.936 E181.58782
G1 X93.546 Y116.353 E181.78076
G1 X93.243 Y116.821 E181.98872
G1 X92.986 Y117.275 E182.18333
G1 X92.744 Y117.772 E182.38953
G1 X92.505 Y118.36 E182.62629
G1 X104.138 Y129.993 E188.76303
G1 X104.707 Y129.765 E188.99169
G1 X105.219 Y129.517 E189.2039
G1 X105.692 Y129.249 E189.40669
G1 X106.223 Y128.907 E189.64229
G1 X93.597 Y116.281 E196.30287
G1 X93.527 Y116.211
G1 F1500 E195.30287
G1 F600 Z1.3
;MESH:NONMESH
G0 F6000 X101.565 Y130.882 Z1.3
;TIME_ELAPSED:24.308899
;LAYER:1
;MESH:Sajad.stl
G0 X101.565 Y130.882 Z1.6
;TYPE:WALL-INNER
G1 F600 Z0.6
G1 F1500 E196.4583
G1 F1800 X102.085 Y130.835 E196.65306
G1 X102.692 Y130.746 E196.8819
G1 X103.252 Y130.625 E197.09561
G1 X103.825 Y130.466 E197.31743
G1 X104.333 Y130.287 E197.51834
G1 X104.861 Y130.069 E197.73142
G1 X105.37 Y129.823 E197.9423
G1 X105.865 Y129.543 E198.15444
G1 X106.342 Y129.234 E198.36644
G1 X106.794 Y128.9 E198.57608
G1 X107.234 Y128.532 E198.79005
G1 X107.648 Y128.144 E199.0017
G1 X108.036 Y127.731 E199.21308
G1 X108.4 Y127.294 E199.42523
G1 X108.738 Y126.836 E199.63756
G1 X109.045 Y126.361 E199.84853
G1 X109.325 Y125.866 E200.06067
G1 X109.569 Y125.361 E200.26988
G1 X109.788 Y124.831 E200.48379
G1 X109.963 Y124.325 E200.68351
G1 X110.127 Y123.745 E200.90834
G1 X110.246 Y123.192 E201.11934
G1 X110.339 Y122.585 E201.34841
G1 X110.382 Y122.067 E201.5423
G1 X110.399 Y121.498 E201.75464
G1 X110.382 Y120.93 E201.96661
G1 X110.335 Y120.415 E202.15951
G1 X110.246 Y119.806 E202.3891
G1 X110.125 Y119.248 E202.60208
G1 X109.966 Y118.675 E202.82389
G1 X109.787 Y118.167 E203.02481
G1 X109.569 Y117.639 E203.23789
G1 X109.323 Y117.13 E203.44877
G1 X109.043 Y116.635 E203.66091
G1 X108.734 Y116.158 E203.87291
G1 X108.4 Y115.706 E204.08255
G1 X108.032 Y115.266 E204.29652
G1 X107.644 Y114.852 E204.50817
G1 X107.231 Y114.464 E204.71954
G1 X106.794 Y114.1 E204.9317
G1 X106.336 Y113.762 E205.14402
G1 X105.861 Y113.455 E205.35499
G1 X105.366 Y113.175 E205.56713
G1 X104.861 Y112.931 E205.77634
G1 X104.335 Y112.714 E205.98859
G1 X103.825 Y112.537 E206.18996
G1 X103.25 Y112.375 E206.4128
G1 X102.69 Y112.254 E206.62651
G1 X102.085 Y112.161 E206.85484
G1 X101.567 Y112.118 E207.04873
G1 X101 Y112.101 E207.26032
G1 X100.435 Y112.118 E207.47118
G1 X99.915 Y112.165 E207.66594
G1 X99.308 Y112.254 E207.89478
G1 X98.748 Y112.375 E208.10849
G1 X98.175 Y112.534 E208.33031
G1 X97.667 Y112.713 E208.53122
G1 X97.139 Y112.931 E208.7443
G1 X96.63 Y113.177 E208.95518
G1 X96.135 Y113.457 E209.16732
G1 X95.658 Y113.766 E209.37932
G1 X95.206 Y114.1 E209.58896
G1 X94.766 Y114.468 E209.80293
G1 X94.352 Y114.856 E210.01458
G1 X93.964 Y115.269 E210.22596
G1 X93.6 Y115.706 E210.43811
G1 X93.262 Y116.164 E210.65044
G1 X92.955 Y116.639 E210.86141
G1 X92.675 Y117.134 E211.07355
G1 X92.431 Y117.639 E211.28276
G1 X92.212 Y118.169 E211.49667
G1 X92.037 Y118.675 E211.69639
G1 X91.873 Y119.255 E211.92122
G1 X91.754 Y119.808 E212.13222
G1 X91.661 Y120.415 E212.36129
G1 X91.618 Y120.933 E212.55518
G1 X91.601 Y121.501 E212.76715
G1 X91.618 Y122.065 E212.97763
G1 X91.665 Y122.585 E213.17239
G1 X91.754 Y123.194 E213.40197
G1 X91.873 Y123.747 E213.61297
G1 X92.034 Y124.325 E213.83678
G1 X92.211 Y124.829 E214.03604
G1 X92.431 Y125.361 E214.25079
G1 X92.675 Y125.866 E214.46
G1 X92.955 Y126.361 E214.67213
G1 X93.262 Y126.836 E214.8831
G1 X93.6 Y127.294 E215.09543
G1 X93.964 Y127.731 E215.30758
G1 X94.352 Y128.144 E215.51896
G1 X94.766 Y128.532 E215.73061
G1 X95.206 Y128.9 E215.94458
G1 X95.658 Y129.234 E216.15422
G1 X96.136 Y129.543 E216.36654
G1 X96.63 Y129.823 E216.57835
G1 X97.139 Y130.069 E216.78923
G1 X97.665 Y130.286 E217.00148
G1 X98.175 Y130.463 E217.20285
G1 X98.75 Y130.625 E217.42569
G1 X99.31 Y130.746 E217.6394
G1 X99.915 Y130.839 E217.86772
G1 X100.433 Y130.882 E218.06161
G1 X101 Y130.899 E218.27321
G1 X101.565 Y130.882 E218.48406
G0 F6000 X101.589 Y131.282
;TYPE:WALL-OUTER
G1 F1800 X102.132 Y131.233 E218.68743
G1 X102.764 Y131.14 E218.92572
G1 X103.348 Y131.013 E219.14866
G1 X103.945 Y130.848 E219.3797
G1 X104.476 Y130.661 E219.58969
G1 X105.025 Y130.434 E219.8113
G1 X105.556 Y130.177 E220.03135
G1 X106.072 Y129.885 E220.25251
G1 X106.57 Y129.563 E220.47372
G1 X107.041 Y129.215 E220.69217
G1 X107.5 Y128.832 E220.91516
G1 X107.931 Y128.427 E221.13578
G1 X108.336 Y127.996 E221.35639
G1 X108.715 Y127.541 E221.57728
G1 X109.067 Y127.064 E221.79841
G1 X109.387 Y126.568 E222.01859
G1 X109.679 Y126.052 E222.23975
G1 X109.934 Y125.525 E222.45814
G1 X110.162 Y124.973 E222.68092
G1 X110.345 Y124.445 E222.88937
G1 X110.515 Y123.842 E223.12307
G1 X110.64 Y123.264 E223.34366
G1 X110.737 Y122.632 E223.58216
G1 X110.782 Y122.089 E223.78541
G1 X110.799 Y121.498 E224.00595
G1 X110.782 Y120.906 E224.22687
G1 X110.733 Y120.368 E224.42839
G1 X110.64 Y119.734 E224.66741
G1 X110.513 Y119.152 E224.88962
G1 X110.348 Y118.555 E225.12066
G1 X110.161 Y118.024 E225.33066
G1 X109.934 Y117.475 E225.55226
G1 X109.677 Y116.944 E225.77231
G1 X109.385 Y116.428 E225.99347
G1 X109.063 Y115.93 E226.21469
G1 X108.715 Y115.459 E226.43313
G1 X108.332 Y115 E226.65612
G1 X107.927 Y114.569 E226.87674
G1 X107.496 Y114.164 E227.09735
G1 X107.041 Y113.785 E227.31824
G1 X106.564 Y113.433 E227.53938
G1 X106.068 Y113.113 E227.75956
G1 X105.552 Y112.821 E227.98072
G1 X105.025 Y112.566 E228.1991
G1 X104.477 Y112.34 E228.42022
G1 X103.945 Y112.155 E228.63032
G1 X103.347 Y111.987 E228.86202
G1 X102.763 Y111.86 E229.08496
G1 X102.132 Y111.763 E229.3231
G1 X101.589 Y111.718 E229.52634
G1 X101 Y111.701 E229.74614
G1 X100.411 Y111.718 E229.96594
G1 X99.868 Y111.767 E230.16931
G1 X99.236 Y111.86 E230.4076
G1 X98.652 Y111.987 E230.63053
G1 X98.055 Y112.152 E230.86158
G1 X97.524 Y112.339 E231.07157
G1 X96.975 Y112.566 E231.29318
G1 X96.444 Y112.823 E231.51323
G1 X95.928 Y113.115 E231.73439
G1 X95.43 Y113.437 E231.9556
G1 X94.959 Y113.785 E232.17405
G1 X94.5 Y114.168 E232.39704
G1 X94.069 Y114.573 E232.61765
G1 X93.664 Y115.004 E232.83827
G1 X93.285 Y115.459 E233.05916
G1 X92.933 Y115.936 E233.28029
G1 X92.613 Y116.432 E233.50047
G1 X92.321 Y116.948 E233.72163
G1 X92.066 Y117.475 E233.94002
G1 X91.838 Y118.027 E234.1628
G1 X91.655 Y118.555 E234.37125
G1 X91.485 Y119.158 E234.60494
G1 X91.36 Y119.736 E234.82553
G1 X91.263 Y120.368 E235.06404
G1 X91.218 Y120.911 E235.26729
G1 X91.201 Y121.501 E235.48746
G1 X91.218 Y122.089 E235.70689
G1 X91.267 Y122.632 E235.91026
G1 X91.36 Y123.265 E236.14891
G1 X91.485 Y123.843 E236.3695
G1 X91.652 Y124.445 E236.60254
G1 X91.837 Y124.972 E236.81088
G1 X92.066 Y125.525 E237.03415
G1 X92.321 Y126.052 E237.25254
G1 X92.613 Y126.568 E237.4737
G1 X92.933 Y127.064 E237.69388
