;FLAVOR:Marlin
;TIME:184
;Filament used: 1.59624m, 0m
;Layer height: 0.3
;MINX:91.201
;MINY:111.701
;MINZ:0.3
;MAXX:110.799
;MAXY:131.299
;MAXZ:7
;Generated with Cura_SteamEngine 5.0.1
T0
M140 S40
M105
M190 S40
M104 S200
M105
M109 S200
M82 ;absolute extrusion mode
M900 K0.020;
G28 ; home all axes
G1 Z5 F5000 ; lift nozzle
G1 X-45 Y70 F2500; go to glycerin roller;
G92 E0
G1 X-23 F5000; park to start
G92 E0; Extrude a small amount to clear nozzle
G1 E20 F4000
G4 P2000
G92 E0


G92 E0
G1 F1500 E-1
;LAYER_COUNT:20
;LAYER:0
M107
M204 S500
G1 F600 Z1.3
;MESH:Sajad.stl
G0 F6000 X101.565 Y130.882 Z1.3
;TYPE:WALL-INNER
G1 F600 Z0.3
G1 F1500 E0.15542
G1 F1800 X102.085 Y130.835 E0.35019
G1 X102.692 Y130.746 E0.57903
G1 X103.252 Y130.625 E0.79274
G1 X103.811 Y130.47 E1.00913
G1 X104.32 Y130.291 E1.21039
G1 X104.845 Y130.075 E1.42215
G1 X105.37 Y129.821 E1.6397
G1 X105.865 Y129.543 E1.85148
G1 X106.33 Y129.242 E2.0581
G1 X106.782 Y128.909 E2.26752
G1 X107.224 Y128.541 E2.48206
G1 X107.648 Y128.144 E2.69873
G1 X108.026 Y127.741 E2.90483
G1 X108.392 Y127.304 E3.11746
G1 X108.738 Y126.836 E3.33456
G1 X109.045 Y126.361 E3.54553
G1 X109.318 Y125.878 E3.75249
G1 X109.563 Y125.373 E3.96186
G1 X109.788 Y124.83 E4.18111
G1 X109.963 Y124.325 E4.38048
G1 X110.121 Y123.763 E4.59824
G1 X110.243 Y123.203 E4.81203
G1 X110.337 Y122.599 E5.04005
G1 X110.381 Y122.082 E5.2336
G1 X110.399 Y121.512 E5.44632
G1 X110.382 Y120.929 E5.66389
G1 X110.335 Y120.415 E5.85642
G1 X110.246 Y119.806 E6.086
G1 X110.125 Y119.248 E6.29898
G1 X109.97 Y118.689 E6.51537
G1 X109.792 Y118.18 E6.71651
G1 X109.574 Y117.653 E6.92925
G1 X109.322 Y117.13 E7.1458
G1 X109.043 Y116.635 E7.35775
G1 X108.742 Y116.17 E7.56438
G1 X108.409 Y115.718 E7.7738
G1 X108.041 Y115.276 E7.98834
G1 X107.644 Y114.852 E8.205
G1 X107.241 Y114.474 E8.41111
G1 X106.804 Y114.108 E8.62374
G1 X106.336 Y113.762 E8.84084
G1 X105.861 Y113.455 E9.05181
G1 X105.378 Y113.182 E9.25877
G1 X104.874 Y112.937 E9.46781
G1 X104.334 Y112.714 E9.68574
G1 X103.825 Y112.537 E9.88676
G1 X103.263 Y112.379 E10.10452
G1 X102.703 Y112.257 E10.31831
G1 X102.099 Y112.163 E10.54633
G1 X101.582 Y112.119 E10.73987
G1 X101.014 Y112.101 E10.95186
G1 X100.435 Y112.118 E11.16793
G1 X99.915 Y112.165 E11.36269
G1 X99.308 Y112.254 E11.59153
G1 X98.748 Y112.375 E11.80524
G1 X98.189 Y112.53 E12.02163
G1 X97.68 Y112.709 E12.22289
G1 X97.155 Y112.924 E12.43451
G1 X96.63 Y113.179 E12.65223
G1 X96.135 Y113.457 E12.864
G1 X95.67 Y113.758 E13.07062
G1 X95.218 Y114.091 E13.28004
G1 X94.776 Y114.459 E13.49458
G1 X94.352 Y114.856 E13.71125
G1 X93.974 Y115.259 E13.91736
G1 X93.608 Y115.696 E14.12998
G1 X93.262 Y116.164 E14.34709
G1 X92.955 Y116.639 E14.55806
G1 X92.682 Y117.122 E14.76501
G1 X92.437 Y117.627 E14.97439
G1 X92.212 Y118.17 E15.19364
G1 X92.037 Y118.675 E15.393
G1 X91.879 Y119.237 E15.61077
G1 X91.757 Y119.797 E15.82456
G1 X91.663 Y120.401 E16.05257
G1 X91.619 Y120.918 E16.24612
G1 X91.601 Y121.488 E16.45885
G1 X91.618 Y122.065 E16.67417
G1 X91.665 Y122.585 E16.86893
G1 X91.754 Y123.194 E17.09851
G1 X91.873 Y123.747 E17.30952
G1 X92.03 Y124.311 E17.5279
G1 X92.207 Y124.816 E17.72751
G1 X92.424 Y125.344 E17.94045
G1 X92.678 Y125.868 E18.15766
G1 X92.955 Y126.361 E18.3686
G1 X93.255 Y126.825 E18.57471
G1 X93.591 Y127.282 E18.78629
G1 X93.956 Y127.72 E18.99897
G1 X94.352 Y128.144 E19.21538
G1 X94.757 Y128.525 E19.4228
G1 X95.194 Y128.891 E19.63543
G1 X95.658 Y129.234 E19.85067
G1 X96.136 Y129.543 E20.06298
G1 X96.618 Y129.816 E20.26961
G1 X97.127 Y130.063 E20.48065
G1 X97.666 Y130.286 E20.69824
G1 X98.175 Y130.463 E20.89926
G1 X98.737 Y130.621 E21.11702
G1 X99.297 Y130.743 E21.33081
G1 X99.901 Y130.837 E21.55883
G1 X100.418 Y130.881 E21.75238
G1 X100.986 Y130.899 E21.96436
G1 X101.565 Y130.882 E22.18043
G0 F6000 X101.589 Y131.282
;TYPE:WALL-OUTER
G1 F1800 X102.132 Y131.233 E22.3838
G1 X102.764 Y131.14 E22.62209
G1 X103.348 Y131.013 E22.84502
G1 X103.931 Y130.852 E23.07064
G1 X104.462 Y130.665 E23.28063
G1 X105.008 Y130.441 E23.50077
G1 X105.556 Y130.176 E23.72784
G1 X106.072 Y129.885 E23.94881
G1 X106.558 Y129.571 E24.16465
G1 X107.029 Y129.224 E24.38287
G1 X107.489 Y128.841 E24.60615
G1 X107.931 Y128.427 E24.83205
G1 X108.326 Y128.007 E25.04712
G1 X108.706 Y127.552 E25.26825
G1 X109.067 Y127.064 E25.49468
G1 X109.387 Y126.568 E25.71486
G1 X109.672 Y126.064 E25.93084
G1 X109.928 Y125.537 E26.14939
G1 X110.162 Y124.972 E26.3775
G1 X110.345 Y124.445 E26.5856
G1 X110.509 Y123.86 E26.81223
G1 X110.637 Y123.277 E27.03488
G1 X110.735 Y122.647 E27.27271
G1 X110.781 Y122.105 E27.47561
G1 X110.799 Y121.512 E27.69691
G1 X110.782 Y120.905 E27.92342
G1 X110.733 Y120.368 E28.12457
G1 X110.64 Y119.734 E28.36359
G1 X110.513 Y119.152 E28.5858
G1 X110.352 Y118.569 E28.81141
G1 X110.166 Y118.038 E29.02128
G1 X109.94 Y117.489 E29.24274
G1 X109.676 Y116.944 E29.46863
G1 X109.385 Y116.428 E29.68961
G1 X109.071 Y115.942 E29.90544
G1 X108.724 Y115.471 E30.12367
G1 X108.341 Y115.011 E30.34695
G1 X107.927 Y114.569 E30.57285
G1 X107.507 Y114.174 E30.78792
G1 X107.052 Y113.794 E31.00905
G1 X106.564 Y113.433 E31.23548
G1 X106.068 Y113.113 E31.45566
G1 X105.564 Y112.828 E31.67164
G1 X105.038 Y112.572 E31.88985
G1 X104.476 Y112.34 E32.11665
G1 X103.945 Y112.155 E32.3264
G1 X103.36 Y111.991 E32.55303
G1 X102.777 Y111.863 E32.77568
G1 X102.147 Y111.765 E33.0135
G1 X101.605 Y111.719 E33.21641
G1 X101.014 Y111.701 E33.43696
G1 X100.411 Y111.718 E33.66198
G1 X99.868 Y111.767 E33.86536
G1 X99.236 Y111.86 E34.10364
G1 X98.652 Y111.987 E34.32658
G1 X98.069 Y112.148 E34.55219
G1 X97.538 Y112.335 E34.76219
G1 X96.992 Y112.559 E34.98233
G1 X96.444 Y112.824 E35.20939
G1 X95.928 Y113.115 E35.43037
G1 X95.442 Y113.429 E35.6462
G1 X94.971 Y113.776 E35.86442
G1 X94.511 Y114.159 E36.0877
G1 X94.069 Y114.573 E36.31361
G1 X93.674 Y114.993 E36.52868
G1 X93.294 Y115.448 E36.74981
G1 X92.933 Y115.936 E36.97623
G1 X92.613 Y116.432 E37.19641
G1 X92.328 Y116.936 E37.41239
G1 X92.072 Y117.463 E37.63094
G1 X91.838 Y118.028 E37.85906
G1 X91.655 Y118.555 E38.06715
G1 X91.491 Y119.14 E38.29378
G1 X91.363 Y119.723 E38.51643
G1 X91.265 Y120.353 E38.75426
G1 X91.219 Y120.895 E38.95716
G1 X91.201 Y121.488 E39.17847
G1 X91.218 Y122.089 E39.40274
G1 X91.267 Y122.632 E39.60611
G1 X91.36 Y123.265 E39.84477
G1 X91.485 Y123.843 E40.06536
G1 X91.648 Y124.431 E40.29297
G1 X91.833 Y124.958 E40.50131
G1 X92.059 Y125.508 E40.72311
G1 X92.323 Y126.054 E40.94934
G1 X92.613 Y126.568 E41.16948
G1 X92.925 Y127.052 E41.38429
G1 X93.276 Y127.528 E41.6049
G1 X93.656 Y127.985 E41.8266
G1 X94.069 Y128.427 E42.05225
G1 X94.491 Y128.824 E42.26837
G1 X94.946 Y129.205 E42.48974
G1 X95.43 Y129.563 E42.7143
G1 X95.928 Y129.885 E42.93552
G1 X96.432 Y130.17 E43.15149
G1 X96.963 Y130.428 E43.37171
G1 X97.524 Y130.66 E43.59816
G1 X98.055 Y130.845 E43.80791
G1 X98.64 Y131.009 E44.03454
G1 X99.223 Y131.137 E44.25719
G1 X99.853 Y131.235 E44.49502
G1 X100.395 Y131.281 E44.69792
G1 X100.986 Y131.299 E44.91848
G1 X101.589 Y131.282 E45.1435
G0 F6000 X101.788 Y131.265
G1 F1500 E44.1435
G1 F600 Z1.3
G0 F6000 X104.109 Y130.003 Z1.3
;TYPE:FILL
G1 F600 Z0.3
G1 F1500 E45.29893
G1 F2400 X109.517 Y124.595 E48.1518
G1 X109.256 Y125.228 E48.40721
G1 X109.018 Y125.717 E48.61007
G1 X108.757 Y126.179 E48.80801
G1 X108.457 Y126.643 E49.01411
G1 X108.127 Y127.09 E49.22137
G1 X107.768 Y127.521 E49.43061
G1 X107.412 Y127.898 E49.62402
G1 X107.004 Y128.282 E49.83302
G1 X106.568 Y128.645 E50.04465
G1 X106.143 Y128.958 E50.24153
G1 X105.692 Y129.249 E50.44175
G1 X105.219 Y129.517 E50.64454
G1 X104.707 Y129.765 E50.85675
G1 X104.204 Y129.971 E51.0595
G1 X103.708 Y130.145 E51.25557
G1 X103.239 Y130.274 E51.43702
G1 X109.774 Y123.739 E54.88442
G1 X109.908 Y123.146 E55.1112
G1 X110.032 Y122.354 E55.41023
G1 X110.059 Y121.506 E55.72671
G1 X110.036 Y120.714 E56.02227
G1 X109.91 Y119.86 E56.34427
G1 X109.797 Y119.336 E56.54423
G1 X109.543 Y118.428 E56.89593
G1 X104.078 Y112.963 E59.77888
G1 X103.24 Y112.725 E60.10383
G1 X109.776 Y119.261 E63.55176
G1 X109.846 Y119.331
G1 F1500 E62.55176
G1 F600 Z1.3
G0 F6000 X96.317 Y113.745 Z1.3
G1 F600 Z0.3
G1 F1500 E63.70719
G1 F2400 X95.858 Y114.042 E63.91112
G1 X95.432 Y114.355 E64.10831
G1 X94.996 Y114.718 E64.31993
G1 X94.588 Y115.102 E64.52893
G1 X94.232 Y115.479 E64.72235
G1 X93.873 Y115.91 E64.93159
G1 X93.546 Y116.353 E65.13698
G1 X93.243 Y116.821 E65.34494
G1 X92.986 Y117.275 E65.53955
G1 X92.744 Y117.772 E65.74575
G1 X92.495 Y118.39 E65.99428
G1 X97.891 Y112.994 E68.84083
G1 X98.761 Y112.724 E69.18062
G1 X92.226 Y119.259 E72.62803
G1 X92.092 Y119.854 E72.85553
G1 X91.968 Y120.646 E73.15456
G1 X91.941 Y121.494 E73.47104
G1 X91.964 Y122.288 E73.76734
G1 X92.089 Y123.134 E74.08634
G1 X92.203 Y123.66 E74.28711
G1 X92.453 Y124.566 E74.63769
G1 X97.928 Y130.04 E77.52565
G1 X98.76 Y130.273 E77.84794
G1 X92.224 Y123.737 E81.29587
G1 X92.154 Y123.667
G1 F1500 E80.29587
G1 F600 Z1.3
;MESH:NONMESH
G0 F6000 X101.565 Y130.882 Z1.3
;TIME_ELAPSED:13.694906
;LAYER:1
;MESH:Sajad.stl
G0 X101.565 Y130.882 Z1.6
;TYPE:WALL-INNER
G1 F600 Z0.6
G1 F1500 E81.4513
G1 F1800 X102.085 Y130.835 E81.64606
G1 X102.692 Y130.746 E81.8749
G1 X103.252 Y130.625 E82.08862
G1 X103.825 Y130.466 E82.31043
G1 X104.333 Y130.287 E82.51134
G1 X104.861 Y130.069 E82.72443
G1 X105.37 Y129.823 E82.9353
G1 X105.865 Y129.543 E83.14744
G1 X106.342 Y129.234 E83.35944
G1 X106.794 Y128.9 E83.56909
G1 X107.234 Y128.532 E83.78305
G1 X107.648 Y128.144 E83.9947
G1 X108.036 Y127.731 E84.20608
G1 X108.4 Y127.294 E84.41823
G1 X108.738 Y126.836 E84.63056
G1 X109.045 Y126.361 E84.84153
G1 X109.325 Y125.866 E85.05367
G1 X109.569 Y125.361 E85.26288
G1 X109.788 Y124.831 E85.47679
G1 X109.963 Y124.325 E85.67651
G1 X110.127 Y123.745 E85.90134
G1 X110.246 Y123.192 E86.11235
G1 X110.339 Y122.585 E86.34141
G1 X110.382 Y122.067 E86.5353
G1 X110.399 Y121.498 E86.74764
G1 X110.382 Y120.93 E86.95961
G1 X110.335 Y120.415 E87.15252
G1 X110.246 Y119.806 E87.3821
G1 X110.125 Y119.248 E87.59508
G1 X109.966 Y118.675 E87.8169
G1 X109.787 Y118.167 E88.01781
G1 X109.569 Y117.639 E88.23089
G1 X109.323 Y117.13 E88.44177
G1 X109.043 Y116.635 E88.65391
G1 X108.734 Y116.158 E88.86591
G1 X108.4 Y115.706 E89.07555
G1 X108.032 Y115.266 E89.28952
G1 X107.644 Y114.852 E89.50117
G1 X107.231 Y114.464 E89.71255
G1 X106.794 Y114.1 E89.9247
G1 X106.336 Y113.762 E90.13703
G1 X105.861 Y113.455 E90.348
G1 X105.366 Y113.175 E90.56013
G1 X104.861 Y112.931 E90.76935
G1 X104.335 Y112.714 E90.98159
G1 X103.825 Y112.537 E91.18297
G1 X103.25 Y112.375 E91.4058
G1 X102.69 Y112.254 E91.61951
G1 X102.085 Y112.161 E91.84784
G1 X101.567 Y112.118 E92.04173
G1 X101 Y112.101 E92.25333
G1 X100.435 Y112.118 E92.46418
G1 X99.915 Y112.165 E92.65894
G1 X99.308 Y112.254 E92.88778
G1 X98.748 Y112.375 E93.10149
G1 X98.175 Y112.534 E93.32331
G1 X97.667 Y112.713 E93.52422
G1 X97.139 Y112.931 E93.73731
G1 X96.63 Y113.177 E93.94818
G1 X96.135 Y113.457 E94.16032
G1 X95.658 Y113.766 E94.37232
G1 X95.206 Y114.1 E94.58197
G1 X94.766 Y114.468 E94.79593
G1 X94.352 Y114.856 E95.00758
G1 X93.964 Y115.269 E95.21896
G1 X93.6 Y115.706 E95.43111
G1 X93.262 Y116.164 E95.64344
G1 X92.955 Y116.639 E95.85441
G1 X92.675 Y117.134 E96.06655
G1 X92.431 Y117.639 E96.27576
G1 X92.212 Y118.169 E96.48967
G1 X92.037 Y118.675 E96.68939
G1 X91.873 Y119.255 E96.91422
G1 X91.754 Y119.808 E97.12523
G1 X91.661 Y120.415 E97.35429
G1 X91.618 Y120.933 E97.54818
G1 X91.601 Y121.501 E97.76015
G1 X91.618 Y122.065 E97.97063
G1 X91.665 Y122.585 E98.16539
G1 X91.754 Y123.194 E98.39497
G1 X91.873 Y123.747 E98.60597
G1 X92.034 Y124.325 E98.82978
G1 X92.211 Y124.829 E99.02904
G1 X92.431 Y125.361 E99.24379
G1 X92.675 Y125.866 E99.453
G1 X92.955 Y126.361 E99.66514
G1 X93.262 Y126.836 E99.87611
G1 X93.6 Y127.294 E100.08844
G1 X93.964 Y127.731 E100.30059
G1 X94.352 Y128.144 E100.51197
G1 X94.766 Y128.532 E100.72362
G1 X95.206 Y128.9 E100.93758
G1 X95.658 Y129.234 E101.14722
G1 X96.136 Y129.543 E101.35954
G1 X96.63 Y129.823 E101.57135
G1 X97.139 Y130.069 E101.78223
G1 X97.665 Y130.286 E101.99448
G1 X98.175 Y130.463 E102.19585
G1 X98.75 Y130.625 E102.41869
G1 X99.31 Y130.746 E102.6324
G1 X99.915 Y130.839 E102.86073
G1 X100.433 Y130.882 E103.05462
G1 X101 Y130.899 E103.26621
G1 X101.565 Y130.882 E103.47706
G0 F6000 X101.589 Y131.282
;TYPE:WALL-OUTER
G1 F1800 X102.132 Y131.233 E103.68044
G1 X102.764 Y131.14 E103.91872
G1 X103.348 Y131.013 E104.14166
G1 X103.945 Y130.848 E104.3727
G1 X104.476 Y130.661 E104.5827
G1 X105.025 Y130.434 E104.8043
G1 X105.556 Y130.177 E105.02435
G1 X106.072 Y129.885 E105.24551
G1 X106.57 Y129.563 E105.46673
G1 X107.041 Y129.215 E105.68517
G1 X107.5 Y128.832 E105.90816
G1 X107.931 Y128.427 E106.12878
G1 X108.336 Y127.996 E106.34939
G1 X108.715 Y127.541 E106.57028
G1 X109.067 Y127.064 E106.79142
G1 X109.387 Y126.568 E107.0116
G1 X109.679 Y126.052 E107.23276
G1 X109.934 Y125.525 E107.45114
G1 X110.162 Y124.973 E107.67392
G1 X110.345 Y124.445 E107.88237
G1 X110.515 Y123.842 E108.11607
G1 X110.64 Y123.264 E108.33666
G1 X110.737 Y122.632 E108.57517
G1 X110.782 Y122.089 E108.77841
G1 X110.799 Y121.498 E108.99896
G1 X110.782 Y120.906 E109.21987
G1 X110.733 Y120.368 E109.42139
G1 X110.64 Y119.734 E109.66041
G1 X110.513 Y119.152 E109.88262
G1 X110.348 Y118.555 E110.11366
G1 X110.161 Y118.024 E110.32366
G1 X109.934 Y117.475 E110.54526
G1 X109.677 Y116.944 E110.76531
G1 X109.385 Y116.428 E110.98647
G1 X109.063 Y115.93 E111.20769
G1 X108.715 Y115.459 E111.42613
G1 X108.332 Y115 E111.64913
G1 X107.927 Y114.569 E111.86974
G1 X107.496 Y114.164 E112.09035
G1 X107.041 Y113.785 E112.31124
G1 X106.564 Y113.433 E112.53238
G1 X106.068 Y113.113 E112.75256
G1 X105.552 Y112.821 E112.97372
G1 X105.025 Y112.566 E113.1921
G1 X104.477 Y112.34 E113.41322
G1 X103.945 Y112.155 E113.62332
G1 X103.347 Y111.987 E113.85502
G1 X102.763 Y111.86 E114.07796
G1 X102.132 Y111.763 E114.3161
G1 X101.589 Y111.718 E114.51934
G1 X101 Y111.701 E114.73914
G1 X100.411 Y111.718 E114.95894
G1 X99.868 Y111.767 E115.16231
G1 X99.236 Y111.86 E115.4006
G1 X98.652 Y111.987 E115.62354
G1 X98.055 Y112.152 E115.85458
G1 X97.524 Y112.339 E116.06457
G1 X96.975 Y112.566 E116.28618
G1 X96.444 Y112.823 E116.50623
G1 X95.928 Y113.115 E116.72739
G1 X95.43 Y113.437 E116.9486
G1 X94.959 Y113.785 E117.16705
G1 X94.5 Y114.168 E117.39004
G1 X94.069 Y114.573 E117.61066
G1 X93.664 Y115.004 E117.83127
G1 X93.285 Y115.459 E118.05216
G1 X92.933 Y115.936 E118.27329
G1 X92.613 Y116.432 E118.49347
G1 X92.321 Y116.948 E118.71463
G1 X92.066 Y117.475 E118.93302
G1 X91.838 Y118.027 E119.1558
G1 X91.655 Y118.555 E119.36425
G1 X91.485 Y119.158 E119.59795
G1 X91.36 Y119.736 E119.81854
G1 X91.263 Y120.368 E120.05704
G1 X91.218 Y120.911 E120.26029
G1 X91.201 Y121.501 E120.48046
G1 X91.218 Y122.089 E120.69989
G1 X91.267 Y122.632 E120.90326
G1 X91.36 Y123.265 E121.14192
G1 X91.485 Y123.843 E121.36251
G1 X91.652 Y124.445 E121.59554
G1 X91.837 Y124.972 E121.80389
G1 X92.066 Y125.525 E122.02715
G1 X92.321 Y126.052 E122.24554
G1 X92.613 Y126.568 E122.4667
G1 X92.933 Y127.064 E122.68688
G1 X93.285 Y127.541 E122.90801
G1 X93.664 Y127.996 E123.1289
G1 X94.069 Y128.427 E123.34952
G1 X94.5 Y128.832 E123.57013
G1 X94.959 Y129.215 E123.79312
G1 X95.43 Y129.563 E124.01157
G1 X95.928 Y129.885 E124.23278
G1 X96.444 Y130.177 E124.45394
G1 X96.975 Y130.434 E124.67399
G1 X97.523 Y130.66 E124.89511
G1 X98.055 Y130.845 E125.10521
G1 X98.653 Y131.013 E125.33691
G1 X99.237 Y131.14 E125.55985
G1 X99.868 Y131.237 E125.79799
G1 X100.411 Y131.282 E126.00123
G1 X101 Y131.299 E126.22103
G1 X101.589 Y131.282 E126.44083
G0 F6000 X101.788 Y131.265
G1 F1500 E125.44083
G1 F600 Z1.6
G0 F6000 X104.607 Y129.805 Z1.6
;TYPE:FILL
G1 F600 Z0.6
G1 F1500 E126.59626
G1 F2400 X109.305 Y125.107 E129.07459
G1 X109.261 Y125.217 E129.11878
G1 X109.021 Y125.711 E129.32365
G1 X108.757 Y126.179 E129.52408
G1 X108.457 Y126.644 E129.7305
G1 X108.136 Y127.079 E129.93216
G1 X107.781 Y127.506 E130.1393
G1 X107.407 Y127.903 E130.34275
G1 X107.014 Y128.273 E130.5441
G1 X106.583 Y128.633 E130.75357
G1 X106.149 Y128.953 E130.95471
G1 X105.683 Y129.255 E131.16185
