;FLAVOR:Marlin
;TIME:254
;Filament used: 2.32555m, 0m
;Layer height: 0.3
;MINX:91.201
;MINY:111.701
;MINZ:0.3
;MAXX:110.799
;MAXY:131.299
;MAXZ:7
;Generated with Cura_SteamEngine 5.0.1
T0
M140 S40
M105
M190 S40
M104 S200
M105
M109 S200
M82 ;absolute extrusion mode
M900 K0.020;
G28 ; home all axes
G1 Z5 F5000 ; lift nozzle
G1 X-45 Y70 F2500; go to glycerin roller;
G92 E0
G1 X-23 F5000; park to start
G92 E0; Extrude a small amount to clear nozzle
G1 E20 F4000
G4 P2000
G92 E0


G92 E0
G1 F1500 E-1
;LAYER_COUNT:20
;LAYER:0
M107
M204 S500
G1 F600 Z1.3
;MESH:Sajad.stl
G0 F6000 X101.565 Y130.882 Z1.3
;TYPE:WALL-INNER
G1 F600 Z0.3
G1 F1500 E0.15542
G1 F1800 X102.085 Y130.835 E0.35019
G1 X102.692 Y130.746 E0.57903
G1 X103.252 Y130.625 E0.79274
G1 X103.811 Y130.47 E1.00913
G1 X104.32 Y130.291 E1.21039
G1 X104.845 Y130.075 E1.42215
G1 X105.37 Y129.821 E1.6397
G1 X105.865 Y129.543 E1.85148
G1 X106.33 Y129.242 E2.0581
G1 X106.782 Y128.909 E2.26752
G1 X107.224 Y128.541 E2.48206
G1 X107.648 Y128.144 E2.69873
G1 X108.026 Y127.741 E2.90483
G1 X108.392 Y127.304 E3.11746
G1 X108.738 Y126.836 E3.33456
G1 X109.045 Y126.361 E3.54553
G1 X109.318 Y125.878 E3.75249
G1 X109.563 Y125.373 E3.96186
G1 X109.788 Y124.83 E4.18111
G1 X109.963 Y124.325 E4.38048
G1 X110.121 Y123.763 E4.59824
G1 X110.243 Y123.203 E4.81203
G1 X110.337 Y122.599 E5.04005
G1 X110.381 Y122.082 E5.2336
G1 X110.399 Y121.512 E5.44632
G1 X110.382 Y120.929 E5.66389
G1 X110.335 Y120.415 E5.85642
G1 X110.246 Y119.806 E6.086
G1 X110.125 Y119.248 E6.29898
G1 X109.97 Y118.689 E6.51537
G1 X109.792 Y118.18 E6.71651
G1 X109.574 Y117.653 E6.92925
G1 X109.322 Y117.13 E7.1458
G1 X109.043 Y116.635 E7.35775
G1 X108.742 Y116.17 E7.56438
G1 X108.409 Y115.718 E7.7738
G1 X108.041 Y115.276 E7.98834
G1 X107.644 Y114.852 E8.205
G1 X107.241 Y114.474 E8.41111
G1 X106.804 Y114.108 E8.62374
G1 X106.336 Y113.762 E8.84084
G1 X105.861 Y113.455 E9.05181
G1 X105.378 Y113.182 E9.25877
G1 X104.874 Y112.937 E9.46781
G1 X104.334 Y112.714 E9.68574
G1 X103.825 Y112.537 E9.88676
G1 X103.263 Y112.379 E10.10452
G1 X102.703 Y112.257 E10.31831
G1 X102.099 Y112.163 E10.54633
G1 X101.582 Y112.119 E10.73987
G1 X101.014 Y112.101 E10.95186
G1 X100.435 Y112.118 E11.16793
G1 X99.915 Y112.165 E11.36269
G1 X99.308 Y112.254 E11.59153
G1 X98.748 Y112.375 E11.80524
G1 X98.189 Y112.53 E12.02163
G1 X97.68 Y112.709 E12.22289
G1 X97.155 Y112.924 E12.43451
G1 X96.63 Y113.179 E12.65223
G1 X96.135 Y113.457 E12.864
G1 X95.67 Y113.758 E13.07062
G1 X95.218 Y114.091 E13.28004
G1 X94.776 Y114.459 E13.49458
G1 X94.352 Y114.856 E13.71125
G1 X93.974 Y115.259 E13.91736
G1 X93.608 Y115.696 E14.12998
G1 X93.262 Y116.164 E14.34709
G1 X92.955 Y116.639 E14.55806
G1 X92.682 Y117.122 E14.76501
G1 X92.437 Y117.627 E14.97439
G1 X92.212 Y118.17 E15.19364
G1 X92.037 Y118.675 E15.393
G1 X91.879 Y119.237 E15.61077
G1 X91.757 Y119.797 E15.82456
G1 X91.663 Y120.401 E16.05257
G1 X91.619 Y120.918 E16.24612
G1 X91.601 Y121.488 E16.45885
G1 X91.618 Y122.065 E16.67417
G1 X91.665 Y122.585 E16.86893
G1 X91.754 Y123.194 E17.09851
G1 X91.873 Y123.747 E17.30952
G1 X92.03 Y124.311 E17.5279
G1 X92.207 Y124.816 E17.72751
G1 X92.424 Y125.344 E17.94045
G1 X92.678 Y125.868 E18.15766
G1 X92.955 Y126.361 E18.3686
G1 X93.255 Y126.825 E18.57471
G1 X93.591 Y127.282 E18.78629
G1 X93.956 Y127.72 E18.99897
G1 X94.352 Y128.144 E19.21538
G1 X94.757 Y128.525 E19.4228
G1 X95.194 Y128.891 E19.63543
G1 X95.658 Y129.234 E19.85067
G1 X96.136 Y129.543 E20.06298
G1 X96.618 Y129.816 E20.26961
G1 X97.127 Y130.063 E20.48065
G1 X97.666 Y130.286 E20.69824
G1 X98.175 Y130.463 E20.89926
G1 X98.737 Y130.621 E21.11702
G1 X99.297 Y130.743 E21.33081
G1 X99.901 Y130.837 E21.55883
G1 X100.418 Y130.881 E21.75238
G1 X100.986 Y130.899 E21.96436
G1 X101.565 Y130.882 E22.18043
G0 F6000 X101.589 Y131.282
;TYPE:WALL-OUTER
G1 F1800 X102.132 Y131.233 E22.3838
G1 X102.764 Y131.14 E22.62209
G1 X103.348 Y131.013 E22.84502
G1 X103.931 Y130.852 E23.07064
G1 X104.462 Y130.665 E23.28063
G1 X105.008 Y130.441 E23.50077
G1 X105.556 Y130.176 E23.72784
G1 X106.072 Y129.885 E23.94881
G1 X106.558 Y129.571 E24.16465
G1 X107.029 Y129.224 E24.38287
G1 X107.489 Y128.841 E24.60615
G1 X107.931 Y128.427 E24.83205
G1 X108.326 Y128.007 E25.04712
G1 X108.706 Y127.552 E25.26825
G1 X109.067 Y127.064 E25.49468
G1 X109.387 Y126.568 E25.71486
G1 X109.672 Y126.064 E25.93084
G1 X109.928 Y125.537 E26.14939
G1 X110.162 Y124.972 E26.3775
G1 X110.345 Y124.445 E26.5856
G1 X110.509 Y123.86 E26.81223
G1 X110.637 Y123.277 E27.03488
G1 X110.735 Y122.647 E27.27271
G1 X110.781 Y122.105 E27.47561
G1 X110.799 Y121.512 E27.69691
G1 X110.782 Y120.905 E27.92342
G1 X110.733 Y120.368 E28.12457
G1 X110.64 Y119.734 E28.36359
G1 X110.513 Y119.152 E28.5858
G1 X110.352 Y118.569 E28.81141
G1 X110.166 Y118.038 E29.02128
G1 X109.94 Y117.489 E29.24274
G1 X109.676 Y116.944 E29.46863
G1 X109.385 Y116.428 E29.68961
G1 X109.071 Y115.942 E29.90544
G1 X108.724 Y115.471 E30.12367
G1 X108.341 Y115.011 E30.34695
G1 X107.927 Y114.569 E30.57285
G1 X107.507 Y114.174 E30.78792
G1 X107.052 Y113.794 E31.00905
G1 X106.564 Y113.433 E31.23548
G1 X106.068 Y113.113 E31.45566
G1 X105.564 Y112.828 E31.67164
G1 X105.038 Y112.572 E31.88985
G1 X104.476 Y112.34 E32.11665
G1 X103.945 Y112.155 E32.3264
G1 X103.36 Y111.991 E32.55303
G1 X102.777 Y111.863 E32.77568
G1 X102.147 Y111.765 E33.0135
G1 X101.605 Y111.719 E33.21641
G1 X101.014 Y111.701 E33.43696
G1 X100.411 Y111.718 E33.66198
G1 X99.868 Y111.767 E33.86536
G1 X99.236 Y111.86 E34.10364
G1 X98.652 Y111.987 E34.32658
G1 X98.069 Y112.148 E34.55219
G1 X97.538 Y112.335 E34.76219
G1 X96.992 Y112.559 E34.98233
G1 X96.444 Y112.824 E35.20939
G1 X95.928 Y113.115 E35.43037
G1 X95.442 Y113.429 E35.6462
G1 X94.971 Y113.776 E35.86442
G1 X94.511 Y114.159 E36.0877
G1 X94.069 Y114.573 E36.31361
G1 X93.674 Y114.993 E36.52868
G1 X93.294 Y115.448 E36.74981
G1 X92.933 Y115.936 E36.97623
G1 X92.613 Y116.432 E37.19641
G1 X92.328 Y116.936 E37.41239
G1 X92.072 Y117.463 E37.63094
G1 X91.838 Y118.028 E37.85906
G1 X91.655 Y118.555 E38.06715
G1 X91.491 Y119.14 E38.29378
G1 X91.363 Y119.723 E38.51643
G1 X91.265 Y120.353 E38.75426
G1 X91.219 Y120.895 E38.95716
G1 X91.201 Y121.488 E39.17847
G1 X91.218 Y122.089 E39.40274
G1 X91.267 Y122.632 E39.60611
G1 X91.36 Y123.265 E39.84477
G1 X91.485 Y123.843 E40.06536
G1 X91.648 Y124.431 E40.29297
G1 X91.833 Y124.958 E40.50131
G1 X92.059 Y125.508 E40.72311
G1 X92.323 Y126.054 E40.94934
G1 X92.613 Y126.568 E41.16948
G1 X92.925 Y127.052 E41.38429
G1 X93.276 Y127.528 E41.6049
G1 X93.656 Y127.985 E41.8266
G1 X94.069 Y128.427 E42.05225
G1 X94.491 Y128.824 E42.26837
G1 X94.946 Y129.205 E42.48974
G1 X95.43 Y129.563 E42.7143
G1 X95.928 Y129.885 E42.93552
G1 X96.432 Y130.17 E43.15149
G1 X96.963 Y130.428 E43.37171
G1 X97.524 Y130.66 E43.59816
G1 X98.055 Y130.845 E43.80791
G1 X98.64 Y131.009 E44.03454
G1 X99.223 Y131.137 E44.25719
G1 X99.853 Y131.235 E44.49502
G1 X100.395 Y131.281 E44.69792
G1 X100.986 Y131.299 E44.91848
G1 X101.589 Y131.282 E45.1435
G0 F6000 X101.788 Y131.265
G1 F1500 E44.1435
G1 F600 Z1.3
G0 F6000 X109.157 Y125.43 Z1.3
;TYPE:FILL
G1 F600 Z0.3
G1 F1500 E45.29893
G1 F2400 X97.069 Y113.342 E51.6757
G1 X97.483 Y113.156 E51.845
G1 X109.354 Y125.028 E58.10756
G1 X109.018 Y125.717 E58.3935
G1 X108.757 Y126.179 E58.59144
G1 X108.457 Y126.643 E58.79754
G1 X108.127 Y127.09 E59.0048
G1 X107.768 Y127.521 E59.21404
G1 X107.412 Y127.898 E59.40745
G1 X107.004 Y128.282 E59.61645
G1 X106.568 Y128.645 E59.82808
G1 X106.143 Y128.958 E60.02496
G1 X105.692 Y129.249 E60.22518
G1 X104.946 Y129.671 E60.54489
G1 X92.832 Y117.557 E66.93537
G1 X92.528 Y118.296 E67.23345
G1 X92.291 Y118.983 E67.50453
G1 X98.495 Y112.779 E70.77732
G1 X99.362 Y112.59 E71.10833
G1 X100.212 Y112.464 E71.42886
G1 X101.014 Y112.441 E71.72814
G1 X101.855 Y112.468 E72.04201
G1 X102.977 Y112.644 E72.46566
G1 X92.151 Y123.47 E78.17669
G1 X92.353 Y124.203 E78.4603
G1 X92.523 Y124.69 E78.65271
G1 X92.732 Y125.2 E78.85831
G1 X92.981 Y125.714 E79.07135
G1 X93.244 Y126.181 E79.27128
G1 X93.597 Y126.728 E79.51412
G1 X106.224 Y114.101 E86.17523
G1 X106.59 Y114.373 E86.34533
G1 X107.021 Y114.732 E86.55457
G1 X107.398 Y115.088 E86.74798
G1 X107.782 Y115.496 E86.95698
G1 X108.415 Y116.257 E87.32622
G1 X95.771 Y128.902 E93.99656
G1 X96.313 Y129.252 E94.23722
G1 X96.78 Y129.517 E94.43752
G1 X97.265 Y129.752 E94.63855
G1 X97.782 Y129.966 E94.84727
G1 X98.271 Y130.136 E95.04038
G1 X99.027 Y130.349 E95.33337
G1 X109.839 Y119.537 E101.03701
G1 X109.91 Y119.86 E101.16037
G1 X110.036 Y120.714 E101.48238
G1 X110.059 Y121.506 E101.77793
G1 X110.032 Y122.354 E102.09442
G1 X109.908 Y123.146 E102.39345
G1 X109.72 Y124.003 E102.72073
G1 X103.53 Y130.193 E105.98613
G1 X103.708 Y130.145 E106.0549
G1 X104.531 Y129.856 E106.38027
G1 X92.657 Y117.981 E112.64442
G1 X92.587 Y117.911
G1 F1500 E111.64442
G1 F600 Z1.3
;MESH:NONMESH
G0 F6000 X101.565 Y130.882 Z1.3
;TIME_ELAPSED:15.625376
;LAYER:1
;MESH:Sajad.stl
G0 X101.565 Y130.882 Z1.6
;TYPE:WALL-INNER
G1 F600 Z0.6
G1 F1500 E112.79984
G1 F1800 X102.085 Y130.835 E112.9946
G1 X102.692 Y130.746 E113.22345
G1 X103.252 Y130.625 E113.43716
G1 X103.825 Y130.466 E113.65897
G1 X104.333 Y130.287 E113.85989
G1 X104.861 Y130.069 E114.07297
G1 X105.37 Y129.823 E114.28385
G1 X105.865 Y129.543 E114.49598
G1 X106.342 Y129.234 E114.70799
G1 X106.794 Y128.9 E114.91763
G1 X107.234 Y128.532 E115.13159
G1 X107.648 Y128.144 E115.34325
G1 X108.036 Y127.731 E115.55462
G1 X108.4 Y127.294 E115.76677
G1 X108.738 Y126.836 E115.9791
G1 X109.045 Y126.361 E116.19007
G1 X109.325 Y125.866 E116.40221
G1 X109.569 Y125.361 E116.61142
G1 X109.788 Y124.831 E116.82534
G1 X109.963 Y124.325 E117.02505
G1 X110.127 Y123.745 E117.24989
G1 X110.246 Y123.192 E117.46089
G1 X110.339 Y122.585 E117.68995
G1 X110.382 Y122.067 E117.88384
G1 X110.399 Y121.498 E118.09618
G1 X110.382 Y120.93 E118.30815
G1 X110.335 Y120.415 E118.50106
G1 X110.246 Y119.806 E118.73064
G1 X110.125 Y119.248 E118.94362
G1 X109.966 Y118.675 E119.16544
G1 X109.787 Y118.167 E119.36635
G1 X109.569 Y117.639 E119.57943
G1 X109.323 Y117.13 E119.79031
G1 X109.043 Y116.635 E120.00245
G1 X108.734 Y116.158 E120.21445
G1 X108.4 Y115.706 E120.42409
G1 X108.032 Y115.266 E120.63806
G1 X107.644 Y114.852 E120.84971
G1 X107.231 Y114.464 E121.06109
G1 X106.794 Y114.1 E121.27324
G1 X106.336 Y113.762 E121.48557
G1 X105.861 Y113.455 E121.69654
G1 X105.366 Y113.175 E121.90868
G1 X104.861 Y112.931 E122.11789
G1 X104.335 Y112.714 E122.33014
G1 X103.825 Y112.537 E122.53151
G1 X103.25 Y112.375 E122.75434
G1 X102.69 Y112.254 E122.96806
G1 X102.085 Y112.161 E123.19638
G1 X101.567 Y112.118 E123.39027
G1 X101 Y112.101 E123.60187
G1 X100.435 Y112.118 E123.81272
G1 X99.915 Y112.165 E124.00748
G1 X99.308 Y112.254 E124.23632
G1 X98.748 Y112.375 E124.45004
G1 X98.175 Y112.534 E124.67185
G1 X97.667 Y112.713 E124.87277
G1 X97.139 Y112.931 E125.08585
G1 X96.63 Y113.177 E125.29673
G1 X96.135 Y113.457 E125.50886
G1 X95.658 Y113.766 E125.72087
G1 X95.206 Y114.1 E125.93051
G1 X94.766 Y114.468 E126.14447
G1 X94.352 Y114.856 E126.35612
G1 X93.964 Y115.269 E126.5675
G1 X93.6 Y115.706 E126.77965
G1 X93.262 Y116.164 E126.99198
G1 X92.955 Y116.639 E127.20295
G1 X92.675 Y117.134 E127.41509
G1 X92.431 Y117.639 E127.6243
G1 X92.212 Y118.169 E127.83821
G1 X92.037 Y118.675 E128.03793
G1 X91.873 Y119.255 E128.26277
G1 X91.754 Y119.808 E128.47377
G1 X91.661 Y120.415 E128.70283
G1 X91.618 Y120.933 E128.89672
G1 X91.601 Y121.501 E129.10869
G1 X91.618 Y122.065 E129.31917
G1 X91.665 Y122.585 E129.51393
G1 X91.754 Y123.194 E129.74351
G1 X91.873 Y123.747 E129.95451
G1 X92.034 Y124.325 E130.17833
G1 X92.211 Y124.829 E130.37759
G1 X92.431 Y125.361 E130.59233
G1 X92.675 Y125.866 E130.80154
G1 X92.955 Y126.361 E131.01368
G1 X93.262 Y126.836 E131.22465
G1 X93.6 Y127.294 E131.43698
G1 X93.964 Y127.731 E131.64913
G1 X94.352 Y128.144 E131.86051
G1 X94.766 Y128.532 E132.07216
G1 X95.206 Y128.9 E132.28612
G1 X95.658 Y129.234 E132.49577
G1 X96.136 Y129.543 E132.70808
G1 X96.63 Y129.823 E132.91989
G1 X97.139 Y130.069 E133.13077
G1 X97.665 Y130.286 E133.34302
G1 X98.175 Y130.463 E133.54439
G1 X98.75 Y130.625 E133.76723
G1 X99.31 Y130.746 E133.98094
G1 X99.915 Y130.839 E134.20927
G1 X100.433 Y130.882 E134.40316
G1 X101 Y130.899 E134.61475
G1 X101.565 Y130.882 E134.82561
G0 F6000 X101.589 Y131.282
;TYPE:WALL-OUTER
G1 F1800 X102.132 Y131.233 E135.02898
G1 X102.764 Y131.14 E135.26727
G1 X103.348 Y131.013 E135.4902
G1 X103.945 Y130.848 E135.72124
G1 X104.476 Y130.661 E135.93124
G1 X105.025 Y130.434 E136.15284
G1 X105.556 Y130.177 E136.37289
G1 X106.072 Y129.885 E136.59405
G1 X106.57 Y129.563 E136.81527
G1 X107.041 Y129.215 E137.03371
G1 X107.5 Y128.832 E137.25671
G1 X107.931 Y128.427 E137.47732
G1 X108.336 Y127.996 E137.69793
G1 X108.715 Y127.541 E137.91882
G1 X109.067 Y127.064 E138.13996
G1 X109.387 Y126.568 E138.36014
G1 X109.679 Y126.052 E138.5813
G1 X109.934 Y125.525 E138.79968
G1 X110.162 Y124.973 E139.02246
G1 X110.345 Y124.445 E139.23091
G1 X110.515 Y123.842 E139.46461
G1 X110.64 Y123.264 E139.6852
G1 X110.737 Y122.632 E139.92371
G1 X110.782 Y122.089 E140.12695
G1 X110.799 Y121.498 E140.3475
G1 X110.782 Y120.906 E140.56842
G1 X110.733 Y120.368 E140.76993
G1 X110.64 Y119.734 E141.00896
G1 X110.513 Y119.152 E141.23116
G1 X110.348 Y118.555 E141.4622
G1 X110.161 Y118.024 E141.6722
G1 X109.934 Y117.475 E141.8938
G1 X109.677 Y116.944 E142.11386
G1 X109.385 Y116.428 E142.33502
G1 X109.063 Y115.93 E142.55623
G1 X108.715 Y115.459 E142.77468
G1 X108.332 Y115 E142.99767
G1 X107.927 Y114.569 E143.21828
G1 X107.496 Y114.164 E143.4389
G1 X107.041 Y113.785 E143.65979
G1 X106.564 Y113.433 E143.88092
G1 X106.068 Y113.113 E144.1011
G1 X105.552 Y112.821 E144.32226
G1 X105.025 Y112.566 E144.54065
G1 X104.477 Y112.34 E144.76176
G1 X103.945 Y112.155 E144.97186
G1 X103.347 Y111.987 E145.20357
G1 X102.763 Y111.86 E145.4265
G1 X102.132 Y111.763 E145.66464
G1 X101.589 Y111.718 E145.86788
G1 X101 Y111.701 E146.08768
G1 X100.411 Y111.718 E146.30748
G1 X99.868 Y111.767 E146.51086
G1 X99.236 Y111.86 E146.74914
G1 X98.652 Y111.987 E146.97208
G1 X98.055 Y112.152 E147.20312
G1 X97.524 Y112.339 E147.41312
G1 X96.975 Y112.566 E147.63472
G1 X96.444 Y112.823 E147.85477
G1 X95.928 Y113.115 E148.07593
G1 X95.43 Y113.437 E148.29715
G1 X94.959 Y113.785 E148.51559
G1 X94.5 Y114.168 E148.73858
G1 X94.069 Y114.573 E148.9592
G1 X93.664 Y115.004 E149.17981
G1 X93.285 Y115.459 E149.4007
G1 X92.933 Y115.936 E149.62184
G1 X92.613 Y116.432 E149.84202
G1 X92.321 Y116.948 E150.06318
G1 X92.066 Y117.475 E150.28156
G1 X91.838 Y118.027 E150.50434
G1 X91.655 Y118.555 E150.71279
G1 X91.485 Y119.158 E150.94649
G1 X91.36 Y119.736 E151.16708
G1 X91.263 Y120.368 E151.40559
G1 X91.218 Y120.911 E151.60883
G1 X91.201 Y121.501 E151.829
G1 X91.218 Y122.089 E152.04843
G1 X91.267 Y122.632 E152.2518
G1 X91.36 Y123.265 E152.49046
G1 X91.485 Y123.843 E152.71105
G1 X91.652 Y124.445 E152.94409
G1 X91.837 Y124.972 E153.15243
G1 X92.066 Y125.525 E153.3757
G1 X92.321 Y126.052 E153.59408
G1 X92.613 Y126.568 E153.81524
G1 X92.933 Y127.064 E154.03542
G1 X93.285 Y127.541 E154.25655
G1 X93.664 Y127.996 E154.47745
G1 X94.069 Y128.427 E154.69806
G1 X94.5 Y128.832 E154.91867
G1 X94.959 Y129.215 E155.14167
G1 X95.43 Y129.563 E155.36011
G1 X95.928 Y129.885 E155.58132
G1 X96.444 Y130.177 E155.80248
G1 X96.975 Y130.434 E156.02254
G1 X97.523 Y130.66 E156.24365
G1 X98.055 Y130.845 E156.45376
G1 X98.653 Y131.013 E156.68546
G1 X99.237 Y131.14 E156.90839
G1 X99.868 Y131.237 E157.14653
G1 X100.411 Y131.282 E157.34978
G1 X101 Y131.299 E157.56958
G1 X101.589 Y131.282 E157.78938
G0 F6000 X101.788 Y131.265
G1 F1500 E156.78938
G1 F600 Z1.6
G0 F6000 X92.941 Y125.632 Z1.6
;TYPE:FILL
G1 F600 Z0.6
G1 F1500 E157.9448
G1 F2400 X105.134 Y113.439 E164.37696
G1 X105.679 Y113.743 E164.60975
G1 X106.144 Y114.043 E164.81617
G1 X106.579 Y114.364 E165.01783
G1 X107.01 Y114.723 E165.22706
G1 X107.403 Y115.092 E165.42815
G1 X107.773 Y115.486 E165.62977
G1 X108.136 Y115.921 E165.84111
G1 X108.45 Y116.347 E166.03852
G1 X108.755 Y116.817 E166.24751
G1 X109.059 Y117.366 E166.4816
