;FLAVOR:Marlin
;TIME:179
;Filament used: 1.57716m, 0m
;Layer height: 0.3
;MINX:91.201
;MINY:111.701
;MINZ:0.3
;MAXX:110.799
;MAXY:131.299
;MAXZ:7
;Generated with Cura_SteamEngine 5.0.1
T0
M140 S40
M105
M190 S40
M104 S200
M105
M109 S200
M82 ;absolute extrusion mode
M900 K0.020;
G28 ; home all axes
G1 Z5 F5000 ; lift nozzle
G1 X-45 Y70 F2500; go to glycerin roller;
G92 E0
G1 X-23 F5000; park to start
G92 E0; Extrude a small amount to clear nozzle
G1 E20 F4000
G4 P2000
G92 E0


G92 E0
G1 F1500 E-1
;LAYER_COUNT:20
;LAYER:0
M107
M204 S500
G1 F600 Z1.3
;MESH:Sajad.stl
G0 F6000 X101.565 Y130.882 Z1.3
;TYPE:WALL-INNER
G1 F600 Z0.3
G1 F1500 E0.15542
G1 F1800 X102.085 Y130.835 E0.35019
G1 X102.692 Y130.746 E0.57903
G1 X103.252 Y130.625 E0.79274
G1 X103.811 Y130.47 E1.00913
G1 X104.32 Y130.291 E1.21039
G1 X104.845 Y130.075 E1.42215
G1 X105.37 Y129.821 E1.6397
G1 X105.865 Y129.543 E1.85148
G1 X106.33 Y129.242 E2.0581
G1 X106.782 Y128.909 E2.26752
G1 X107.224 Y128.541 E2.48206
G1 X107.648 Y128.144 E2.69873
G1 X108.026 Y127.741 E2.90483
G1 X108.392 Y127.304 E3.11746
G1 X108.738 Y126.836 E3.33456
G1 X109.045 Y126.361 E3.54553
G1 X109.318 Y125.878 E3.75249
G1 X109.563 Y125.373 E3.96186
G1 X109.788 Y124.83 E4.18111
G1 X109.963 Y124.325 E4.38048
G1 X110.121 Y123.763 E4.59824
G1 X110.243 Y123.203 E4.81203
G1 X110.337 Y122.599 E5.04005
G1 X110.381 Y122.082 E5.2336
G1 X110.399 Y121.512 E5.44632
G1 X110.382 Y120.929 E5.66389
G1 X110.335 Y120.415 E5.85642
G1 X110.246 Y119.806 E6.086
G1 X110.125 Y119.248 E6.29898
G1 X109.97 Y118.689 E6.51537
G1 X109.792 Y118.18 E6.71651
G1 X109.574 Y117.653 E6.92925
G1 X109.322 Y117.13 E7.1458
G1 X109.043 Y116.635 E7.35775
G1 X108.742 Y116.17 E7.56438
G1 X108.409 Y115.718 E7.7738
G1 X108.041 Y115.276 E7.98834
G1 X107.644 Y114.852 E8.205
G1 X107.241 Y114.474 E8.41111
G1 X106.804 Y114.108 E8.62374
G1 X106.336 Y113.762 E8.84084
G1 X105.861 Y113.455 E9.05181
G1 X105.378 Y113.182 E9.25877
G1 X104.874 Y112.937 E9.46781
G1 X104.334 Y112.714 E9.68574
G1 X103.825 Y112.537 E9.88676
G1 X103.263 Y112.379 E10.10452
G1 X102.703 Y112.257 E10.31831
G1 X102.099 Y112.163 E10.54633
G1 X101.582 Y112.119 E10.73987
G1 X101.014 Y112.101 E10.95186
G1 X100.435 Y112.118 E11.16793
G1 X99.915 Y112.165 E11.36269
G1 X99.308 Y112.254 E11.59153
G1 X98.748 Y112.375 E11.80524
G1 X98.189 Y112.53 E12.02163
G1 X97.68 Y112.709 E12.22289
G1 X97.155 Y112.924 E12.43451
G1 X96.63 Y113.179 E12.65223
G1 X96.135 Y113.457 E12.864
G1 X95.67 Y113.758 E13.07062
G1 X95.218 Y114.091 E13.28004
G1 X94.776 Y114.459 E13.49458
G1 X94.352 Y114.856 E13.71125
G1 X93.974 Y115.259 E13.91736
G1 X93.608 Y115.696 E14.12998
G1 X93.262 Y116.164 E14.34709
G1 X92.955 Y116.639 E14.55806
G1 X92.682 Y117.122 E14.76501
G1 X92.437 Y117.627 E14.97439
G1 X92.212 Y118.17 E15.19364
G1 X92.037 Y118.675 E15.393
G1 X91.879 Y119.237 E15.61077
G1 X91.757 Y119.797 E15.82456
G1 X91.663 Y120.401 E16.05257
G1 X91.619 Y120.918 E16.24612
G1 X91.601 Y121.488 E16.45885
G1 X91.618 Y122.065 E16.67417
G1 X91.665 Y122.585 E16.86893
G1 X91.754 Y123.194 E17.09851
G1 X91.873 Y123.747 E17.30952
G1 X92.03 Y124.311 E17.5279
G1 X92.207 Y124.816 E17.72751
G1 X92.424 Y125.344 E17.94045
G1 X92.678 Y125.868 E18.15766
G1 X92.955 Y126.361 E18.3686
G1 X93.255 Y126.825 E18.57471
G1 X93.591 Y127.282 E18.78629
G1 X93.956 Y127.72 E18.99897
G1 X94.352 Y128.144 E19.21538
G1 X94.757 Y128.525 E19.4228
G1 X95.194 Y128.891 E19.63543
G1 X95.658 Y129.234 E19.85067
G1 X96.136 Y129.543 E20.06298
G1 X96.618 Y129.816 E20.26961
G1 X97.127 Y130.063 E20.48065
G1 X97.666 Y130.286 E20.69824
G1 X98.175 Y130.463 E20.89926
G1 X98.737 Y130.621 E21.11702
G1 X99.297 Y130.743 E21.33081
G1 X99.901 Y130.837 E21.55883
G1 X100.418 Y130.881 E21.75238
G1 X100.986 Y130.899 E21.96436
G1 X101.565 Y130.882 E22.18043
G0 F6000 X101.589 Y131.282
;TYPE:WALL-OUTER
G1 F1800 X102.132 Y131.233 E22.3838
G1 X102.764 Y131.14 E22.62209
G1 X103.348 Y131.013 E22.84502
G1 X103.931 Y130.852 E23.07064
G1 X104.462 Y130.665 E23.28063
G1 X105.008 Y130.441 E23.50077
G1 X105.556 Y130.176 E23.72784
G1 X106.072 Y129.885 E23.94881
G1 X106.558 Y129.571 E24.16465
G1 X107.029 Y129.224 E24.38287
G1 X107.489 Y128.841 E24.60615
G1 X107.931 Y128.427 E24.83205
G1 X108.326 Y128.007 E25.04712
G1 X108.706 Y127.552 E25.26825
G1 X109.067 Y127.064 E25.49468
G1 X109.387 Y126.568 E25.71486
G1 X109.672 Y126.064 E25.93084
G1 X109.928 Y125.537 E26.14939
G1 X110.162 Y124.972 E26.3775
G1 X110.345 Y124.445 E26.5856
G1 X110.509 Y123.86 E26.81223
G1 X110.637 Y123.277 E27.03488
G1 X110.735 Y122.647 E27.27271
G1 X110.781 Y122.105 E27.47561
G1 X110.799 Y121.512 E27.69691
G1 X110.782 Y120.905 E27.92342
G1 X110.733 Y120.368 E28.12457
G1 X110.64 Y119.734 E28.36359
G1 X110.513 Y119.152 E28.5858
G1 X110.352 Y118.569 E28.81141
G1 X110.166 Y118.038 E29.02128
G1 X109.94 Y117.489 E29.24274
G1 X109.676 Y116.944 E29.46863
G1 X109.385 Y116.428 E29.68961
G1 X109.071 Y115.942 E29.90544
G1 X108.724 Y115.471 E30.12367
G1 X108.341 Y115.011 E30.34695
G1 X107.927 Y114.569 E30.57285
G1 X107.507 Y114.174 E30.78792
G1 X107.052 Y113.794 E31.00905
G1 X106.564 Y113.433 E31.23548
G1 X106.068 Y113.113 E31.45566
G1 X105.564 Y112.828 E31.67164
G1 X105.038 Y112.572 E31.88985
G1 X104.476 Y112.34 E32.11665
G1 X103.945 Y112.155 E32.3264
G1 X103.36 Y111.991 E32.55303
G1 X102.777 Y111.863 E32.77568
G1 X102.147 Y111.765 E33.0135
G1 X101.605 Y111.719 E33.21641
G1 X101.014 Y111.701 E33.43696
G1 X100.411 Y111.718 E33.66198
G1 X99.868 Y111.767 E33.86536
G1 X99.236 Y111.86 E34.10364
G1 X98.652 Y111.987 E34.32658
G1 X98.069 Y112.148 E34.55219
G1 X97.538 Y112.335 E34.76219
G1 X96.992 Y112.559 E34.98233
G1 X96.444 Y112.824 E35.20939
G1 X95.928 Y113.115 E35.43037
G1 X95.442 Y113.429 E35.6462
G1 X94.971 Y113.776 E35.86442
G1 X94.511 Y114.159 E36.0877
G1 X94.069 Y114.573 E36.31361
G1 X93.674 Y114.993 E36.52868
G1 X93.294 Y115.448 E36.74981
G1 X92.933 Y115.936 E36.97623
G1 X92.613 Y116.432 E37.19641
G1 X92.328 Y116.936 E37.41239
G1 X92.072 Y117.463 E37.63094
G1 X91.838 Y118.028 E37.85906
G1 X91.655 Y118.555 E38.06715
G1 X91.491 Y119.14 E38.29378
G1 X91.363 Y119.723 E38.51643
G1 X91.265 Y120.353 E38.75426
G1 X91.219 Y120.895 E38.95716
G1 X91.201 Y121.488 E39.17847
G1 X91.218 Y122.089 E39.40274
G1 X91.267 Y122.632 E39.60611
G1 X91.36 Y123.265 E39.84477
G1 X91.485 Y123.843 E40.06536
G1 X91.648 Y124.431 E40.29297
G1 X91.833 Y124.958 E40.50131
G1 X92.059 Y125.508 E40.72311
G1 X92.323 Y126.054 E40.94934
G1 X92.613 Y126.568 E41.16948
G1 X92.925 Y127.052 E41.38429
G1 X93.276 Y127.528 E41.6049
G1 X93.656 Y127.985 E41.8266
G1 X94.069 Y128.427 E42.05225
G1 X94.491 Y128.824 E42.26837
G1 X94.946 Y129.205 E42.48974
G1 X95.43 Y129.563 E42.7143
G1 X95.928 Y129.885 E42.93552
G1 X96.432 Y130.17 E43.15149
G1 X96.963 Y130.428 E43.37171
G1 X97.524 Y130.66 E43.59816
G1 X98.055 Y130.845 E43.80791
G1 X98.64 Y131.009 E44.03454
G1 X99.223 Y131.137 E44.25719
G1 X99.853 Y131.235 E44.49502
G1 X100.395 Y131.281 E44.69792
G1 X100.986 Y131.299 E44.91848
G1 X101.589 Y131.282 E45.1435
G0 F6000 X101.788 Y131.265
G1 F1500 E44.1435
G1 F600 Z1.3
G0 F6000 X92.493 Y124.606 Z1.3
;TYPE:FILL
G1 F600 Z0.3
G1 F1500 E45.29893
G1 F2400 X97.89 Y130.002 E48.14574
G1 X97.596 Y129.888 E48.26336
G1 X109.405 Y118.079 E54.49295
G1 X109.017 Y117.281 E54.82394
G1 X108.755 Y116.817 E55.02271
G1 X108.458 Y116.358 E55.22664
G1 X108.137 Y115.923 E55.4283
G1 X107.782 Y115.496 E55.63544
G1 X107.398 Y115.088 E55.84444
G1 X107.021 Y114.732 E56.03785
G1 X106.59 Y114.373 E56.24709
G1 X106.141 Y114.042 E56.45517
G1 X105.682 Y113.745 E56.6591
G1 X105.214 Y113.48 E56.85972
G1 X104.42 Y113.094 E57.18904
G1 X92.601 Y124.913 E63.42391
G1 X92.353 Y124.203 E63.70444
G1 X92.224 Y123.737 E63.88481
G1 X98.76 Y130.273 E67.33274
G1 X99.353 Y130.408 E67.5596
G1 X100.145 Y130.532 E67.85863
G1 X100.986 Y130.559 E68.1725
G1 X101.788 Y130.536 E68.47178
G1 X102.638 Y130.41 E68.79231
G1 X103.165 Y130.295 E68.99352
G1 X103.708 Y130.145 E69.20366
G1 X104.204 Y129.971 E69.39973
G1 X104.707 Y129.765 E69.60248
G1 X105.219 Y129.517 E69.81469
G1 X105.692 Y129.249 E70.01748
G1 X106.143 Y128.958 E70.2177
G1 X106.568 Y128.645 E70.41458
G1 X107.004 Y128.282 E70.62621
G1 X107.412 Y127.898 E70.83521
G1 X107.768 Y127.521 E71.02863
G1 X108.127 Y127.09 E71.23786
G1 X108.457 Y126.643 E71.44512
G1 X108.757 Y126.179 E71.65123
G1 X109.018 Y125.717 E71.84916
G1 X109.256 Y125.228 E72.05202
G1 X109.472 Y124.704 E72.26344
G1 X109.636 Y124.229 E72.45089
G1 X109.792 Y123.675 E72.66558
G1 X109.908 Y123.146 E72.86759
G1 X110.032 Y122.354 E73.16662
G1 X110.059 Y121.506 E73.4831
G1 X110.036 Y120.714 E73.77866
G1 X109.91 Y119.86 E74.10067
G1 X109.797 Y119.336 E74.30062
G1 X109.543 Y118.428 E74.65233
G1 X104.078 Y112.963 E77.53527
G1 X103.24 Y112.725 E77.86023
G1 X109.776 Y119.261 E81.30816
G1 X109.846 Y119.331
G1 F1500 E80.30816
G1 F600 Z1.3
;MESH:NONMESH
G0 F6000 X101.565 Y130.882 Z1.3
;TIME_ELAPSED:12.573904
;LAYER:1
;MESH:Sajad.stl
G0 X101.565 Y130.882 Z1.6
;TYPE:WALL-INNER
G1 F600 Z0.6
G1 F1500 E81.46358
G1 F1800 X102.085 Y130.835 E81.65834
G1 X102.692 Y130.746 E81.88719
G1 X103.252 Y130.625 E82.1009
G1 X103.825 Y130.466 E82.32271
G1 X104.333 Y130.287 E82.52363
G1 X104.861 Y130.069 E82.73671
G1 X105.37 Y129.823 E82.94759
G1 X105.865 Y129.543 E83.15973
G1 X106.342 Y129.234 E83.37173
G1 X106.794 Y128.9 E83.58137
G1 X107.234 Y128.532 E83.79534
G1 X107.648 Y128.144 E84.00699
G1 X108.036 Y127.731 E84.21836
G1 X108.4 Y127.294 E84.43052
G1 X108.738 Y126.836 E84.64284
G1 X109.045 Y126.361 E84.85381
G1 X109.325 Y125.866 E85.06595
G1 X109.569 Y125.361 E85.27516
G1 X109.788 Y124.831 E85.48908
G1 X109.963 Y124.325 E85.68879
G1 X110.127 Y123.745 E85.91363
G1 X110.246 Y123.192 E86.12463
G1 X110.339 Y122.585 E86.35369
G1 X110.382 Y122.067 E86.54758
G1 X110.399 Y121.498 E86.75993
G1 X110.382 Y120.93 E86.97189
G1 X110.335 Y120.415 E87.1648
G1 X110.246 Y119.806 E87.39438
G1 X110.125 Y119.248 E87.60736
G1 X109.966 Y118.675 E87.82918
G1 X109.787 Y118.167 E88.03009
G1 X109.569 Y117.639 E88.24317
G1 X109.323 Y117.13 E88.45405
G1 X109.043 Y116.635 E88.66619
G1 X108.734 Y116.158 E88.87819
G1 X108.4 Y115.706 E89.08783
G1 X108.032 Y115.266 E89.3018
G1 X107.644 Y114.852 E89.51345
G1 X107.231 Y114.464 E89.72483
G1 X106.794 Y114.1 E89.93698
G1 X106.336 Y113.762 E90.14931
G1 X105.861 Y113.455 E90.36028
G1 X105.366 Y113.175 E90.57242
G1 X104.861 Y112.931 E90.78163
G1 X104.335 Y112.714 E90.99388
G1 X103.825 Y112.537 E91.19525
G1 X103.25 Y112.375 E91.41808
G1 X102.69 Y112.254 E91.6318
G1 X102.085 Y112.161 E91.86012
G1 X101.567 Y112.118 E92.05401
G1 X101 Y112.101 E92.26561
G1 X100.435 Y112.118 E92.47646
G1 X99.915 Y112.165 E92.67122
G1 X99.308 Y112.254 E92.90006
G1 X98.748 Y112.375 E93.11378
G1 X98.175 Y112.534 E93.33559
G1 X97.667 Y112.713 E93.53651
G1 X97.139 Y112.931 E93.74959
G1 X96.63 Y113.177 E93.96047
G1 X96.135 Y113.457 E94.1726
G1 X95.658 Y113.766 E94.38461
G1 X95.206 Y114.1 E94.59425
G1 X94.766 Y114.468 E94.80821
G1 X94.352 Y114.856 E95.01986
G1 X93.964 Y115.269 E95.23124
G1 X93.6 Y115.706 E95.44339
G1 X93.262 Y116.164 E95.65572
G1 X92.955 Y116.639 E95.86669
G1 X92.675 Y117.134 E96.07883
G1 X92.431 Y117.639 E96.28804
G1 X92.212 Y118.169 E96.50195
G1 X92.037 Y118.675 E96.70167
G1 X91.873 Y119.255 E96.92651
G1 X91.754 Y119.808 E97.13751
G1 X91.661 Y120.415 E97.36657
G1 X91.618 Y120.933 E97.56046
G1 X91.601 Y121.501 E97.77243
G1 X91.618 Y122.065 E97.98291
G1 X91.665 Y122.585 E98.17767
G1 X91.754 Y123.194 E98.40725
G1 X91.873 Y123.747 E98.61825
G1 X92.034 Y124.325 E98.84207
G1 X92.211 Y124.829 E99.04133
G1 X92.431 Y125.361 E99.25607
G1 X92.675 Y125.866 E99.46528
G1 X92.955 Y126.361 E99.67742
G1 X93.262 Y126.836 E99.88839
G1 X93.6 Y127.294 E100.10072
G1 X93.964 Y127.731 E100.31287
G1 X94.352 Y128.144 E100.52425
G1 X94.766 Y128.532 E100.7359
G1 X95.206 Y128.9 E100.94986
G1 X95.658 Y129.234 E101.15951
G1 X96.136 Y129.543 E101.37182
G1 X96.63 Y129.823 E101.58363
G1 X97.139 Y130.069 E101.79451
G1 X97.665 Y130.286 E102.00676
G1 X98.175 Y130.463 E102.20813
G1 X98.75 Y130.625 E102.43097
G1 X99.31 Y130.746 E102.64468
G1 X99.915 Y130.839 E102.87301
G1 X100.433 Y130.882 E103.0669
G1 X101 Y130.899 E103.27849
G1 X101.565 Y130.882 E103.48935
G0 F6000 X101.589 Y131.282
;TYPE:WALL-OUTER
G1 F1800 X102.132 Y131.233 E103.69272
G1 X102.764 Y131.14 E103.93101
G1 X103.348 Y131.013 E104.15394
G1 X103.945 Y130.848 E104.38498
G1 X104.476 Y130.661 E104.59498
G1 X105.025 Y130.434 E104.81658
G1 X105.556 Y130.177 E105.03664
G1 X106.072 Y129.885 E105.2578
G1 X106.57 Y129.563 E105.47901
G1 X107.041 Y129.215 E105.69745
G1 X107.5 Y128.832 E105.92045
G1 X107.931 Y128.427 E106.14106
G1 X108.336 Y127.996 E106.36167
G1 X108.715 Y127.541 E106.58256
G1 X109.067 Y127.064 E106.8037
G1 X109.387 Y126.568 E107.02388
G1 X109.679 Y126.052 E107.24504
G1 X109.934 Y125.525 E107.46342
G1 X110.162 Y124.973 E107.6862
G1 X110.345 Y124.445 E107.89465
G1 X110.515 Y123.842 E108.12835
G1 X110.64 Y123.264 E108.34894
G1 X110.737 Y122.632 E108.58745
G1 X110.782 Y122.089 E108.79069
G1 X110.799 Y121.498 E109.01124
G1 X110.782 Y120.906 E109.23216
G1 X110.733 Y120.368 E109.43367
G1 X110.64 Y119.734 E109.6727
G1 X110.513 Y119.152 E109.8949
G1 X110.348 Y118.555 E110.12594
G1 X110.161 Y118.024 E110.33594
G1 X109.934 Y117.475 E110.55754
G1 X109.677 Y116.944 E110.7776
G1 X109.385 Y116.428 E110.99876
G1 X109.063 Y115.93 E111.21997
G1 X108.715 Y115.459 E111.43842
G1 X108.332 Y115 E111.66141
G1 X107.927 Y114.569 E111.88202
G1 X107.496 Y114.164 E112.10264
G1 X107.041 Y113.785 E112.32353
G1 X106.564 Y113.433 E112.54466
G1 X106.068 Y113.113 E112.76484
G1 X105.552 Y112.821 E112.986
G1 X105.025 Y112.566 E113.20439
G1 X104.477 Y112.34 E113.4255
G1 X103.945 Y112.155 E113.6356
G1 X103.347 Y111.987 E113.86731
G1 X102.763 Y111.86 E114.09024
G1 X102.132 Y111.763 E114.32838
G1 X101.589 Y111.718 E114.53162
G1 X101 Y111.701 E114.75142
G1 X100.411 Y111.718 E114.97122
G1 X99.868 Y111.767 E115.1746
G1 X99.236 Y111.86 E115.41288
G1 X98.652 Y111.987 E115.63582
G1 X98.055 Y112.152 E115.86686
G1 X97.524 Y112.339 E116.07686
G1 X96.975 Y112.566 E116.29846
G1 X96.444 Y112.823 E116.51851
G1 X95.928 Y113.115 E116.73967
G1 X95.43 Y113.437 E116.96089
G1 X94.959 Y113.785 E117.17933
G1 X94.5 Y114.168 E117.40232
G1 X94.069 Y114.573 E117.62294
G1 X93.664 Y115.004 E117.84355
G1 X93.285 Y115.459 E118.06444
G1 X92.933 Y115.936 E118.28558
G1 X92.613 Y116.432 E118.50576
G1 X92.321 Y116.948 E118.72692
G1 X92.066 Y117.475 E118.9453
G1 X91.838 Y118.027 E119.16808
G1 X91.655 Y118.555 E119.37653
G1 X91.485 Y119.158 E119.61023
G1 X91.36 Y119.736 E119.83082
G1 X91.263 Y120.368 E120.06933
G1 X91.218 Y120.911 E120.27257
G1 X91.201 Y121.501 E120.49274
G1 X91.218 Y122.089 E120.71217
G1 X91.267 Y122.632 E120.91554
G1 X91.36 Y123.265 E121.1542
G1 X91.485 Y123.843 E121.37479
G1 X91.652 Y124.445 E121.60783
G1 X91.837 Y124.972 E121.81617
G1 X92.066 Y125.525 E122.03944
G1 X92.321 Y126.052 E122.25782
G1 X92.613 Y126.568 E122.47898
G1 X92.933 Y127.064 E122.69916
G1 X93.285 Y127.541 E122.92029
G1 X93.664 Y127.996 E123.14119
G1 X94.069 Y128.427 E123.3618
G1 X94.5 Y128.832 E123.58241
G1 X94.959 Y129.215 E123.80541
G1 X95.43 Y129.563 E124.02385
G1 X95.928 Y129.885 E124.24506
G1 X96.444 Y130.177 E124.46622
G1 X96.975 Y130.434 E124.68628
G1 X97.523 Y130.66 E124.90739
G1 X98.055 Y130.845 E125.1175
G1 X98.653 Y131.013 E125.3492
G1 X99.237 Y131.14 E125.57213
G1 X99.868 Y131.237 E125.81027
G1 X100.411 Y131.282 E126.01352
G1 X101 Y131.299 E126.23332
G1 X101.589 Y131.282 E126.45312
G0 F6000 X101.788 Y131.265
G1 F1500 E125.45312
G1 F600 Z1.6
G0 F6000 X104.607 Y129.805 Z1.6
;TYPE:FILL
G1 F600 Z0.6
G1 F1500 E126.60854
G1 F2400 X109.305 Y125.107 E129.08687
G1 X109.261 Y125.217 E129.13106
G1 X109.021 Y125.711 E129.33593
G1 X108.757 Y126.179 E129.53637
G1 X108.457 Y126.644 E129.74279
G1 X108.136 Y127.079 E129.94445
G1 X107.781 Y127.506 E130.15158
G1 X107.407 Y127.903 E130.35504
G1 X107.014 Y128.273 E130.55638
G1 X106.583 Y128.633 E130.76586
G1 X106.149 Y128.953 E130.96699
G1 X105.683 Y129.255 E131.17413
G1 X105.218 Y129.518 E131.37341
G1 X104.723 Y129.758 E131.57861
G1 X104.191 Y129.975 E131.79293
