;FLAVOR:Marlin
;TIME:491
;Filament used: 4.73529m, 0m
;Layer height: 0.3
;MINX:91.201
;MINY:111.701
;MINZ:0.3
;MAXX:110.799
;MAXY:131.299
;MAXZ:7
;Generated with Cura_SteamEngine 5.0.1
T0
M140 S40
M105
M190 S40
M104 S200
M105
M109 S200
M82 ;absolute extrusion mode
M900 K0.020;
G28 ; home all axes
G1 Z5 F5000 ; lift nozzle
G1 X-45 Y70 F2500; go to glycerin roller;
G92 E0
G1 X-23 F5000; park to start
G92 E0; Extrude a small amount to clear nozzle
G1 E20 F4000
G4 P2000
G92 E0


G92 E0
G1 F1500 E-1
;LAYER_COUNT:20
;LAYER:0
M107
M204 S500
G1 F600 Z1.3
;MESH:Sajad.stl
G0 F6000 X101.565 Y130.882 Z1.3
;TYPE:WALL-INNER
G1 F600 Z0.3
G1 F1500 E0.15542
G1 F1800 X102.085 Y130.835 E0.35019
G1 X102.692 Y130.746 E0.57903
G1 X103.252 Y130.625 E0.79274
G1 X103.811 Y130.47 E1.00913
G1 X104.32 Y130.291 E1.21039
G1 X104.845 Y130.075 E1.42215
G1 X105.37 Y129.821 E1.6397
G1 X105.865 Y129.543 E1.85148
G1 X106.33 Y129.242 E2.0581
G1 X106.782 Y128.909 E2.26752
G1 X107.224 Y128.541 E2.48206
G1 X107.648 Y128.144 E2.69873
G1 X108.026 Y127.741 E2.90483
G1 X108.392 Y127.304 E3.11746
G1 X108.738 Y126.836 E3.33456
G1 X109.045 Y126.361 E3.54553
G1 X109.318 Y125.878 E3.75249
G1 X109.563 Y125.373 E3.96186
G1 X109.788 Y124.83 E4.18111
G1 X109.963 Y124.325 E4.38048
G1 X110.121 Y123.763 E4.59824
G1 X110.243 Y123.203 E4.81203
G1 X110.337 Y122.599 E5.04005
G1 X110.381 Y122.082 E5.2336
G1 X110.399 Y121.512 E5.44632
G1 X110.382 Y120.929 E5.66389
G1 X110.335 Y120.415 E5.85642
G1 X110.246 Y119.806 E6.086
G1 X110.125 Y119.248 E6.29898
G1 X109.97 Y118.689 E6.51537
G1 X109.792 Y118.18 E6.71651
G1 X109.574 Y117.653 E6.92925
G1 X109.322 Y117.13 E7.1458
G1 X109.043 Y116.635 E7.35775
G1 X108.742 Y116.17 E7.56438
G1 X108.409 Y115.718 E7.7738
G1 X108.041 Y115.276 E7.98834
G1 X107.644 Y114.852 E8.205
G1 X107.241 Y114.474 E8.41111
G1 X106.804 Y114.108 E8.62374
G1 X106.336 Y113.762 E8.84084
G1 X105.861 Y113.455 E9.05181
G1 X105.378 Y113.182 E9.25877
G1 X104.874 Y112.937 E9.46781
G1 X104.334 Y112.714 E9.68574
G1 X103.825 Y112.537 E9.88676
G1 X103.263 Y112.379 E10.10452
G1 X102.703 Y112.257 E10.31831
G1 X102.099 Y112.163 E10.54633
G1 X101.582 Y112.119 E10.73987
G1 X101.014 Y112.101 E10.95186
G1 X100.435 Y112.118 E11.16793
G1 X99.915 Y112.165 E11.36269
G1 X99.308 Y112.254 E11.59153
G1 X98.748 Y112.375 E11.80524
G1 X98.189 Y112.53 E12.02163
G1 X97.68 Y112.709 E12.22289
G1 X97.155 Y112.924 E12.43451
G1 X96.63 Y113.179 E12.65223
G1 X96.135 Y113.457 E12.864
G1 X95.67 Y113.758 E13.07062
G1 X95.218 Y114.091 E13.28004
G1 X94.776 Y114.459 E13.49458
G1 X94.352 Y114.856 E13.71125
G1 X93.974 Y115.259 E13.91736
G1 X93.608 Y115.696 E14.12998
G1 X93.262 Y116.164 E14.34709
G1 X92.955 Y116.639 E14.55806
G1 X92.682 Y117.122 E14.76501
G1 X92.437 Y117.627 E14.97439
G1 X92.212 Y118.17 E15.19364
G1 X92.037 Y118.675 E15.393
G1 X91.879 Y119.237 E15.61077
G1 X91.757 Y119.797 E15.82456
G1 X91.663 Y120.401 E16.05257
G1 X91.619 Y120.918 E16.24612
G1 X91.601 Y121.488 E16.45885
G1 X91.618 Y122.065 E16.67417
G1 X91.665 Y122.585 E16.86893
G1 X91.754 Y123.194 E17.09851
G1 X91.873 Y123.747 E17.30952
G1 X92.03 Y124.311 E17.5279
G1 X92.207 Y124.816 E17.72751
G1 X92.424 Y125.344 E17.94045
G1 X92.678 Y125.868 E18.15766
G1 X92.955 Y126.361 E18.3686
G1 X93.255 Y126.825 E18.57471
G1 X93.591 Y127.282 E18.78629
G1 X93.956 Y127.72 E18.99897
G1 X94.352 Y128.144 E19.21538
G1 X94.757 Y128.525 E19.4228
G1 X95.194 Y128.891 E19.63543
G1 X95.658 Y129.234 E19.85067
G1 X96.136 Y129.543 E20.06298
G1 X96.618 Y129.816 E20.26961
G1 X97.127 Y130.063 E20.48065
G1 X97.666 Y130.286 E20.69824
G1 X98.175 Y130.463 E20.89926
G1 X98.737 Y130.621 E21.11702
G1 X99.297 Y130.743 E21.33081
G1 X99.901 Y130.837 E21.55883
G1 X100.418 Y130.881 E21.75238
G1 X100.986 Y130.899 E21.96436
G1 X101.565 Y130.882 E22.18043
G0 F6000 X101.589 Y131.282
;TYPE:WALL-OUTER
G1 F1800 X102.132 Y131.233 E22.3838
G1 X102.764 Y131.14 E22.62209
G1 X103.348 Y131.013 E22.84502
G1 X103.931 Y130.852 E23.07064
G1 X104.462 Y130.665 E23.28063
G1 X105.008 Y130.441 E23.50077
G1 X105.556 Y130.176 E23.72784
G1 X106.072 Y129.885 E23.94881
G1 X106.558 Y129.571 E24.16465
G1 X107.029 Y129.224 E24.38287
G1 X107.489 Y128.841 E24.60615
G1 X107.931 Y128.427 E24.83205
G1 X108.326 Y128.007 E25.04712
G1 X108.706 Y127.552 E25.26825
G1 X109.067 Y127.064 E25.49468
G1 X109.387 Y126.568 E25.71486
G1 X109.672 Y126.064 E25.93084
G1 X109.928 Y125.537 E26.14939
G1 X110.162 Y124.972 E26.3775
G1 X110.345 Y124.445 E26.5856
G1 X110.509 Y123.86 E26.81223
G1 X110.637 Y123.277 E27.03488
G1 X110.735 Y122.647 E27.27271
G1 X110.781 Y122.105 E27.47561
G1 X110.799 Y121.512 E27.69691
G1 X110.782 Y120.905 E27.92342
G1 X110.733 Y120.368 E28.12457
G1 X110.64 Y119.734 E28.36359
G1 X110.513 Y119.152 E28.5858
G1 X110.352 Y118.569 E28.81141
G1 X110.166 Y118.038 E29.02128
G1 X109.94 Y117.489 E29.24274
G1 X109.676 Y116.944 E29.46863
G1 X109.385 Y116.428 E29.68961
G1 X109.071 Y115.942 E29.90544
G1 X108.724 Y115.471 E30.12367
G1 X108.341 Y115.011 E30.34695
G1 X107.927 Y114.569 E30.57285
G1 X107.507 Y114.174 E30.78792
G1 X107.052 Y113.794 E31.00905
G1 X106.564 Y113.433 E31.23548
G1 X106.068 Y113.113 E31.45566
G1 X105.564 Y112.828 E31.67164
G1 X105.038 Y112.572 E31.88985
G1 X104.476 Y112.34 E32.11665
G1 X103.945 Y112.155 E32.3264
G1 X103.36 Y111.991 E32.55303
G1 X102.777 Y111.863 E32.77568
G1 X102.147 Y111.765 E33.0135
G1 X101.605 Y111.719 E33.21641
G1 X101.014 Y111.701 E33.43696
G1 X100.411 Y111.718 E33.66198
G1 X99.868 Y111.767 E33.86536
G1 X99.236 Y111.86 E34.10364
G1 X98.652 Y111.987 E34.32658
G1 X98.069 Y112.148 E34.55219
G1 X97.538 Y112.335 E34.76219
G1 X96.992 Y112.559 E34.98233
G1 X96.444 Y112.824 E35.20939
G1 X95.928 Y113.115 E35.43037
G1 X95.442 Y113.429 E35.6462
G1 X94.971 Y113.776 E35.86442
G1 X94.511 Y114.159 E36.0877
G1 X94.069 Y114.573 E36.31361
G1 X93.674 Y114.993 E36.52868
G1 X93.294 Y115.448 E36.74981
G1 X92.933 Y115.936 E36.97623
G1 X92.613 Y116.432 E37.19641
G1 X92.328 Y116.936 E37.41239
G1 X92.072 Y117.463 E37.63094
G1 X91.838 Y118.028 E37.85906
G1 X91.655 Y118.555 E38.06715
G1 X91.491 Y119.14 E38.29378
G1 X91.363 Y119.723 E38.51643
G1 X91.265 Y120.353 E38.75426
G1 X91.219 Y120.895 E38.95716
G1 X91.201 Y121.488 E39.17847
G1 X91.218 Y122.089 E39.40274
G1 X91.267 Y122.632 E39.60611
G1 X91.36 Y123.265 E39.84477
G1 X91.485 Y123.843 E40.06536
G1 X91.648 Y124.431 E40.29297
G1 X91.833 Y124.958 E40.50131
G1 X92.059 Y125.508 E40.72311
G1 X92.323 Y126.054 E40.94934
G1 X92.613 Y126.568 E41.16948
G1 X92.925 Y127.052 E41.38429
G1 X93.276 Y127.528 E41.6049
G1 X93.656 Y127.985 E41.8266
G1 X94.069 Y128.427 E42.05225
G1 X94.491 Y128.824 E42.26837
G1 X94.946 Y129.205 E42.48974
G1 X95.43 Y129.563 E42.7143
G1 X95.928 Y129.885 E42.93552
G1 X96.432 Y130.17 E43.15149
G1 X96.963 Y130.428 E43.37171
G1 X97.524 Y130.66 E43.59816
G1 X98.055 Y130.845 E43.80791
G1 X98.64 Y131.009 E44.03454
G1 X99.223 Y131.137 E44.25719
G1 X99.853 Y131.235 E44.49502
G1 X100.395 Y131.281 E44.69792
G1 X100.986 Y131.299 E44.91848
G1 X101.589 Y131.282 E45.1435
G0 F6000 X101.788 Y131.265
G1 F1500 E44.1435
G1 F600 Z1.3
G0 F6000 X94.376 Y127.671 Z1.3
;TYPE:FILL
G1 F600 Z0.3
G1 F1500 E45.29893
G1 F2400 X98.351 Y112.837 E51.02751
G1 X98.965 Y112.676 E51.26429
G1 X109.823 Y123.534 E56.9922
G1 X109.657 Y124.148 E57.22946
G1 X94.804 Y128.128 E62.96538
G1 X94.212 Y127.496 E63.2884
G1 X93.624 Y126.788 E63.6317
G1 X110.031 Y122.391 E69.9678
G1 X110.059 Y121.507 E70.29771
G1 X100.993 Y112.441 E75.08029
G1 X100.107 Y112.467 E75.41093
G1 X95.713 Y128.864 E81.74313
G1 X96.453 Y129.343 E82.07195
G1 X108.873 Y126.015 E86.86829
G1 X109.255 Y125.229 E87.19427
G1 X97.271 Y113.245 E93.51618
G1 X96.483 Y113.628 E93.843
G1 X93.159 Y126.031 E98.63283
G1 X92.804 Y125.351 E98.91897
G1 X110.035 Y120.734 E105.5732
G1 X109.91 Y119.86 E105.90253
G1 X109.825 Y119.471 E106.05106
G1 X107.629 Y127.666 E109.21581
G1 X107.768 Y127.521 E109.29073
G1 X108.127 Y127.09 E109.49997
G1 X108.435 Y126.671 E109.69395
G1 X95.827 Y114.064 E116.34477
G1 X95.432 Y114.355 E116.52778
G1 X94.996 Y114.718 E116.73941
G1 X94.834 Y114.869 E116.82202
G1 X103.024 Y112.674 E119.98486
G1 X102.647 Y112.592 E120.12878
G1 X101.766 Y112.454 E120.46142
G1 X97.145 Y129.702 E127.12216
G1 X97.782 Y129.966 E127.37937
G1 X98.342 Y130.155 E127.59984
G1 X92.338 Y124.151 E130.76712
G1 X92.252 Y123.843 E130.88641
G1 X109.747 Y119.155 E137.64262
G1 X109.66 Y118.845 E137.76272
G1 X103.658 Y112.843 E140.92895
G1 X103.343 Y112.755 E141.05095
G1 X98.657 Y130.243 E147.80444
G1 X98.972 Y130.324 E147.92577
G1 X107.164 Y128.129 E151.08933
G1 X107.404 Y127.903 E151.2123
G1 X94.596 Y115.095 E157.9689
G1 X94.37 Y115.33 E158.09051
G1 X92.174 Y123.528 E161.25634
G1 X92.089 Y123.134 E161.40669
G1 X91.962 Y122.264 E161.73466
G1 X109.195 Y117.646 E168.38971
G1 X108.839 Y116.968 E168.67536
G1 X105.518 Y129.364 E173.46237
G1 X106.172 Y128.934 E173.75433
G1 X93.565 Y116.326 E180.40516
G1 X93.14 Y116.979 E180.69579
G1 X105.532 Y113.659 E185.48126
G1 X104.852 Y113.304 E185.7674
G1 X100.235 Y130.534 E192.42127
G1 X101.008 Y130.558 E192.70976
G1 X91.94 Y121.49 E197.49339
G1 X91.973 Y120.604 E197.82411
G1 X108.375 Y116.21 E204.15812
G1 X107.628 Y115.31 E204.59441
G1 X103.648 Y130.161 E210.32961
G1 X104.204 Y129.971 E210.54878
G1 X104.728 Y129.753 E210.76049
G1 X92.744 Y117.769 E217.08239
G1 X92.528 Y118.296 E217.29485
G1 X92.364 Y118.771 E217.48229
G1 X92.171 Y119.458 E217.74848
G1 X103.034 Y130.321 E223.47903
G1 X102.638 Y130.41 E223.63043
G1 X101.895 Y130.519 E223.91055
G1 X106.289 Y114.123 E230.24239
G1 X107.188 Y114.871 E230.67863
G1 X92.341 Y118.85 E236.41229
G1 X92.245 Y118.875
G1 F1500 E235.41229
G1 F600 Z1.3
;MESH:NONMESH
G0 F6000 X101.565 Y130.882 Z1.3
;TIME_ELAPSED:27.393436
;LAYER:1
;MESH:Sajad.stl
G0 X101.565 Y130.882 Z1.6
;TYPE:WALL-INNER
G1 F600 Z0.6
G1 F1500 E236.56772
G1 F1800 X102.085 Y130.835 E236.76248
G1 X102.692 Y130.746 E236.99132
G1 X103.252 Y130.625 E237.20503
G1 X103.825 Y130.466 E237.42685
G1 X104.333 Y130.287 E237.62776
G1 X104.861 Y130.069 E237.84085
G1 X105.37 Y129.823 E238.05172
G1 X105.865 Y129.543 E238.26386
G1 X106.342 Y129.234 E238.47586
G1 X106.794 Y128.9 E238.68551
G1 X107.234 Y128.532 E238.89947
G1 X107.648 Y128.144 E239.11112
G1 X108.036 Y127.731 E239.3225
G1 X108.4 Y127.294 E239.53465
G1 X108.738 Y126.836 E239.74698
G1 X109.045 Y126.361 E239.95795
G1 X109.325 Y125.866 E240.17009
G1 X109.569 Y125.361 E240.3793
G1 X109.788 Y124.831 E240.59321
G1 X109.963 Y124.325 E240.79293
G1 X110.127 Y123.745 E241.01776
G1 X110.246 Y123.192 E241.22877
G1 X110.339 Y122.585 E241.45783
G1 X110.382 Y122.067 E241.65172
G1 X110.399 Y121.498 E241.86406
G1 X110.382 Y120.93 E242.07603
G1 X110.335 Y120.415 E242.26894
G1 X110.246 Y119.806 E242.49852
G1 X110.125 Y119.248 E242.7115
G1 X109.966 Y118.675 E242.93332
G1 X109.787 Y118.167 E243.13423
G1 X109.569 Y117.639 E243.34731
G1 X109.323 Y117.13 E243.55819
G1 X109.043 Y116.635 E243.77033
G1 X108.734 Y116.158 E243.98233
G1 X108.4 Y115.706 E244.19197
G1 X108.032 Y115.266 E244.40594
G1 X107.644 Y114.852 E244.61759
G1 X107.231 Y114.464 E244.82897
G1 X106.794 Y114.1 E245.04112
G1 X106.336 Y113.762 E245.25345
G1 X105.861 Y113.455 E245.46442
G1 X105.366 Y113.175 E245.67655
G1 X104.861 Y112.931 E245.88576
G1 X104.335 Y112.714 E246.09801
G1 X103.825 Y112.537 E246.29939
G1 X103.25 Y112.375 E246.52222
G1 X102.69 Y112.254 E246.73593
G1 X102.085 Y112.161 E246.96426
G1 X101.567 Y112.118 E247.15815
G1 X101 Y112.101 E247.36975
G1 X100.435 Y112.118 E247.5806
G1 X99.915 Y112.165 E247.77536
G1 X99.308 Y112.254 E248.0042
G1 X98.748 Y112.375 E248.21791
G1 X98.175 Y112.534 E248.43973
G1 X97.667 Y112.713 E248.64064
G1 X97.139 Y112.931 E248.85372
G1 X96.63 Y113.177 E249.0646
G1 X96.135 Y113.457 E249.27674
G1 X95.658 Y113.766 E249.48874
G1 X95.206 Y114.1 E249.69839
G1 X94.766 Y114.468 E249.91235
G1 X94.352 Y114.856 E250.124
G1 X93.964 Y115.269 E250.33538
G1 X93.6 Y115.706 E250.54753
G1 X93.262 Y116.164 E250.75986
G1 X92.955 Y116.639 E250.97083
G1 X92.675 Y117.134 E251.18297
G1 X92.431 Y117.639 E251.39218
G1 X92.212 Y118.169 E251.60609
G1 X92.037 Y118.675 E251.80581
G1 X91.873 Y119.255 E252.03064
G1 X91.754 Y119.808 E252.24164
G1 X91.661 Y120.415 E252.47071
G1 X91.618 Y120.933 E252.6646
G1 X91.601 Y121.501 E252.87657
G1 X91.618 Y122.065 E253.08705
G1 X91.665 Y122.585 E253.28181
G1 X91.754 Y123.194 E253.51139
G1 X91.873 Y123.747 E253.72239
G1 X92.034 Y124.325 E253.9462
G1 X92.211 Y124.829 E254.14546
G1 X92.431 Y125.361 E254.36021
G1 X92.675 Y125.866 E254.56942
G1 X92.955 Y126.361 E254.78156
G1 X93.262 Y126.836 E254.99253
G1 X93.6 Y127.294 E255.20486
G1 X93.964 Y127.731 E255.41701
G1 X94.352 Y128.144 E255.62838
G1 X94.766 Y128.532 E255.84004
G1 X95.206 Y128.9 E256.054
G1 X95.658 Y129.234 E256.26364
G1 X96.136 Y129.543 E256.47596
G1 X96.63 Y129.823 E256.68777
G1 X97.139 Y130.069 E256.89865
G1 X97.665 Y130.286 E257.1109
G1 X98.175 Y130.463 E257.31227
G1 X98.75 Y130.625 E257.53511
G1 X99.31 Y130.746 E257.74882
G1 X99.915 Y130.839 E257.97715
G1 X100.433 Y130.882 E258.17104
G1 X101 Y130.899 E258.38263
G1 X101.565 Y130.882 E258.59348
G0 F6000 X101.589 Y131.282
;TYPE:WALL-OUTER
G1 F1800 X102.132 Y131.233 E258.79686
G1 X102.764 Y131.14 E259.03514
G1 X103.348 Y131.013 E259.25808
G1 X103.945 Y130.848 E259.48912
G1 X104.476 Y130.661 E259.69912
G1 X105.025 Y130.434 E259.92072
G1 X105.556 Y130.177 E260.14077
G1 X106.072 Y129.885 E260.36193
G1 X106.57 Y129.563 E260.58315
G1 X107.041 Y129.215 E260.80159
G1 X107.5 Y128.832 E261.02458
G1 X107.931 Y128.427 E261.2452
G1 X108.336 Y127.996 E261.46581
G1 X108.715 Y127.541 E261.6867
G1 X109.067 Y127.064 E261.90783
G1 X109.387 Y126.568 E262.12802
G1 X109.679 Y126.052 E262.34918
G1 X109.934 Y125.525 E262.56756
G1 X110.162 Y124.973 E262.79034
G1 X110.345 Y124.445 E262.99879
G1 X110.515 Y123.842 E263.23249
G1 X110.64 Y123.264 E263.45308
G1 X110.737 Y122.632 E263.69159
G1 X110.782 Y122.089 E263.89483
G1 X110.799 Y121.498 E264.11538
G1 X110.782 Y120.906 E264.33629
G1 X110.733 Y120.368 E264.53781
G1 X110.64 Y119.734 E264.77683
G1 X110.513 Y119.152 E264.99904
G1 X110.348 Y118.555 E265.23008
G1 X110.161 Y118.024 E265.44008
G1 X109.934 Y117.475 E265.66168
G1 X109.677 Y116.944 E265.88173
G1 X109.385 Y116.428 E266.10289
G1 X109.063 Y115.93 E266.32411
G1 X108.715 Y115.459 E266.54255
G1 X108.332 Y115 E266.76555
G1 X107.927 Y114.569 E266.98616
G1 X107.496 Y114.164 E267.20677
G1 X107.041 Y113.785 E267.42766
G1 X106.564 Y113.433 E267.6488
G1 X106.068 Y113.113 E267.86898
G1 X105.552 Y112.821 E268.09014
G1 X105.025 Y112.566 E268.30852
G1 X104.477 Y112.34 E268.52964
G1 X103.945 Y112.155 E268.73974
G1 X103.347 Y111.987 E268.97144
G1 X102.763 Y111.86 E269.19438
G1 X102.132 Y111.763 E269.43252
G1 X101.589 Y111.718 E269.63576
G1 X101 Y111.701 E269.85556
G1 X100.411 Y111.718 E270.07536
G1 X99.868 Y111.767 E270.27873
G1 X99.236 Y111.86 E270.51702
G1 X98.652 Y111.987 E270.73996
G1 X98.055 Y112.152 E270.971
G1 X97.524 Y112.339 E271.18099
G1 X96.975 Y112.566 E271.4026
G1 X96.444 Y112.823 E271.62265
G1 X95.928 Y113.115 E271.84381
G1 X95.43 Y113.437 E272.06502
G1 X94.959 Y113.785 E272.28347
G1 X94.5 Y114.168 E272.50646
G1 X94.069 Y114.573 E272.72708
G1 X93.664 Y115.004 E272.94769
G1 X93.285 Y115.459 E273.16858
G1 X92.933 Y115.936 E273.38971
G1 X92.613 Y116.432 E273.60989
G1 X92.321 Y116.948 E273.83105
G1 X92.066 Y117.475 E274.04944
G1 X91.838 Y118.027 E274.27222
G1 X91.655 Y118.555 E274.48067
G1 X91.485 Y119.158 E274.71437
G1 X91.36 Y119.736 E274.93496
G1 X91.263 Y120.368 E275.17346
G1 X91.218 Y120.911 E275.37671
G1 X91.201 Y121.501 E275.59688
G1 X91.218 Y122.089 E275.81631
G1 X91.267 Y122.632 E276.01968
G1 X91.36 Y123.265 E276.25834
G1 X91.485 Y123.843 E276.47893
G1 X91.652 Y124.445 E276.71196
G1 X91.837 Y124.972 E276.92031
G1 X92.066 Y125.525 E277.14357
G1 X92.321 Y126.052 E277.36196
G1 X92.613 Y126.568 E277.58312
G1 X92.933 Y127.064 E277.8033
G1 X93.285 Y127.541 E278.02443
G1 X93.664 Y127.996 E278.24532
G1 X94.069 Y128.427 E278.46594
G1 X94.5 Y128.832 E278.68655
G1 X94.959 Y129.215 E278.90954
G1 X95.43 Y129.563 E279.12799
G1 X95.928 Y129.885 E279.3492
G1 X96.444 Y130.177 E279.57036
