;FLAVOR:Marlin
;TIME:179
;Filament used: 1.55756m, 0m
;Layer height: 0.3
;MINX:91.201
;MINY:111.701
;MINZ:0.3
;MAXX:110.799
;MAXY:131.299
;MAXZ:7
;Generated with Cura_SteamEngine 5.0.1
T0
M140 S40
M105
M190 S40
M104 S200
M105
M109 S200
M82 ;absolute extrusion mode
M900 K0.020;
G28 ; home all axes
G1 Z5 F5000 ; lift nozzle
G1 X-45 Y70 F2500; go to glycerin roller;
G92 E0
G1 X-23 F5000; park to start
G92 E0; Extrude a small amount to clear nozzle
G1 E20 F4000
G4 P2000
G92 E0


G92 E0
G1 F1500 E-1
;LAYER_COUNT:20
;LAYER:0
M107
M204 S500
G1 F600 Z1.3
;MESH:Sajad.stl
G0 F6000 X101.565 Y130.882 Z1.3
;TYPE:WALL-INNER
G1 F600 Z0.3
G1 F1500 E0.15542
G1 F1800 X102.085 Y130.835 E0.35019
G1 X102.692 Y130.746 E0.57903
G1 X103.252 Y130.625 E0.79274
G1 X103.811 Y130.47 E1.00913
G1 X104.32 Y130.291 E1.21039
G1 X104.845 Y130.075 E1.42215
G1 X105.37 Y129.821 E1.6397
G1 X105.865 Y129.543 E1.85148
G1 X106.33 Y129.242 E2.0581
G1 X106.782 Y128.909 E2.26752
G1 X107.224 Y128.541 E2.48206
G1 X107.648 Y128.144 E2.69873
G1 X108.026 Y127.741 E2.90483
G1 X108.392 Y127.304 E3.11746
G1 X108.738 Y126.836 E3.33456
G1 X109.045 Y126.361 E3.54553
G1 X109.318 Y125.878 E3.75249
G1 X109.563 Y125.373 E3.96186
G1 X109.788 Y124.83 E4.18111
G1 X109.963 Y124.325 E4.38048
G1 X110.121 Y123.763 E4.59824
G1 X110.243 Y123.203 E4.81203
G1 X110.337 Y122.599 E5.04005
G1 X110.381 Y122.082 E5.2336
G1 X110.399 Y121.512 E5.44632
G1 X110.382 Y120.929 E5.66389
G1 X110.335 Y120.415 E5.85642
G1 X110.246 Y119.806 E6.086
G1 X110.125 Y119.248 E6.29898
G1 X109.97 Y118.689 E6.51537
G1 X109.792 Y118.18 E6.71651
G1 X109.574 Y117.653 E6.92925
G1 X109.322 Y117.13 E7.1458
G1 X109.043 Y116.635 E7.35775
G1 X108.742 Y116.17 E7.56438
G1 X108.409 Y115.718 E7.7738
G1 X108.041 Y115.276 E7.98834
G1 X107.644 Y114.852 E8.205
G1 X107.241 Y114.474 E8.41111
G1 X106.804 Y114.108 E8.62374
G1 X106.336 Y113.762 E8.84084
G1 X105.861 Y113.455 E9.05181
G1 X105.378 Y113.182 E9.25877
G1 X104.874 Y112.937 E9.46781
G1 X104.334 Y112.714 E9.68574
G1 X103.825 Y112.537 E9.88676
G1 X103.263 Y112.379 E10.10452
G1 X102.703 Y112.257 E10.31831
G1 X102.099 Y112.163 E10.54633
G1 X101.582 Y112.119 E10.73987
G1 X101.014 Y112.101 E10.95186
G1 X100.435 Y112.118 E11.16793
G1 X99.915 Y112.165 E11.36269
G1 X99.308 Y112.254 E11.59153
G1 X98.748 Y112.375 E11.80524
G1 X98.189 Y112.53 E12.02163
G1 X97.68 Y112.709 E12.22289
G1 X97.155 Y112.924 E12.43451
G1 X96.63 Y113.179 E12.65223
G1 X96.135 Y113.457 E12.864
G1 X95.67 Y113.758 E13.07062
G1 X95.218 Y114.091 E13.28004
G1 X94.776 Y114.459 E13.49458
G1 X94.352 Y114.856 E13.71125
G1 X93.974 Y115.259 E13.91736
G1 X93.608 Y115.696 E14.12998
G1 X93.262 Y116.164 E14.34709
G1 X92.955 Y116.639 E14.55806
G1 X92.682 Y117.122 E14.76501
G1 X92.437 Y117.627 E14.97439
G1 X92.212 Y118.17 E15.19364
G1 X92.037 Y118.675 E15.393
G1 X91.879 Y119.237 E15.61077
G1 X91.757 Y119.797 E15.82456
G1 X91.663 Y120.401 E16.05257
G1 X91.619 Y120.918 E16.24612
G1 X91.601 Y121.488 E16.45885
G1 X91.618 Y122.065 E16.67417
G1 X91.665 Y122.585 E16.86893
G1 X91.754 Y123.194 E17.09851
G1 X91.873 Y123.747 E17.30952
G1 X92.03 Y124.311 E17.5279
G1 X92.207 Y124.816 E17.72751
G1 X92.424 Y125.344 E17.94045
G1 X92.678 Y125.868 E18.15766
G1 X92.955 Y126.361 E18.3686
G1 X93.255 Y126.825 E18.57471
G1 X93.591 Y127.282 E18.78629
G1 X93.956 Y127.72 E18.99897
G1 X94.352 Y128.144 E19.21538
G1 X94.757 Y128.525 E19.4228
G1 X95.194 Y128.891 E19.63543
G1 X95.658 Y129.234 E19.85067
G1 X96.136 Y129.543 E20.06298
G1 X96.618 Y129.816 E20.26961
G1 X97.127 Y130.063 E20.48065
G1 X97.666 Y130.286 E20.69824
G1 X98.175 Y130.463 E20.89926
G1 X98.737 Y130.621 E21.11702
G1 X99.297 Y130.743 E21.33081
G1 X99.901 Y130.837 E21.55883
G1 X100.418 Y130.881 E21.75238
G1 X100.986 Y130.899 E21.96436
G1 X101.565 Y130.882 E22.18043
G0 F6000 X101.589 Y131.282
;TYPE:WALL-OUTER
G1 F1800 X102.132 Y131.233 E22.3838
G1 X102.764 Y131.14 E22.62209
G1 X103.348 Y131.013 E22.84502
G1 X103.931 Y130.852 E23.07064
G1 X104.462 Y130.665 E23.28063
G1 X105.008 Y130.441 E23.50077
G1 X105.556 Y130.176 E23.72784
G1 X106.072 Y129.885 E23.94881
G1 X106.558 Y129.571 E24.16465
G1 X107.029 Y129.224 E24.38287
G1 X107.489 Y128.841 E24.60615
G1 X107.931 Y128.427 E24.83205
G1 X108.326 Y128.007 E25.04712
G1 X108.706 Y127.552 E25.26825
G1 X109.067 Y127.064 E25.49468
G1 X109.387 Y126.568 E25.71486
G1 X109.672 Y126.064 E25.93084
G1 X109.928 Y125.537 E26.14939
G1 X110.162 Y124.972 E26.3775
G1 X110.345 Y124.445 E26.5856
G1 X110.509 Y123.86 E26.81223
G1 X110.637 Y123.277 E27.03488
G1 X110.735 Y122.647 E27.27271
G1 X110.781 Y122.105 E27.47561
G1 X110.799 Y121.512 E27.69691
G1 X110.782 Y120.905 E27.92342
G1 X110.733 Y120.368 E28.12457
G1 X110.64 Y119.734 E28.36359
G1 X110.513 Y119.152 E28.5858
G1 X110.352 Y118.569 E28.81141
G1 X110.166 Y118.038 E29.02128
G1 X109.94 Y117.489 E29.24274
G1 X109.676 Y116.944 E29.46863
G1 X109.385 Y116.428 E29.68961
G1 X109.071 Y115.942 E29.90544
G1 X108.724 Y115.471 E30.12367
G1 X108.341 Y115.011 E30.34695
G1 X107.927 Y114.569 E30.57285
G1 X107.507 Y114.174 E30.78792
G1 X107.052 Y113.794 E31.00905
G1 X106.564 Y113.433 E31.23548
G1 X106.068 Y113.113 E31.45566
G1 X105.564 Y112.828 E31.67164
G1 X105.038 Y112.572 E31.88985
G1 X104.476 Y112.34 E32.11665
G1 X103.945 Y112.155 E32.3264
G1 X103.36 Y111.991 E32.55303
G1 X102.777 Y111.863 E32.77568
G1 X102.147 Y111.765 E33.0135
G1 X101.605 Y111.719 E33.21641
G1 X101.014 Y111.701 E33.43696
G1 X100.411 Y111.718 E33.66198
G1 X99.868 Y111.767 E33.86536
G1 X99.236 Y111.86 E34.10364
G1 X98.652 Y111.987 E34.32658
G1 X98.069 Y112.148 E34.55219
G1 X97.538 Y112.335 E34.76219
G1 X96.992 Y112.559 E34.98233
G1 X96.444 Y112.824 E35.20939
G1 X95.928 Y113.115 E35.43037
G1 X95.442 Y113.429 E35.6462
G1 X94.971 Y113.776 E35.86442
G1 X94.511 Y114.159 E36.0877
G1 X94.069 Y114.573 E36.31361
G1 X93.674 Y114.993 E36.52868
G1 X93.294 Y115.448 E36.74981
G1 X92.933 Y115.936 E36.97623
G1 X92.613 Y116.432 E37.19641
G1 X92.328 Y116.936 E37.41239
G1 X92.072 Y117.463 E37.63094
G1 X91.838 Y118.028 E37.85906
G1 X91.655 Y118.555 E38.06715
G1 X91.491 Y119.14 E38.29378
G1 X91.363 Y119.723 E38.51643
G1 X91.265 Y120.353 E38.75426
G1 X91.219 Y120.895 E38.95716
G1 X91.201 Y121.488 E39.17847
G1 X91.218 Y122.089 E39.40274
G1 X91.267 Y122.632 E39.60611
G1 X91.36 Y123.265 E39.84477
G1 X91.485 Y123.843 E40.06536
G1 X91.648 Y124.431 E40.29297
G1 X91.833 Y124.958 E40.50131
G1 X92.059 Y125.508 E40.72311
G1 X92.323 Y126.054 E40.94934
G1 X92.613 Y126.568 E41.16948
G1 X92.925 Y127.052 E41.38429
G1 X93.276 Y127.528 E41.6049
G1 X93.656 Y127.985 E41.8266
G1 X94.069 Y128.427 E42.05225
G1 X94.491 Y128.824 E42.26837
G1 X94.946 Y129.205 E42.48974
G1 X95.43 Y129.563 E42.7143
G1 X95.928 Y129.885 E42.93552
G1 X96.432 Y130.17 E43.15149
G1 X96.963 Y130.428 E43.37171
G1 X97.524 Y130.66 E43.59816
G1 X98.055 Y130.845 E43.80791
G1 X98.64 Y131.009 E44.03454
G1 X99.223 Y131.137 E44.25719
G1 X99.853 Y131.235 E44.49502
G1 X100.395 Y131.281 E44.69792
G1 X100.986 Y131.299 E44.91848
G1 X101.589 Y131.282 E45.1435
G0 F6000 X101.788 Y131.265
G1 F1500 E44.1435
G1 F600 Z1.3
G0 F6000 X94.596 Y115.095 Z1.3
;TYPE:FILL
G1 F600 Z0.3
G1 F1500 E45.29893
G1 F2400 X107.404 Y127.903 E52.05552
G1 X107.004 Y128.282 E52.26107
G1 X106.568 Y128.645 E52.47269
G1 X106.143 Y128.958 E52.66958
G1 X105.692 Y129.249 E52.86979
G1 X105.219 Y129.517 E53.07258
G1 X104.707 Y129.765 E53.28479
G1 X104.204 Y129.971 E53.48755
G1 X103.708 Y130.145 E53.68362
G1 X103.165 Y130.295 E53.89375
G1 X102.638 Y130.41 E54.09496
G1 X101.788 Y130.536 E54.41549
G1 X100.986 Y130.559 E54.71478
G1 X100.145 Y130.532 E55.02865
G1 X99.353 Y130.408 E55.32768
G1 X98.654 Y130.254 E55.59467
G1 X103.349 Y112.732 E62.36128
G1 X104.218 Y113.034 E62.70445
G1 X104.736 Y113.248 E62.91352
G1 X105.214 Y113.48 E63.11171
G1 X105.682 Y113.745 E63.31233
G1 X106.141 Y114.042 E63.51626
G1 X106.59 Y114.373 E63.72434
G1 X107.021 Y114.732 E63.93358
G1 X107.398 Y115.088 E64.127
G1 X107.782 Y115.496 E64.33599
G1 X108.137 Y115.923 E64.54313
G1 X108.458 Y116.358 E64.74479
G1 X108.755 Y116.817 E64.94872
G1 X109.017 Y117.281 E65.14749
G1 X109.262 Y117.785 E65.35653
G1 X109.472 Y118.296 E65.56261
G1 X109.77 Y119.149 E65.89965
G1 X92.243 Y123.845 E72.66816
G1 X92.089 Y123.134 E72.93953
G1 X91.964 Y122.288 E73.25853
G1 X91.941 Y121.494 E73.55483
G1 X91.968 Y120.646 E73.87131
G1 X92.092 Y119.854 E74.17034
G1 X92.208 Y119.325 E74.37236
G1 X92.364 Y118.771 E74.58705
G1 X92.528 Y118.296 E74.7745
G1 X92.744 Y117.772 E74.98591
G1 X92.986 Y117.275 E75.19211
G1 X93.243 Y116.821 E75.38672
G1 X93.546 Y116.353 E75.59468
G1 X93.873 Y115.91 E75.80007
G1 X94.232 Y115.479 E76.00931
G1 X94.588 Y115.102 E76.20273
G1 X94.996 Y114.718 E76.41173
G1 X95.432 Y114.355 E76.62335
G1 X95.858 Y114.042 E76.82054
G1 X96.317 Y113.745 E77.02447
G1 X96.401 Y113.691
G1 F1500 E76.02447
G1 F600 Z1.3
;MESH:NONMESH
G0 F6000 X101.565 Y130.882 Z1.3
;TIME_ELAPSED:12.285721
;LAYER:1
;MESH:Sajad.stl
G0 X101.565 Y130.882 Z1.6
;TYPE:WALL-INNER
G1 F600 Z0.6
G1 F1500 E77.1799
G1 F1800 X102.085 Y130.835 E77.37466
G1 X102.692 Y130.746 E77.6035
G1 X103.252 Y130.625 E77.81721
G1 X103.825 Y130.466 E78.03903
G1 X104.333 Y130.287 E78.23994
G1 X104.861 Y130.069 E78.45303
G1 X105.37 Y129.823 E78.6639
G1 X105.865 Y129.543 E78.87604
G1 X106.342 Y129.234 E79.08804
G1 X106.794 Y128.9 E79.29769
G1 X107.234 Y128.532 E79.51165
G1 X107.648 Y128.144 E79.7233
G1 X108.036 Y127.731 E79.93468
G1 X108.4 Y127.294 E80.14683
G1 X108.738 Y126.836 E80.35916
G1 X109.045 Y126.361 E80.57013
G1 X109.325 Y125.866 E80.78227
G1 X109.569 Y125.361 E80.99148
G1 X109.788 Y124.831 E81.20539
G1 X109.963 Y124.325 E81.40511
G1 X110.127 Y123.745 E81.62994
G1 X110.246 Y123.192 E81.84095
G1 X110.339 Y122.585 E82.07001
G1 X110.382 Y122.067 E82.2639
G1 X110.399 Y121.498 E82.47624
G1 X110.382 Y120.93 E82.68821
G1 X110.335 Y120.415 E82.88112
G1 X110.246 Y119.806 E83.1107
G1 X110.125 Y119.248 E83.32368
G1 X109.966 Y118.675 E83.5455
G1 X109.787 Y118.167 E83.74641
G1 X109.569 Y117.639 E83.95949
G1 X109.323 Y117.13 E84.17037
G1 X109.043 Y116.635 E84.38251
G1 X108.734 Y116.158 E84.59451
G1 X108.4 Y115.706 E84.80415
G1 X108.032 Y115.266 E85.01812
G1 X107.644 Y114.852 E85.22977
G1 X107.231 Y114.464 E85.44115
G1 X106.794 Y114.1 E85.6533
G1 X106.336 Y113.762 E85.86563
G1 X105.861 Y113.455 E86.0766
G1 X105.366 Y113.175 E86.28873
G1 X104.861 Y112.931 E86.49794
G1 X104.335 Y112.714 E86.71019
G1 X103.825 Y112.537 E86.91157
G1 X103.25 Y112.375 E87.1344
G1 X102.69 Y112.254 E87.34811
G1 X102.085 Y112.161 E87.57644
G1 X101.567 Y112.118 E87.77033
G1 X101 Y112.101 E87.98193
G1 X100.435 Y112.118 E88.19278
G1 X99.915 Y112.165 E88.38754
G1 X99.308 Y112.254 E88.61638
G1 X98.748 Y112.375 E88.83009
G1 X98.175 Y112.534 E89.05191
G1 X97.667 Y112.713 E89.25282
G1 X97.139 Y112.931 E89.4659
G1 X96.63 Y113.177 E89.67678
G1 X96.135 Y113.457 E89.88892
G1 X95.658 Y113.766 E90.10092
G1 X95.206 Y114.1 E90.31057
G1 X94.766 Y114.468 E90.52453
G1 X94.352 Y114.856 E90.73618
G1 X93.964 Y115.269 E90.94756
G1 X93.6 Y115.706 E91.15971
G1 X93.262 Y116.164 E91.37204
G1 X92.955 Y116.639 E91.58301
G1 X92.675 Y117.134 E91.79515
G1 X92.431 Y117.639 E92.00436
G1 X92.212 Y118.169 E92.21827
G1 X92.037 Y118.675 E92.41799
G1 X91.873 Y119.255 E92.64282
G1 X91.754 Y119.808 E92.85382
G1 X91.661 Y120.415 E93.08289
G1 X91.618 Y120.933 E93.27678
G1 X91.601 Y121.501 E93.48875
G1 X91.618 Y122.065 E93.69923
G1 X91.665 Y122.585 E93.89399
G1 X91.754 Y123.194 E94.12357
G1 X91.873 Y123.747 E94.33457
G1 X92.034 Y124.325 E94.55838
G1 X92.211 Y124.829 E94.75764
G1 X92.431 Y125.361 E94.97239
G1 X92.675 Y125.866 E95.1816
G1 X92.955 Y126.361 E95.39374
G1 X93.262 Y126.836 E95.60471
G1 X93.6 Y127.294 E95.81704
G1 X93.964 Y127.731 E96.02919
G1 X94.352 Y128.144 E96.24056
G1 X94.766 Y128.532 E96.45222
G1 X95.206 Y128.9 E96.66618
G1 X95.658 Y129.234 E96.87582
G1 X96.136 Y129.543 E97.08814
G1 X96.63 Y129.823 E97.29995
G1 X97.139 Y130.069 E97.51083
G1 X97.665 Y130.286 E97.72308
G1 X98.175 Y130.463 E97.92445
G1 X98.75 Y130.625 E98.14729
G1 X99.31 Y130.746 E98.361
G1 X99.915 Y130.839 E98.58933
G1 X100.433 Y130.882 E98.78322
G1 X101 Y130.899 E98.99481
G1 X101.565 Y130.882 E99.20566
G0 F6000 X101.589 Y131.282
;TYPE:WALL-OUTER
G1 F1800 X102.132 Y131.233 E99.40904
G1 X102.764 Y131.14 E99.64732
G1 X103.348 Y131.013 E99.87026
G1 X103.945 Y130.848 E100.1013
G1 X104.476 Y130.661 E100.3113
G1 X105.025 Y130.434 E100.5329
G1 X105.556 Y130.177 E100.75295
G1 X106.072 Y129.885 E100.97411
G1 X106.57 Y129.563 E101.19533
G1 X107.041 Y129.215 E101.41377
G1 X107.5 Y128.832 E101.63676
G1 X107.931 Y128.427 E101.85738
G1 X108.336 Y127.996 E102.07799
G1 X108.715 Y127.541 E102.29888
G1 X109.067 Y127.064 E102.52001
G1 X109.387 Y126.568 E102.7402
G1 X109.679 Y126.052 E102.96136
G1 X109.934 Y125.525 E103.17974
G1 X110.162 Y124.973 E103.40252
G1 X110.345 Y124.445 E103.61097
G1 X110.515 Y123.842 E103.84467
G1 X110.64 Y123.264 E104.06526
G1 X110.737 Y122.632 E104.30377
G1 X110.782 Y122.089 E104.50701
G1 X110.799 Y121.498 E104.72756
G1 X110.782 Y120.906 E104.94847
G1 X110.733 Y120.368 E105.14999
G1 X110.64 Y119.734 E105.38901
G1 X110.513 Y119.152 E105.61122
G1 X110.348 Y118.555 E105.84226
G1 X110.161 Y118.024 E106.05226
G1 X109.934 Y117.475 E106.27386
G1 X109.677 Y116.944 E106.49391
G1 X109.385 Y116.428 E106.71507
G1 X109.063 Y115.93 E106.93629
G1 X108.715 Y115.459 E107.15473
G1 X108.332 Y115 E107.37773
G1 X107.927 Y114.569 E107.59834
G1 X107.496 Y114.164 E107.81895
G1 X107.041 Y113.785 E108.03984
G1 X106.564 Y113.433 E108.26098
G1 X106.068 Y113.113 E108.48116
G1 X105.552 Y112.821 E108.70232
G1 X105.025 Y112.566 E108.9207
G1 X104.477 Y112.34 E109.14182
G1 X103.945 Y112.155 E109.35192
G1 X103.347 Y111.987 E109.58362
G1 X102.763 Y111.86 E109.80656
G1 X102.132 Y111.763 E110.0447
G1 X101.589 Y111.718 E110.24794
G1 X101 Y111.701 E110.46774
G1 X100.411 Y111.718 E110.68754
G1 X99.868 Y111.767 E110.89091
G1 X99.236 Y111.86 E111.1292
G1 X98.652 Y111.987 E111.35214
G1 X98.055 Y112.152 E111.58318
G1 X97.524 Y112.339 E111.79317
G1 X96.975 Y112.566 E112.01478
G1 X96.444 Y112.823 E112.23483
G1 X95.928 Y113.115 E112.45599
G1 X95.43 Y113.437 E112.6772
G1 X94.959 Y113.785 E112.89565
G1 X94.5 Y114.168 E113.11864
G1 X94.069 Y114.573 E113.33926
G1 X93.664 Y115.004 E113.55987
G1 X93.285 Y115.459 E113.78076
G1 X92.933 Y115.936 E114.00189
G1 X92.613 Y116.432 E114.22207
G1 X92.321 Y116.948 E114.44323
G1 X92.066 Y117.475 E114.66162
G1 X91.838 Y118.027 E114.8844
G1 X91.655 Y118.555 E115.09285
G1 X91.485 Y119.158 E115.32655
G1 X91.36 Y119.736 E115.54714
G1 X91.263 Y120.368 E115.78564
G1 X91.218 Y120.911 E115.98889
G1 X91.201 Y121.501 E116.20906
G1 X91.218 Y122.089 E116.42849
G1 X91.267 Y122.632 E116.63186
G1 X91.36 Y123.265 E116.87052
G1 X91.485 Y123.843 E117.09111
G1 X91.652 Y124.445 E117.32414
G1 X91.837 Y124.972 E117.53249
G1 X92.066 Y125.525 E117.75575
G1 X92.321 Y126.052 E117.97414
G1 X92.613 Y126.568 E118.1953
G1 X92.933 Y127.064 E118.41548
G1 X93.285 Y127.541 E118.63661
G1 X93.664 Y127.996 E118.8575
G1 X94.069 Y128.427 E119.07812
G1 X94.5 Y128.832 E119.29873
G1 X94.959 Y129.215 E119.52172
G1 X95.43 Y129.563 E119.74017
G1 X95.928 Y129.885 E119.96138
G1 X96.444 Y130.177 E120.18254
G1 X96.975 Y130.434 E120.40259
G1 X97.523 Y130.66 E120.62371
G1 X98.055 Y130.845 E120.83381
G1 X98.653 Y131.013 E121.06551
G1 X99.237 Y131.14 E121.28845
G1 X99.868 Y131.237 E121.52659
G1 X100.411 Y131.282 E121.72983
G1 X101 Y131.299 E121.94963
G1 X101.589 Y131.282 E122.16943
G0 F6000 X101.788 Y131.265
G1 F1500 E121.16943
G1 F600 Z1.6
G0 F6000 X98.655 Y112.754 Z1.6
;TYPE:FILL
G1 F600 Z0.6
G1 F1500 E122.32486
G1 F2400 X103.345 Y130.256 E129.08378
G1 X102.638 Y130.41 E129.35369
G1 X101.79 Y130.536 E129.67348
G1 X101 Y130.559 E129.96829
G1 X100.156 Y130.533 E130.28327
G1 X99.366 Y130.411 E130.58145
G1 X98.832 Y130.295 E130.78529
G1 X98.282 Y130.14 E130.99844
G1 X97.788 Y129.969 E131.19344
G1 X97.277 Y129.758 E131.39966
G1 X96.782 Y129.518 E131.60486
G1 X96.317 Y129.255 E131.80414
G1 X95.851 Y128.953 E132.01128
G1 X95.417 Y128.633 E132.21242
G1 X94.986 Y128.273 E132.42189
G1 X94.595 Y127.904 E132.62244
