;FLAVOR:Marlin
;TIME:358
;Filament used: 3.03514m, 0m
;Layer height: 0.3
;MINX:91.201
;MINY:111.701
;MINZ:0.3
;MAXX:110.799
;MAXY:131.299
;MAXZ:7
;Generated with Cura_SteamEngine 5.0.1
T0
M140 S40
M105
M190 S40
M104 S200
M105
M109 S200
M82 ;absolute extrusion mode
M900 K0.020;
G28 ; home all axes
G1 Z5 F5000 ; lift nozzle
G1 X-45 Y70 F2500; go to glycerin roller;
G92 E0
G1 X-23 F5000; park to start
G92 E0; Extrude a small amount to clear nozzle
G1 E20 F4000
G4 P2000
G92 E0


G92 E0
G1 F1500 E-1
;LAYER_COUNT:20
;LAYER:0
M107
M204 S500
G1 F600 Z1.3
;MESH:Sajad.stl
G0 F6000 X101.565 Y130.882 Z1.3
;TYPE:WALL-INNER
G1 F600 Z0.3
G1 F1500 E0.15542
G1 F1800 X102.085 Y130.835 E0.35019
G1 X102.692 Y130.746 E0.57903
G1 X103.252 Y130.625 E0.79274
G1 X103.811 Y130.47 E1.00913
G1 X104.32 Y130.291 E1.21039
G1 X104.845 Y130.075 E1.42215
G1 X105.37 Y129.821 E1.6397
G1 X105.865 Y129.543 E1.85148
G1 X106.33 Y129.242 E2.0581
G1 X106.782 Y128.909 E2.26752
G1 X107.224 Y128.541 E2.48206
G1 X107.648 Y128.144 E2.69873
G1 X108.026 Y127.741 E2.90483
G1 X108.392 Y127.304 E3.11746
G1 X108.738 Y126.836 E3.33456
G1 X109.045 Y126.361 E3.54553
G1 X109.318 Y125.878 E3.75249
G1 X109.563 Y125.373 E3.96186
G1 X109.788 Y124.83 E4.18111
G1 X109.963 Y124.325 E4.38048
G1 X110.121 Y123.763 E4.59824
G1 X110.243 Y123.203 E4.81203
G1 X110.337 Y122.599 E5.04005
G1 X110.381 Y122.082 E5.2336
G1 X110.399 Y121.512 E5.44632
G1 X110.382 Y120.929 E5.66389
G1 X110.335 Y120.415 E5.85642
G1 X110.246 Y119.806 E6.086
G1 X110.125 Y119.248 E6.29898
G1 X109.97 Y118.689 E6.51537
G1 X109.792 Y118.18 E6.71651
G1 X109.574 Y117.653 E6.92925
G1 X109.322 Y117.13 E7.1458
G1 X109.043 Y116.635 E7.35775
G1 X108.742 Y116.17 E7.56438
G1 X108.409 Y115.718 E7.7738
G1 X108.041 Y115.276 E7.98834
G1 X107.644 Y114.852 E8.205
G1 X107.241 Y114.474 E8.41111
G1 X106.804 Y114.108 E8.62374
G1 X106.336 Y113.762 E8.84084
G1 X105.861 Y113.455 E9.05181
G1 X105.378 Y113.182 E9.25877
G1 X104.874 Y112.937 E9.46781
G1 X104.334 Y112.714 E9.68574
G1 X103.825 Y112.537 E9.88676
G1 X103.263 Y112.379 E10.10452
G1 X102.703 Y112.257 E10.31831
G1 X102.099 Y112.163 E10.54633
G1 X101.582 Y112.119 E10.73987
G1 X101.014 Y112.101 E10.95186
G1 X100.435 Y112.118 E11.16793
G1 X99.915 Y112.165 E11.36269
G1 X99.308 Y112.254 E11.59153
G1 X98.748 Y112.375 E11.80524
G1 X98.189 Y112.53 E12.02163
G1 X97.68 Y112.709 E12.22289
G1 X97.155 Y112.924 E12.43451
G1 X96.63 Y113.179 E12.65223
G1 X96.135 Y113.457 E12.864
G1 X95.67 Y113.758 E13.07062
G1 X95.218 Y114.091 E13.28004
G1 X94.776 Y114.459 E13.49458
G1 X94.352 Y114.856 E13.71125
G1 X93.974 Y115.259 E13.91736
G1 X93.608 Y115.696 E14.12998
G1 X93.262 Y116.164 E14.34709
G1 X92.955 Y116.639 E14.55806
G1 X92.682 Y117.122 E14.76501
G1 X92.437 Y117.627 E14.97439
G1 X92.212 Y118.17 E15.19364
G1 X92.037 Y118.675 E15.393
G1 X91.879 Y119.237 E15.61077
G1 X91.757 Y119.797 E15.82456
G1 X91.663 Y120.401 E16.05257
G1 X91.619 Y120.918 E16.24612
G1 X91.601 Y121.488 E16.45885
G1 X91.618 Y122.065 E16.67417
G1 X91.665 Y122.585 E16.86893
G1 X91.754 Y123.194 E17.09851
G1 X91.873 Y123.747 E17.30952
G1 X92.03 Y124.311 E17.5279
G1 X92.207 Y124.816 E17.72751
G1 X92.424 Y125.344 E17.94045
G1 X92.678 Y125.868 E18.15766
G1 X92.955 Y126.361 E18.3686
G1 X93.255 Y126.825 E18.57471
G1 X93.591 Y127.282 E18.78629
G1 X93.956 Y127.72 E18.99897
G1 X94.352 Y128.144 E19.21538
G1 X94.757 Y128.525 E19.4228
G1 X95.194 Y128.891 E19.63543
G1 X95.658 Y129.234 E19.85067
G1 X96.136 Y129.543 E20.06298
G1 X96.618 Y129.816 E20.26961
G1 X97.127 Y130.063 E20.48065
G1 X97.666 Y130.286 E20.69824
G1 X98.175 Y130.463 E20.89926
G1 X98.737 Y130.621 E21.11702
G1 X99.297 Y130.743 E21.33081
G1 X99.901 Y130.837 E21.55883
G1 X100.418 Y130.881 E21.75238
G1 X100.986 Y130.899 E21.96436
G1 X101.565 Y130.882 E22.18043
G0 F6000 X101.589 Y131.282
;TYPE:WALL-OUTER
G1 F1800 X102.132 Y131.233 E22.3838
G1 X102.764 Y131.14 E22.62209
G1 X103.348 Y131.013 E22.84502
G1 X103.931 Y130.852 E23.07064
G1 X104.462 Y130.665 E23.28063
G1 X105.008 Y130.441 E23.50077
G1 X105.556 Y130.176 E23.72784
G1 X106.072 Y129.885 E23.94881
G1 X106.558 Y129.571 E24.16465
G1 X107.029 Y129.224 E24.38287
G1 X107.489 Y128.841 E24.60615
G1 X107.931 Y128.427 E24.83205
G1 X108.326 Y128.007 E25.04712
G1 X108.706 Y127.552 E25.26825
G1 X109.067 Y127.064 E25.49468
G1 X109.387 Y126.568 E25.71486
G1 X109.672 Y126.064 E25.93084
G1 X109.928 Y125.537 E26.14939
G1 X110.162 Y124.972 E26.3775
G1 X110.345 Y124.445 E26.5856
G1 X110.509 Y123.86 E26.81223
G1 X110.637 Y123.277 E27.03488
G1 X110.735 Y122.647 E27.27271
G1 X110.781 Y122.105 E27.47561
G1 X110.799 Y121.512 E27.69691
G1 X110.782 Y120.905 E27.92342
G1 X110.733 Y120.368 E28.12457
G1 X110.64 Y119.734 E28.36359
G1 X110.513 Y119.152 E28.5858
G1 X110.352 Y118.569 E28.81141
G1 X110.166 Y118.038 E29.02128
G1 X109.94 Y117.489 E29.24274
G1 X109.676 Y116.944 E29.46863
G1 X109.385 Y116.428 E29.68961
G1 X109.071 Y115.942 E29.90544
G1 X108.724 Y115.471 E30.12367
G1 X108.341 Y115.011 E30.34695
G1 X107.927 Y114.569 E30.57285
G1 X107.507 Y114.174 E30.78792
G1 X107.052 Y113.794 E31.00905
G1 X106.564 Y113.433 E31.23548
G1 X106.068 Y113.113 E31.45566
G1 X105.564 Y112.828 E31.67164
G1 X105.038 Y112.572 E31.88985
G1 X104.476 Y112.34 E32.11665
G1 X103.945 Y112.155 E32.3264
G1 X103.36 Y111.991 E32.55303
G1 X102.777 Y111.863 E32.77568
G1 X102.147 Y111.765 E33.0135
G1 X101.605 Y111.719 E33.21641
G1 X101.014 Y111.701 E33.43696
G1 X100.411 Y111.718 E33.66198
G1 X99.868 Y111.767 E33.86536
G1 X99.236 Y111.86 E34.10364
G1 X98.652 Y111.987 E34.32658
G1 X98.069 Y112.148 E34.55219
G1 X97.538 Y112.335 E34.76219
G1 X96.992 Y112.559 E34.98233
G1 X96.444 Y112.824 E35.20939
G1 X95.928 Y113.115 E35.43037
G1 X95.442 Y113.429 E35.6462
G1 X94.971 Y113.776 E35.86442
G1 X94.511 Y114.159 E36.0877
G1 X94.069 Y114.573 E36.31361
G1 X93.674 Y114.993 E36.52868
G1 X93.294 Y115.448 E36.74981
G1 X92.933 Y115.936 E36.97623
G1 X92.613 Y116.432 E37.19641
G1 X92.328 Y116.936 E37.41239
G1 X92.072 Y117.463 E37.63094
G1 X91.838 Y118.028 E37.85906
G1 X91.655 Y118.555 E38.06715
G1 X91.491 Y119.14 E38.29378
G1 X91.363 Y119.723 E38.51643
G1 X91.265 Y120.353 E38.75426
G1 X91.219 Y120.895 E38.95716
G1 X91.201 Y121.488 E39.17847
G1 X91.218 Y122.089 E39.40274
G1 X91.267 Y122.632 E39.60611
G1 X91.36 Y123.265 E39.84477
G1 X91.485 Y123.843 E40.06536
G1 X91.648 Y124.431 E40.29297
G1 X91.833 Y124.958 E40.50131
G1 X92.059 Y125.508 E40.72311
G1 X92.323 Y126.054 E40.94934
G1 X92.613 Y126.568 E41.16948
G1 X92.925 Y127.052 E41.38429
G1 X93.276 Y127.528 E41.6049
G1 X93.656 Y127.985 E41.8266
G1 X94.069 Y128.427 E42.05225
G1 X94.491 Y128.824 E42.26837
G1 X94.946 Y129.205 E42.48974
G1 X95.43 Y129.563 E42.7143
G1 X95.928 Y129.885 E42.93552
G1 X96.432 Y130.17 E43.15149
G1 X96.963 Y130.428 E43.37171
G1 X97.524 Y130.66 E43.59816
G1 X98.055 Y130.845 E43.80791
G1 X98.64 Y131.009 E44.03454
G1 X99.223 Y131.137 E44.25719
G1 X99.853 Y131.235 E44.49502
G1 X100.395 Y131.281 E44.69792
G1 X100.986 Y131.299 E44.91848
G1 X101.589 Y131.282 E45.1435
G0 F6000 X101.788 Y131.265
G1 F1500 E44.1435
G1 F600 Z1.3
G0 F6000 X102.37 Y130.449 Z1.3
;TYPE:FILL
G1 F600 Z0.3
G1 F1500 E45.29893
G1 F2400 X104.29 Y129.935 E46.04034
G1 X103.708 Y130.145 E46.27114
G1 X103.165 Y130.295 E46.48128
G1 X102.638 Y130.41 E46.68248
G1 X101.679 Y130.552 E47.04411
G1 X106.109 Y114.021 E53.42807
G1 X105.997 Y113.948 E53.47794
G1 X92.879 Y117.463 E58.54383
G1 X93.243 Y116.821 E58.81912
G1 X93.546 Y116.353 E59.02709
G1 X93.873 Y115.91 E59.23248
G1 X94.232 Y115.479 E59.44172
G1 X94.596 Y115.095 E59.63908
G1 X107.404 Y127.903 E66.39567
G1 X107.768 Y127.521 E66.5925
G1 X108.127 Y127.09 E66.80174
G1 X108.457 Y126.643 E67.00899
G1 X108.757 Y126.179 E67.2151
G1 X109.121 Y125.534 E67.49137
G1 X96 Y129.05 E72.55843
G1 X95.89 Y128.977 E72.60768
G1 X100.319 Y112.448 E78.99082
G1 X99.362 Y112.59 E79.35171
G1 X98.835 Y112.705 E79.55292
G1 X98.292 Y112.855 E79.76305
G1 X97.714 Y113.062 E79.99207
G1 X99.621 Y112.551 E80.72851
G1 X99.717 Y112.526
G1 F1500 E79.72851
G1 F600 Z1.3
G0 F6000 X92.566 Y118.201 Z1.3
G1 F600 Z0.3
G1 F1500 E80.88394
G1 F2400 X92.046 Y120.142 E81.6335
G1 X92.092 Y119.854 E81.74229
G1 X92.208 Y119.325 E81.94431
G1 X92.364 Y118.771 E82.159
G1 X92.528 Y118.296 E82.34644
G1 X92.827 Y117.569 E82.63967
G1 X104.919 Y129.66 E89.01829
G1 X105.04 Y129.603 E89.06818
G1 X108.55 Y116.501 E94.12782
G1 X108.755 Y116.817 E94.26833
G1 X109.017 Y117.281 E94.46709
G1 X109.262 Y117.785 E94.67613
G1 X109.472 Y118.296 E94.88221
G1 X109.77 Y119.149 E95.21926
G1 X92.229 Y123.849 E101.9932
G1 X92.523 Y124.69 E102.32552
G1 X92.732 Y125.2 E102.53112
G1 X92.981 Y125.714 E102.74416
G1 X93.244 Y126.181 E102.94409
G1 X93.449 Y126.497 E103.08459
G1 X96.96 Y113.394 E108.14469
G1 X97.08 Y113.337 E108.19425
G1 X109.173 Y125.429 E114.57339
G1 X109.472 Y124.704 E114.86593
G1 X109.636 Y124.229 E115.05337
G1 X109.792 Y123.675 E115.26806
G1 X109.908 Y123.146 E115.47008
G1 X109.951 Y122.866 E115.57575
G1 X109.435 Y124.79 E116.3188
G1 X109.41 Y124.886
G1 F1500 E115.3188
G1 F600 Z1.3
G0 F6000 X108.067 Y115.838 Z1.3
G1 F600 Z0.3
G1 F1500 E116.47423
G1 F2400 X106.657 Y114.428 E117.21804
G1 X107.021 Y114.732 E117.39495
G1 X107.398 Y115.088 E117.58836
G1 X107.782 Y115.496 E117.79736
G1 X108.137 Y115.923 E118.0045
G1 X108.478 Y116.389 E118.21989
G1 X91.962 Y120.814 E124.59797
G1 X91.957 Y120.942 E124.64575
G1 X101.556 Y130.541 E129.7095
G1 X100.986 Y130.559 E129.92223
G1 X100.145 Y130.532 E130.2361
G1 X99.353 Y130.408 E130.53513
G1 X98.654 Y130.254 E130.80213
G1 X103.346 Y112.745 E137.56376
G1 X102.647 Y112.592 E137.83068
G1 X101.855 Y112.468 E138.12971
G1 X101.014 Y112.441 E138.44358
G1 X100.443 Y112.456 E138.65665
G1 X110.042 Y122.055 E143.7204
G1 X110.036 Y122.183 E143.7682
G1 X93.519 Y126.609 E150.14673
G1 X93.856 Y127.067 E150.35884
G1 X94.212 Y127.496 E150.56678
G1 X94.594 Y127.904 E150.77527
G1 X94.987 Y128.274 E150.97661
G1 X95.355 Y128.582 E151.15562
G1 X93.938 Y127.165 E151.90313
G1 X93.868 Y127.095
G1 F1500 E150.90313
G1 F600 Z1.3
;MESH:NONMESH
G0 F6000 X101.565 Y130.882 Z1.3
;TIME_ELAPSED:21.190654
;LAYER:1
;MESH:Sajad.stl
G0 X101.565 Y130.882 Z1.6
;TYPE:WALL-INNER
G1 F600 Z0.6
G1 F1500 E152.05855
G1 F1800 X102.085 Y130.835 E152.25331
G1 X102.692 Y130.746 E152.48216
G1 X103.252 Y130.625 E152.69587
G1 X103.825 Y130.466 E152.91769
G1 X104.333 Y130.287 E153.1186
G1 X104.861 Y130.069 E153.33168
G1 X105.37 Y129.823 E153.54256
G1 X105.865 Y129.543 E153.7547
G1 X106.342 Y129.234 E153.9667
G1 X106.794 Y128.9 E154.17634
G1 X107.234 Y128.532 E154.39031
G1 X107.648 Y128.144 E154.60196
G1 X108.036 Y127.731 E154.81334
G1 X108.4 Y127.294 E155.02549
G1 X108.738 Y126.836 E155.23782
G1 X109.045 Y126.361 E155.44879
G1 X109.325 Y125.866 E155.66092
G1 X109.569 Y125.361 E155.87013
G1 X109.788 Y124.831 E156.08405
G1 X109.963 Y124.325 E156.28377
G1 X110.127 Y123.745 E156.5086
G1 X110.246 Y123.192 E156.7196
G1 X110.339 Y122.585 E156.94867
G1 X110.382 Y122.067 E157.14255
G1 X110.399 Y121.498 E157.3549
G1 X110.382 Y120.93 E157.56687
G1 X110.335 Y120.415 E157.75977
G1 X110.246 Y119.806 E157.98935
G1 X110.125 Y119.248 E158.20233
G1 X109.966 Y118.675 E158.42415
G1 X109.787 Y118.167 E158.62506
G1 X109.569 Y117.639 E158.83815
G1 X109.323 Y117.13 E159.04902
G1 X109.043 Y116.635 E159.26116
G1 X108.734 Y116.158 E159.47316
G1 X108.4 Y115.706 E159.68281
G1 X108.032 Y115.266 E159.89677
G1 X107.644 Y114.852 E160.10842
G1 X107.231 Y114.464 E160.3198
G1 X106.794 Y114.1 E160.53195
G1 X106.336 Y113.762 E160.74428
G1 X105.861 Y113.455 E160.95525
G1 X105.366 Y113.175 E161.16739
G1 X104.861 Y112.931 E161.3766
G1 X104.335 Y112.714 E161.58885
G1 X103.825 Y112.537 E161.79022
G1 X103.25 Y112.375 E162.01306
G1 X102.69 Y112.254 E162.22677
G1 X102.085 Y112.161 E162.4551
G1 X101.567 Y112.118 E162.64898
G1 X101 Y112.101 E162.86058
G1 X100.435 Y112.118 E163.07143
G1 X99.915 Y112.165 E163.26619
G1 X99.308 Y112.254 E163.49504
G1 X98.748 Y112.375 E163.70875
G1 X98.175 Y112.534 E163.93056
G1 X97.667 Y112.713 E164.13148
G1 X97.139 Y112.931 E164.34456
G1 X96.63 Y113.177 E164.55544
G1 X96.135 Y113.457 E164.76758
G1 X95.658 Y113.766 E164.97958
G1 X95.206 Y114.1 E165.18922
G1 X94.766 Y114.468 E165.40319
G1 X94.352 Y114.856 E165.61484
G1 X93.964 Y115.269 E165.82622
G1 X93.6 Y115.706 E166.03837
G1 X93.262 Y116.164 E166.2507
G1 X92.955 Y116.639 E166.46167
G1 X92.675 Y117.134 E166.6738
G1 X92.431 Y117.639 E166.88301
G1 X92.212 Y118.169 E167.09693
G1 X92.037 Y118.675 E167.29664
G1 X91.873 Y119.255 E167.52148
G1 X91.754 Y119.808 E167.73248
G1 X91.661 Y120.415 E167.96154
G1 X91.618 Y120.933 E168.15543
G1 X91.601 Y121.501 E168.3674
G1 X91.618 Y122.065 E168.57788
G1 X91.665 Y122.585 E168.77264
G1 X91.754 Y123.194 E169.00222
G1 X91.873 Y123.747 E169.21323
G1 X92.034 Y124.325 E169.43704
G1 X92.211 Y124.829 E169.6363
G1 X92.431 Y125.361 E169.85104
G1 X92.675 Y125.866 E170.06025
G1 X92.955 Y126.361 E170.27239
G1 X93.262 Y126.836 E170.48336
G1 X93.6 Y127.294 E170.69569
G1 X93.964 Y127.731 E170.90784
G1 X94.352 Y128.144 E171.11922
G1 X94.766 Y128.532 E171.33087
G1 X95.206 Y128.9 E171.54484
G1 X95.658 Y129.234 E171.75448
G1 X96.136 Y129.543 E171.96679
G1 X96.63 Y129.823 E172.17861
G1 X97.139 Y130.069 E172.38949
G1 X97.665 Y130.286 E172.60173
G1 X98.175 Y130.463 E172.80311
G1 X98.75 Y130.625 E173.02594
G1 X99.31 Y130.746 E173.23965
G1 X99.915 Y130.839 E173.46798
G1 X100.433 Y130.882 E173.66187
G1 X101 Y130.899 E173.87347
G1 X101.565 Y130.882 E174.08432
G0 F6000 X101.589 Y131.282
;TYPE:WALL-OUTER
G1 F1800 X102.132 Y131.233 E174.28769
G1 X102.764 Y131.14 E174.52598
G1 X103.348 Y131.013 E174.74891
G1 X103.945 Y130.848 E174.97995
G1 X104.476 Y130.661 E175.18995
G1 X105.025 Y130.434 E175.41155
G1 X105.556 Y130.177 E175.63161
G1 X106.072 Y129.885 E175.85277
G1 X106.57 Y129.563 E176.07398
G1 X107.041 Y129.215 E176.29243
G1 X107.5 Y128.832 E176.51542
G1 X107.931 Y128.427 E176.73603
G1 X108.336 Y127.996 E176.95665
G1 X108.715 Y127.541 E177.17754
G1 X109.067 Y127.064 E177.39867
G1 X109.387 Y126.568 E177.61885
G1 X109.679 Y126.052 E177.84001
G1 X109.934 Y125.525 E178.0584
G1 X110.162 Y124.973 E178.28118
G1 X110.345 Y124.445 E178.48962
G1 X110.515 Y123.842 E178.72332
G1 X110.64 Y123.264 E178.94391
G1 X110.737 Y122.632 E179.18242
G1 X110.782 Y122.089 E179.38566
G1 X110.799 Y121.498 E179.60621
G1 X110.782 Y120.906 E179.82713
G1 X110.733 Y120.368 E180.02864
G1 X110.64 Y119.734 E180.26767
G1 X110.513 Y119.152 E180.48988
G1 X110.348 Y118.555 E180.72092
G1 X110.161 Y118.024 E180.93091
G1 X109.934 Y117.475 E181.15252
G1 X109.677 Y116.944 E181.37257
G1 X109.385 Y116.428 E181.59373
G1 X109.063 Y115.93 E181.81494
G1 X108.715 Y115.459 E182.03339
G1 X108.332 Y115 E182.25638
G1 X107.927 Y114.569 E182.47699
G1 X107.496 Y114.164 E182.69761
G1 X107.041 Y113.785 E182.9185
G1 X106.564 Y113.433 E183.13963
G1 X106.068 Y113.113 E183.35981
G1 X105.552 Y112.821 E183.58097
G1 X105.025 Y112.566 E183.79936
G1 X104.477 Y112.34 E184.02047
G1 X103.945 Y112.155 E184.23058
G1 X103.347 Y111.987 E184.46228
G1 X102.763 Y111.86 E184.68521
G1 X102.132 Y111.763 E184.92335
G1 X101.589 Y111.718 E185.1266
G1 X101 Y111.701 E185.3464
G1 X100.411 Y111.718 E185.5662
G1 X99.868 Y111.767 E185.76957
G1 X99.236 Y111.86 E186.00786
G1 X98.652 Y111.987 E186.23079
G1 X98.055 Y112.152 E186.46183
G1 X97.524 Y112.339 E186.67183
G1 X96.975 Y112.566 E186.89343
G1 X96.444 Y112.823 E187.11349
G1 X95.928 Y113.115 E187.33465
G1 X95.43 Y113.437 E187.55586
G1 X94.959 Y113.785 E187.7743
G1 X94.5 Y114.168 E187.9973
G1 X94.069 Y114.573 E188.21791
G1 X93.664 Y115.004 E188.43852
G1 X93.285 Y115.459 E188.65942
G1 X92.933 Y115.936 E188.88055
G1 X92.613 Y116.432 E189.10073
G1 X92.321 Y116.948 E189.32189
G1 X92.066 Y117.475 E189.54027
G1 X91.838 Y118.027 E189.76305
G1 X91.655 Y118.555 E189.9715
G1 X91.485 Y119.158 E190.2052
G1 X91.36 Y119.736 E190.42579
G1 X91.263 Y120.368 E190.6643
G1 X91.218 Y120.911 E190.86754
G1 X91.201 Y121.501 E191.08772
G1 X91.218 Y122.089 E191.30714
G1 X91.267 Y122.632 E191.51052
G1 X91.36 Y123.265 E191.74917
G1 X91.485 Y123.843 E191.96976
G1 X91.652 Y124.445 E192.2028
G1 X91.837 Y124.972 E192.41114
