;FLAVOR:Marlin
;TIME:545
;Filament used: 5.41716m, 0m
;Layer height: 0.3
;MINX:91.201
;MINY:111.701
;MINZ:0.3
;MAXX:110.799
;MAXY:131.299
;MAXZ:7
;Generated with Cura_SteamEngine 5.0.1
T0
M140 S40
M105
M190 S40
M104 S200
M105
M109 S200
M82 ;absolute extrusion mode
M900 K0.020;
G28 ; home all axes
G1 Z5 F5000 ; lift nozzle
G1 X-45 Y70 F2500; go to glycerin roller;
G92 E0
G1 X-23 F5000; park to start
G92 E0; Extrude a small amount to clear nozzle
G1 E20 F4000
G4 P2000
G92 E0


G92 E0
G1 F1500 E-1
;LAYER_COUNT:20
;LAYER:0
M107
M204 S500
G1 F600 Z1.3
;MESH:Sajad.stl
G0 F6000 X101.565 Y130.882 Z1.3
;TYPE:WALL-INNER
G1 F600 Z0.3
G1 F1500 E0.15542
G1 F1800 X102.085 Y130.835 E0.35019
G1 X102.692 Y130.746 E0.57903
G1 X103.252 Y130.625 E0.79274
G1 X103.811 Y130.47 E1.00913
G1 X104.32 Y130.291 E1.21039
G1 X104.845 Y130.075 E1.42215
G1 X105.37 Y129.821 E1.6397
G1 X105.865 Y129.543 E1.85148
G1 X106.33 Y129.242 E2.0581
G1 X106.782 Y128.909 E2.26752
G1 X107.224 Y128.541 E2.48206
G1 X107.648 Y128.144 E2.69873
G1 X108.026 Y127.741 E2.90483
G1 X108.392 Y127.304 E3.11746
G1 X108.738 Y126.836 E3.33456
G1 X109.045 Y126.361 E3.54553
G1 X109.318 Y125.878 E3.75249
G1 X109.563 Y125.373 E3.96186
G1 X109.788 Y124.83 E4.18111
G1 X109.963 Y124.325 E4.38048
G1 X110.121 Y123.763 E4.59824
G1 X110.243 Y123.203 E4.81203
G1 X110.337 Y122.599 E5.04005
G1 X110.381 Y122.082 E5.2336
G1 X110.399 Y121.512 E5.44632
G1 X110.382 Y120.929 E5.66389
G1 X110.335 Y120.415 E5.85642
G1 X110.246 Y119.806 E6.086
G1 X110.125 Y119.248 E6.29898
G1 X109.97 Y118.689 E6.51537
G1 X109.792 Y118.18 E6.71651
G1 X109.574 Y117.653 E6.92925
G1 X109.322 Y117.13 E7.1458
G1 X109.043 Y116.635 E7.35775
G1 X108.742 Y116.17 E7.56438
G1 X108.409 Y115.718 E7.7738
G1 X108.041 Y115.276 E7.98834
G1 X107.644 Y114.852 E8.205
G1 X107.241 Y114.474 E8.41111
G1 X106.804 Y114.108 E8.62374
G1 X106.336 Y113.762 E8.84084
G1 X105.861 Y113.455 E9.05181
G1 X105.378 Y113.182 E9.25877
G1 X104.874 Y112.937 E9.46781
G1 X104.334 Y112.714 E9.68574
G1 X103.825 Y112.537 E9.88676
G1 X103.263 Y112.379 E10.10452
G1 X102.703 Y112.257 E10.31831
G1 X102.099 Y112.163 E10.54633
G1 X101.582 Y112.119 E10.73987
G1 X101.014 Y112.101 E10.95186
G1 X100.435 Y112.118 E11.16793
G1 X99.915 Y112.165 E11.36269
G1 X99.308 Y112.254 E11.59153
G1 X98.748 Y112.375 E11.80524
G1 X98.189 Y112.53 E12.02163
G1 X97.68 Y112.709 E12.22289
G1 X97.155 Y112.924 E12.43451
G1 X96.63 Y113.179 E12.65223
G1 X96.135 Y113.457 E12.864
G1 X95.67 Y113.758 E13.07062
G1 X95.218 Y114.091 E13.28004
G1 X94.776 Y114.459 E13.49458
G1 X94.352 Y114.856 E13.71125
G1 X93.974 Y115.259 E13.91736
G1 X93.608 Y115.696 E14.12998
G1 X93.262 Y116.164 E14.34709
G1 X92.955 Y116.639 E14.55806
G1 X92.682 Y117.122 E14.76501
G1 X92.437 Y117.627 E14.97439
G1 X92.212 Y118.17 E15.19364
G1 X92.037 Y118.675 E15.393
G1 X91.879 Y119.237 E15.61077
G1 X91.757 Y119.797 E15.82456
G1 X91.663 Y120.401 E16.05257
G1 X91.619 Y120.918 E16.24612
G1 X91.601 Y121.488 E16.45885
G1 X91.618 Y122.065 E16.67417
G1 X91.665 Y122.585 E16.86893
G1 X91.754 Y123.194 E17.09851
G1 X91.873 Y123.747 E17.30952
G1 X92.03 Y124.311 E17.5279
G1 X92.207 Y124.816 E17.72751
G1 X92.424 Y125.344 E17.94045
G1 X92.678 Y125.868 E18.15766
G1 X92.955 Y126.361 E18.3686
G1 X93.255 Y126.825 E18.57471
G1 X93.591 Y127.282 E18.78629
G1 X93.956 Y127.72 E18.99897
G1 X94.352 Y128.144 E19.21538
G1 X94.757 Y128.525 E19.4228
G1 X95.194 Y128.891 E19.63543
G1 X95.658 Y129.234 E19.85067
G1 X96.136 Y129.543 E20.06298
G1 X96.618 Y129.816 E20.26961
G1 X97.127 Y130.063 E20.48065
G1 X97.666 Y130.286 E20.69824
G1 X98.175 Y130.463 E20.89926
G1 X98.737 Y130.621 E21.11702
G1 X99.297 Y130.743 E21.33081
G1 X99.901 Y130.837 E21.55883
G1 X100.418 Y130.881 E21.75238
G1 X100.986 Y130.899 E21.96436
G1 X101.565 Y130.882 E22.18043
G0 F6000 X101.589 Y131.282
;TYPE:WALL-OUTER
G1 F1800 X102.132 Y131.233 E22.3838
G1 X102.764 Y131.14 E22.62209
G1 X103.348 Y131.013 E22.84502
G1 X103.931 Y130.852 E23.07064
G1 X104.462 Y130.665 E23.28063
G1 X105.008 Y130.441 E23.50077
G1 X105.556 Y130.176 E23.72784
G1 X106.072 Y129.885 E23.94881
G1 X106.558 Y129.571 E24.16465
G1 X107.029 Y129.224 E24.38287
G1 X107.489 Y128.841 E24.60615
G1 X107.931 Y128.427 E24.83205
G1 X108.326 Y128.007 E25.04712
G1 X108.706 Y127.552 E25.26825
G1 X109.067 Y127.064 E25.49468
G1 X109.387 Y126.568 E25.71486
G1 X109.672 Y126.064 E25.93084
G1 X109.928 Y125.537 E26.14939
G1 X110.162 Y124.972 E26.3775
G1 X110.345 Y124.445 E26.5856
G1 X110.509 Y123.86 E26.81223
G1 X110.637 Y123.277 E27.03488
G1 X110.735 Y122.647 E27.27271
G1 X110.781 Y122.105 E27.47561
G1 X110.799 Y121.512 E27.69691
G1 X110.782 Y120.905 E27.92342
G1 X110.733 Y120.368 E28.12457
G1 X110.64 Y119.734 E28.36359
G1 X110.513 Y119.152 E28.5858
G1 X110.352 Y118.569 E28.81141
G1 X110.166 Y118.038 E29.02128
G1 X109.94 Y117.489 E29.24274
G1 X109.676 Y116.944 E29.46863
G1 X109.385 Y116.428 E29.68961
G1 X109.071 Y115.942 E29.90544
G1 X108.724 Y115.471 E30.12367
G1 X108.341 Y115.011 E30.34695
G1 X107.927 Y114.569 E30.57285
G1 X107.507 Y114.174 E30.78792
G1 X107.052 Y113.794 E31.00905
G1 X106.564 Y113.433 E31.23548
G1 X106.068 Y113.113 E31.45566
G1 X105.564 Y112.828 E31.67164
G1 X105.038 Y112.572 E31.88985
G1 X104.476 Y112.34 E32.11665
G1 X103.945 Y112.155 E32.3264
G1 X103.36 Y111.991 E32.55303
G1 X102.777 Y111.863 E32.77568
G1 X102.147 Y111.765 E33.0135
G1 X101.605 Y111.719 E33.21641
G1 X101.014 Y111.701 E33.43696
G1 X100.411 Y111.718 E33.66198
G1 X99.868 Y111.767 E33.86536
G1 X99.236 Y111.86 E34.10364
G1 X98.652 Y111.987 E34.32658
G1 X98.069 Y112.148 E34.55219
G1 X97.538 Y112.335 E34.76219
G1 X96.992 Y112.559 E34.98233
G1 X96.444 Y112.824 E35.20939
G1 X95.928 Y113.115 E35.43037
G1 X95.442 Y113.429 E35.6462
G1 X94.971 Y113.776 E35.86442
G1 X94.511 Y114.159 E36.0877
G1 X94.069 Y114.573 E36.31361
G1 X93.674 Y114.993 E36.52868
G1 X93.294 Y115.448 E36.74981
G1 X92.933 Y115.936 E36.97623
G1 X92.613 Y116.432 E37.19641
G1 X92.328 Y116.936 E37.41239
G1 X92.072 Y117.463 E37.63094
G1 X91.838 Y118.028 E37.85906
G1 X91.655 Y118.555 E38.06715
G1 X91.491 Y119.14 E38.29378
G1 X91.363 Y119.723 E38.51643
G1 X91.265 Y120.353 E38.75426
G1 X91.219 Y120.895 E38.95716
G1 X91.201 Y121.488 E39.17847
G1 X91.218 Y122.089 E39.40274
G1 X91.267 Y122.632 E39.60611
G1 X91.36 Y123.265 E39.84477
G1 X91.485 Y123.843 E40.06536
G1 X91.648 Y124.431 E40.29297
G1 X91.833 Y124.958 E40.50131
G1 X92.059 Y125.508 E40.72311
G1 X92.323 Y126.054 E40.94934
G1 X92.613 Y126.568 E41.16948
G1 X92.925 Y127.052 E41.38429
G1 X93.276 Y127.528 E41.6049
G1 X93.656 Y127.985 E41.8266
G1 X94.069 Y128.427 E42.05225
G1 X94.491 Y128.824 E42.26837
G1 X94.946 Y129.205 E42.48974
G1 X95.43 Y129.563 E42.7143
G1 X95.928 Y129.885 E42.93552
G1 X96.432 Y130.17 E43.15149
G1 X96.963 Y130.428 E43.37171
G1 X97.524 Y130.66 E43.59816
G1 X98.055 Y130.845 E43.80791
G1 X98.64 Y131.009 E44.03454
G1 X99.223 Y131.137 E44.25719
G1 X99.853 Y131.235 E44.49502
G1 X100.395 Y131.281 E44.69792
G1 X100.986 Y131.299 E44.91848
G1 X101.589 Y131.282 E45.1435
G0 F6000 X101.788 Y131.265
G1 F1500 E44.1435
G1 F600 Z1.3
G0 F6000 X94.185 Y127.465 Z1.3
;TYPE:FILL
G1 F600 Z0.3
G1 F1500 E45.29893
G1 F2400 X109.882 Y123.259 E51.36076
G1 X109.792 Y123.675 E51.51953
G1 X109.581 Y124.425 E51.81015
G1 X98.073 Y112.916 E57.88122
G1 X99.246 Y112.591 E58.33526
G1 X95.034 Y128.312 E64.40632
G1 X94.594 Y127.904 E64.63016
G1 X93.948 Y127.214 E64.98274
G1 X97.744 Y113.049 E70.453
G1 X97.293 Y113.235 E70.63497
G1 X96.764 Y113.492 E70.85436
G1 X109.007 Y125.736 E77.31316
G1 X109.256 Y125.228 E77.52419
G1 X109.45 Y124.755 E77.71489
G1 X95.3 Y128.546 E83.17927
G1 X95.851 Y128.953 E83.43479
G1 X96.185 Y129.167 E83.58276
G1 X100.664 Y112.45 E90.03847
G1 X100.212 Y112.464 E90.20715
G1 X99.595 Y112.554 E90.43974
G1 X109.946 Y122.905 E95.9002
G1 X110.032 Y122.354 E96.10822
G1 X110.047 Y121.835 E96.3019
G1 X93.32 Y126.316 E102.7614
G1 X92.974 Y125.7 E103.02495
G1 X96.148 Y113.852 E107.60032
G1 X95.61 Y114.223 E107.8441
G1 X108.275 Y126.888 E114.52525
G1 X108.644 Y126.351 E114.7683
G1 X96.796 Y129.525 E119.34367
G1 X97.392 Y129.813 E119.59059
G1 X102.033 Y112.494 E126.27884
G1 X101.379 Y112.452 E126.5233
G1 X110.047 Y121.121 E131.09619
G1 X109.998 Y120.468 E131.34045
G1 X92.693 Y125.105 E138.02328
G1 X92.523 Y124.69 E138.19057
G1 X92.337 Y124.147 E138.40467
G1 X98.345 Y130.155 E141.57406
G1 X98.657 Y130.243 E141.69499
G1 X103.343 Y112.755 E148.44848
G1 X103.028 Y112.675 E148.56971
G1 X94.831 Y114.872 E151.73527
G1 X94.596 Y115.095 E151.85612
G1 X107.404 Y127.903 E158.61271
G1 X107.627 Y127.669 E158.73329
G1 X109.824 Y119.467 E161.90065
G1 X109.747 Y119.155 E162.02052
G1 X92.252 Y123.843 E168.77673
G1 X92.175 Y123.532 E168.89624
G1 X94.373 Y115.327 E172.06478
G1 X94.232 Y115.479 E172.14212
G1 X93.715 Y116.1 E172.44354
G1 X106.4 Y128.784 E179.13498
G1 X107.004 Y128.282 E179.42794
G1 X107.168 Y128.126 E179.51237
G1 X98.968 Y130.323 E182.67901
G1 X99.353 Y130.408 E182.82609
G1 X99.967 Y130.504 E183.0579
G1 X104.605 Y113.193 E189.74299
G1 X104.218 Y113.034 E189.89905
G1 X103.654 Y112.842 E190.12129
G1 X109.66 Y118.849 E193.2899
G1 X109.472 Y118.296 E193.50777
G1 X109.306 Y117.893 E193.67035
G1 X91.999 Y122.531 E200.35399
G1 X91.951 Y121.876 E200.59898
G1 X100.622 Y130.546 E205.17292
G1 X101.335 Y130.548 E205.43888
G1 X105.817 Y113.821 E211.89848
G1 X105.201 Y113.473 E212.1624
G1 X93.34 Y116.651 E216.74284
G1 X92.992 Y117.261 E217.00481
G1 X105.236 Y129.505 E223.46387
G1 X105.846 Y129.162 E223.72492
G1 X109.025 Y117.3 E228.30582
G1 X108.679 Y116.681 E228.57034
G1 X91.951 Y121.163 E235.03031
G1 X91.968 Y120.646 E235.22326
G1 X92.053 Y120.093 E235.43196
G1 X102.403 Y130.443 E240.89189
G1 X102.759 Y130.382 E241.02662
G1 X106.965 Y114.686 E247.0881
G1 X106.689 Y114.454 E247.22259
G1 X92.549 Y118.243 E252.68317
G1 X92.364 Y118.771 E252.89186
G1 X92.208 Y119.325 E253.10655
G1 X92.116 Y119.739 E253.26475
G1 X107.812 Y115.533 E259.32623
G1 X108.044 Y115.812 E259.46158
G1 X104.256 Y129.949 E264.92098
G1 X103.916 Y130.07 E265.0556
G1 X92.428 Y118.582 E271.11585
G1 X92.358 Y118.512
G1 F1500 E270.11585
G1 F600 Z1.3
;MESH:NONMESH
G0 F6000 X101.565 Y130.882 Z1.3
;TIME_ELAPSED:30.670657
;LAYER:1
;MESH:Sajad.stl
G0 X101.565 Y130.882 Z1.6
;TYPE:WALL-INNER
G1 F600 Z0.6
G1 F1500 E271.27128
G1 F1800 X102.085 Y130.835 E271.46604
G1 X102.692 Y130.746 E271.69488
G1 X103.252 Y130.625 E271.90859
G1 X103.825 Y130.466 E272.13041
G1 X104.333 Y130.287 E272.33132
G1 X104.861 Y130.069 E272.5444
G1 X105.37 Y129.823 E272.75528
G1 X105.865 Y129.543 E272.96742
G1 X106.342 Y129.234 E273.17942
G1 X106.794 Y128.9 E273.38906
G1 X107.234 Y128.532 E273.60303
G1 X107.648 Y128.144 E273.81468
G1 X108.036 Y127.731 E274.02606
G1 X108.4 Y127.294 E274.23821
G1 X108.738 Y126.836 E274.45054
G1 X109.045 Y126.361 E274.66151
G1 X109.325 Y125.866 E274.87365
G1 X109.569 Y125.361 E275.08286
G1 X109.788 Y124.831 E275.29677
G1 X109.963 Y124.325 E275.49649
G1 X110.127 Y123.745 E275.72132
G1 X110.246 Y123.192 E275.93232
G1 X110.339 Y122.585 E276.16139
G1 X110.382 Y122.067 E276.35528
G1 X110.399 Y121.498 E276.56762
G1 X110.382 Y120.93 E276.77959
G1 X110.335 Y120.415 E276.97249
G1 X110.246 Y119.806 E277.20207
G1 X110.125 Y119.248 E277.41506
G1 X109.966 Y118.675 E277.63687
G1 X109.787 Y118.167 E277.83779
G1 X109.569 Y117.639 E278.05087
G1 X109.323 Y117.13 E278.26175
G1 X109.043 Y116.635 E278.47388
G1 X108.734 Y116.158 E278.68589
G1 X108.4 Y115.706 E278.89553
G1 X108.032 Y115.266 E279.10949
G1 X107.644 Y114.852 E279.32115
G1 X107.231 Y114.464 E279.53252
G1 X106.794 Y114.1 E279.74467
G1 X106.336 Y113.762 E279.957
G1 X105.861 Y113.455 E280.16797
G1 X105.366 Y113.175 E280.38011
G1 X104.861 Y112.931 E280.58932
G1 X104.335 Y112.714 E280.80157
G1 X103.825 Y112.537 E281.00294
G1 X103.25 Y112.375 E281.22578
G1 X102.69 Y112.254 E281.43949
G1 X102.085 Y112.161 E281.66782
G1 X101.567 Y112.118 E281.86171
G1 X101 Y112.101 E282.0733
G1 X100.435 Y112.118 E282.28416
G1 X99.915 Y112.165 E282.47892
G1 X99.308 Y112.254 E282.70776
G1 X98.748 Y112.375 E282.92147
G1 X98.175 Y112.534 E283.14329
G1 X97.667 Y112.713 E283.3442
G1 X97.139 Y112.931 E283.55728
G1 X96.63 Y113.177 E283.76816
G1 X96.135 Y113.457 E283.9803
G1 X95.658 Y113.766 E284.1923
G1 X95.206 Y114.1 E284.40194
G1 X94.766 Y114.468 E284.61591
G1 X94.352 Y114.856 E284.82756
G1 X93.964 Y115.269 E285.03894
G1 X93.6 Y115.706 E285.25109
G1 X93.262 Y116.164 E285.46342
G1 X92.955 Y116.639 E285.67439
G1 X92.675 Y117.134 E285.88653
G1 X92.431 Y117.639 E286.09574
G1 X92.212 Y118.169 E286.30965
G1 X92.037 Y118.675 E286.50937
G1 X91.873 Y119.255 E286.7342
G1 X91.754 Y119.808 E286.9452
G1 X91.661 Y120.415 E287.17427
G1 X91.618 Y120.933 E287.36816
G1 X91.601 Y121.501 E287.58013
G1 X91.618 Y122.065 E287.7906
G1 X91.665 Y122.585 E287.98536
G1 X91.754 Y123.194 E288.21495
G1 X91.873 Y123.747 E288.42595
G1 X92.034 Y124.325 E288.64976
G1 X92.211 Y124.829 E288.84902
G1 X92.431 Y125.361 E289.06377
G1 X92.675 Y125.866 E289.27298
G1 X92.955 Y126.361 E289.48511
G1 X93.262 Y126.836 E289.69608
G1 X93.6 Y127.294 E289.90841
G1 X93.964 Y127.731 E290.12056
G1 X94.352 Y128.144 E290.33194
G1 X94.766 Y128.532 E290.54359
G1 X95.206 Y128.9 E290.75756
G1 X95.658 Y129.234 E290.9672
G1 X96.136 Y129.543 E291.17952
G1 X96.63 Y129.823 E291.39133
G1 X97.139 Y130.069 E291.60221
G1 X97.665 Y130.286 E291.81446
G1 X98.175 Y130.463 E292.01583
G1 X98.75 Y130.625 E292.23866
G1 X99.31 Y130.746 E292.45238
G1 X99.915 Y130.839 E292.6807
G1 X100.433 Y130.882 E292.87459
G1 X101 Y130.899 E293.08619
G1 X101.565 Y130.882 E293.29704
G0 F6000 X101.589 Y131.282
;TYPE:WALL-OUTER
G1 F1800 X102.132 Y131.233 E293.50041
G1 X102.764 Y131.14 E293.7387
G1 X103.348 Y131.013 E293.96164
G1 X103.945 Y130.848 E294.19268
G1 X104.476 Y130.661 E294.40267
G1 X105.025 Y130.434 E294.62428
G1 X105.556 Y130.177 E294.84433
G1 X106.072 Y129.885 E295.06549
G1 X106.57 Y129.563 E295.2867
G1 X107.041 Y129.215 E295.50515
G1 X107.5 Y128.832 E295.72814
G1 X107.931 Y128.427 E295.94875
G1 X108.336 Y127.996 E296.16937
G1 X108.715 Y127.541 E296.39026
G1 X109.067 Y127.064 E296.61139
G1 X109.387 Y126.568 E296.83157
G1 X109.679 Y126.052 E297.05273
G1 X109.934 Y125.525 E297.27112
G1 X110.162 Y124.973 E297.4939
G1 X110.345 Y124.445 E297.70235
G1 X110.515 Y123.842 E297.93604
G1 X110.64 Y123.264 E298.15663
G1 X110.737 Y122.632 E298.39514
G1 X110.782 Y122.089 E298.59839
G1 X110.799 Y121.498 E298.81893
G1 X110.782 Y120.906 E299.03985
G1 X110.733 Y120.368 E299.24137
G1 X110.64 Y119.734 E299.48039
G1 X110.513 Y119.152 E299.7026
G1 X110.348 Y118.555 E299.93364
G1 X110.161 Y118.024 E300.14364
G1 X109.934 Y117.475 E300.36524
G1 X109.677 Y116.944 E300.58529
G1 X109.385 Y116.428 E300.80645
G1 X109.063 Y115.93 E301.02766
G1 X108.715 Y115.459 E301.24611
G1 X108.332 Y115 E301.4691
G1 X107.927 Y114.569 E301.68972
G1 X107.496 Y114.164 E301.91033
G1 X107.041 Y113.785 E302.13122
G1 X106.564 Y113.433 E302.35235
G1 X106.068 Y113.113 E302.57254
G1 X105.552 Y112.821 E302.7937
G1 X105.025 Y112.566 E303.01208
G1 X104.477 Y112.34 E303.2332
G1 X103.945 Y112.155 E303.4433
G1 X103.347 Y111.987 E303.675
G1 X102.763 Y111.86 E303.89794
G1 X102.132 Y111.763 E304.13608
G1 X101.589 Y111.718 E304.33932
G1 X101 Y111.701 E304.55912
G1 X100.411 Y111.718 E304.77892
G1 X99.868 Y111.767 E304.98229
G1 X99.236 Y111.86 E305.22058
G1 X98.652 Y111.987 E305.44351
G1 X98.055 Y112.152 E305.67455
G1 X97.524 Y112.339 E305.88455
G1 X96.975 Y112.566 E306.10615
G1 X96.444 Y112.823 E306.32621
G1 X95.928 Y113.115 E306.54737
G1 X95.43 Y113.437 E306.76858
G1 X94.959 Y113.785 E306.98703
G1 X94.5 Y114.168 E307.21002
G1 X94.069 Y114.573 E307.43063
G1 X93.664 Y115.004 E307.65125
G1 X93.285 Y115.459 E307.87214
G1 X92.933 Y115.936 E308.09327
G1 X92.613 Y116.432 E308.31345
G1 X92.321 Y116.948 E308.53461
G1 X92.066 Y117.475 E308.753
G1 X91.838 Y118.027 E308.97578
G1 X91.655 Y118.555 E309.18422
G1 X91.485 Y119.158 E309.41792
G1 X91.36 Y119.736 E309.63851
G1 X91.263 Y120.368 E309.87702
G1 X91.218 Y120.911 E310.08027
G1 X91.201 Y121.501 E310.30044
G1 X91.218 Y122.089 E310.51987
G1 X91.267 Y122.632 E310.72324
G1 X91.36 Y123.265 E310.96189
