;FLAVOR:Marlin
;TIME:366
;Filament used: 3.50268m, 0m
;Layer height: 0.3
;MINX:91.201
;MINY:111.701
;MINZ:0.3
;MAXX:110.799
;MAXY:131.299
;MAXZ:7
;Generated with Cura_SteamEngine 5.0.1
T0
M140 S40
M105
M190 S40
M104 S200
M105
M109 S200
M82 ;absolute extrusion mode
M900 K0.020;
G28 ; home all axes
G1 Z5 F5000 ; lift nozzle
G1 X-45 Y70 F2500; go to glycerin roller;
G92 E0
G1 X-23 F5000; park to start
G92 E0; Extrude a small amount to clear nozzle
G1 E20 F4000
G4 P2000
G92 E0


G92 E0
G1 F1500 E-1
;LAYER_COUNT:20
;LAYER:0
M107
M204 S500
G1 F600 Z1.3
;MESH:Sajad.stl
G0 F6000 X101.565 Y130.882 Z1.3
;TYPE:WALL-INNER
G1 F600 Z0.3
G1 F1500 E0.15542
G1 F1800 X102.085 Y130.835 E0.35019
G1 X102.692 Y130.746 E0.57903
G1 X103.252 Y130.625 E0.79274
G1 X103.811 Y130.47 E1.00913
G1 X104.32 Y130.291 E1.21039
G1 X104.845 Y130.075 E1.42215
G1 X105.37 Y129.821 E1.6397
G1 X105.865 Y129.543 E1.85148
G1 X106.33 Y129.242 E2.0581
G1 X106.782 Y128.909 E2.26752
G1 X107.224 Y128.541 E2.48206
G1 X107.648 Y128.144 E2.69873
G1 X108.026 Y127.741 E2.90483
G1 X108.392 Y127.304 E3.11746
G1 X108.738 Y126.836 E3.33456
G1 X109.045 Y126.361 E3.54553
G1 X109.318 Y125.878 E3.75249
G1 X109.563 Y125.373 E3.96186
G1 X109.788 Y124.83 E4.18111
G1 X109.963 Y124.325 E4.38048
G1 X110.121 Y123.763 E4.59824
G1 X110.243 Y123.203 E4.81203
G1 X110.337 Y122.599 E5.04005
G1 X110.381 Y122.082 E5.2336
G1 X110.399 Y121.512 E5.44632
G1 X110.382 Y120.929 E5.66389
G1 X110.335 Y120.415 E5.85642
G1 X110.246 Y119.806 E6.086
G1 X110.125 Y119.248 E6.29898
G1 X109.97 Y118.689 E6.51537
G1 X109.792 Y118.18 E6.71651
G1 X109.574 Y117.653 E6.92925
G1 X109.322 Y117.13 E7.1458
G1 X109.043 Y116.635 E7.35775
G1 X108.742 Y116.17 E7.56438
G1 X108.409 Y115.718 E7.7738
G1 X108.041 Y115.276 E7.98834
G1 X107.644 Y114.852 E8.205
G1 X107.241 Y114.474 E8.41111
G1 X106.804 Y114.108 E8.62374
G1 X106.336 Y113.762 E8.84084
G1 X105.861 Y113.455 E9.05181
G1 X105.378 Y113.182 E9.25877
G1 X104.874 Y112.937 E9.46781
G1 X104.334 Y112.714 E9.68574
G1 X103.825 Y112.537 E9.88676
G1 X103.263 Y112.379 E10.10452
G1 X102.703 Y112.257 E10.31831
G1 X102.099 Y112.163 E10.54633
G1 X101.582 Y112.119 E10.73987
G1 X101.014 Y112.101 E10.95186
G1 X100.435 Y112.118 E11.16793
G1 X99.915 Y112.165 E11.36269
G1 X99.308 Y112.254 E11.59153
G1 X98.748 Y112.375 E11.80524
G1 X98.189 Y112.53 E12.02163
G1 X97.68 Y112.709 E12.22289
G1 X97.155 Y112.924 E12.43451
G1 X96.63 Y113.179 E12.65223
G1 X96.135 Y113.457 E12.864
G1 X95.67 Y113.758 E13.07062
G1 X95.218 Y114.091 E13.28004
G1 X94.776 Y114.459 E13.49458
G1 X94.352 Y114.856 E13.71125
G1 X93.974 Y115.259 E13.91736
G1 X93.608 Y115.696 E14.12998
G1 X93.262 Y116.164 E14.34709
G1 X92.955 Y116.639 E14.55806
G1 X92.682 Y117.122 E14.76501
G1 X92.437 Y117.627 E14.97439
G1 X92.212 Y118.17 E15.19364
G1 X92.037 Y118.675 E15.393
G1 X91.879 Y119.237 E15.61077
G1 X91.757 Y119.797 E15.82456
G1 X91.663 Y120.401 E16.05257
G1 X91.619 Y120.918 E16.24612
G1 X91.601 Y121.488 E16.45885
G1 X91.618 Y122.065 E16.67417
G1 X91.665 Y122.585 E16.86893
G1 X91.754 Y123.194 E17.09851
G1 X91.873 Y123.747 E17.30952
G1 X92.03 Y124.311 E17.5279
G1 X92.207 Y124.816 E17.72751
G1 X92.424 Y125.344 E17.94045
G1 X92.678 Y125.868 E18.15766
G1 X92.955 Y126.361 E18.3686
G1 X93.255 Y126.825 E18.57471
G1 X93.591 Y127.282 E18.78629
G1 X93.956 Y127.72 E18.99897
G1 X94.352 Y128.144 E19.21538
G1 X94.757 Y128.525 E19.4228
G1 X95.194 Y128.891 E19.63543
G1 X95.658 Y129.234 E19.85067
G1 X96.136 Y129.543 E20.06298
G1 X96.618 Y129.816 E20.26961
G1 X97.127 Y130.063 E20.48065
G1 X97.666 Y130.286 E20.69824
G1 X98.175 Y130.463 E20.89926
G1 X98.737 Y130.621 E21.11702
G1 X99.297 Y130.743 E21.33081
G1 X99.901 Y130.837 E21.55883
G1 X100.418 Y130.881 E21.75238
G1 X100.986 Y130.899 E21.96436
G1 X101.565 Y130.882 E22.18043
G0 F6000 X101.589 Y131.282
;TYPE:WALL-OUTER
G1 F1800 X102.132 Y131.233 E22.3838
G1 X102.764 Y131.14 E22.62209
G1 X103.348 Y131.013 E22.84502
G1 X103.931 Y130.852 E23.07064
G1 X104.462 Y130.665 E23.28063
G1 X105.008 Y130.441 E23.50077
G1 X105.556 Y130.176 E23.72784
G1 X106.072 Y129.885 E23.94881
G1 X106.558 Y129.571 E24.16465
G1 X107.029 Y129.224 E24.38287
G1 X107.489 Y128.841 E24.60615
G1 X107.931 Y128.427 E24.83205
G1 X108.326 Y128.007 E25.04712
G1 X108.706 Y127.552 E25.26825
G1 X109.067 Y127.064 E25.49468
G1 X109.387 Y126.568 E25.71486
G1 X109.672 Y126.064 E25.93084
G1 X109.928 Y125.537 E26.14939
G1 X110.162 Y124.972 E26.3775
G1 X110.345 Y124.445 E26.5856
G1 X110.509 Y123.86 E26.81223
G1 X110.637 Y123.277 E27.03488
G1 X110.735 Y122.647 E27.27271
G1 X110.781 Y122.105 E27.47561
G1 X110.799 Y121.512 E27.69691
G1 X110.782 Y120.905 E27.92342
G1 X110.733 Y120.368 E28.12457
G1 X110.64 Y119.734 E28.36359
G1 X110.513 Y119.152 E28.5858
G1 X110.352 Y118.569 E28.81141
G1 X110.166 Y118.038 E29.02128
G1 X109.94 Y117.489 E29.24274
G1 X109.676 Y116.944 E29.46863
G1 X109.385 Y116.428 E29.68961
G1 X109.071 Y115.942 E29.90544
G1 X108.724 Y115.471 E30.12367
G1 X108.341 Y115.011 E30.34695
G1 X107.927 Y114.569 E30.57285
G1 X107.507 Y114.174 E30.78792
G1 X107.052 Y113.794 E31.00905
G1 X106.564 Y113.433 E31.23548
G1 X106.068 Y113.113 E31.45566
G1 X105.564 Y112.828 E31.67164
G1 X105.038 Y112.572 E31.88985
G1 X104.476 Y112.34 E32.11665
G1 X103.945 Y112.155 E32.3264
G1 X103.36 Y111.991 E32.55303
G1 X102.777 Y111.863 E32.77568
G1 X102.147 Y111.765 E33.0135
G1 X101.605 Y111.719 E33.21641
G1 X101.014 Y111.701 E33.43696
G1 X100.411 Y111.718 E33.66198
G1 X99.868 Y111.767 E33.86536
G1 X99.236 Y111.86 E34.10364
G1 X98.652 Y111.987 E34.32658
G1 X98.069 Y112.148 E34.55219
G1 X97.538 Y112.335 E34.76219
G1 X96.992 Y112.559 E34.98233
G1 X96.444 Y112.824 E35.20939
G1 X95.928 Y113.115 E35.43037
G1 X95.442 Y113.429 E35.6462
G1 X94.971 Y113.776 E35.86442
G1 X94.511 Y114.159 E36.0877
G1 X94.069 Y114.573 E36.31361
G1 X93.674 Y114.993 E36.52868
G1 X93.294 Y115.448 E36.74981
G1 X92.933 Y115.936 E36.97623
G1 X92.613 Y116.432 E37.19641
G1 X92.328 Y116.936 E37.41239
G1 X92.072 Y117.463 E37.63094
G1 X91.838 Y118.028 E37.85906
G1 X91.655 Y118.555 E38.06715
G1 X91.491 Y119.14 E38.29378
G1 X91.363 Y119.723 E38.51643
G1 X91.265 Y120.353 E38.75426
G1 X91.219 Y120.895 E38.95716
G1 X91.201 Y121.488 E39.17847
G1 X91.218 Y122.089 E39.40274
G1 X91.267 Y122.632 E39.60611
G1 X91.36 Y123.265 E39.84477
G1 X91.485 Y123.843 E40.06536
G1 X91.648 Y124.431 E40.29297
G1 X91.833 Y124.958 E40.50131
G1 X92.059 Y125.508 E40.72311
G1 X92.323 Y126.054 E40.94934
G1 X92.613 Y126.568 E41.16948
G1 X92.925 Y127.052 E41.38429
G1 X93.276 Y127.528 E41.6049
G1 X93.656 Y127.985 E41.8266
G1 X94.069 Y128.427 E42.05225
G1 X94.491 Y128.824 E42.26837
G1 X94.946 Y129.205 E42.48974
G1 X95.43 Y129.563 E42.7143
G1 X95.928 Y129.885 E42.93552
G1 X96.432 Y130.17 E43.15149
G1 X96.963 Y130.428 E43.37171
G1 X97.524 Y130.66 E43.59816
G1 X98.055 Y130.845 E43.80791
G1 X98.64 Y131.009 E44.03454
G1 X99.223 Y131.137 E44.25719
G1 X99.853 Y131.235 E44.49502
G1 X100.395 Y131.281 E44.69792
G1 X100.986 Y131.299 E44.91848
G1 X101.589 Y131.282 E45.1435
G0 F6000 X101.788 Y131.265
G1 F1500 E44.1435
G1 F600 Z1.3
G0 F6000 X93.184 Y126.078 Z1.3
;TYPE:FILL
G1 F600 Z0.3
G1 F1500 E45.29893
G1 F2400 X110.056 Y121.557 E51.81454
G1 X110.032 Y122.354 E52.11197
G1 X109.908 Y123.146 E52.411
G1 X109.823 Y123.534 E52.55916
G1 X98.965 Y112.676 E58.28707
G1 X99.362 Y112.59 E58.4386
G1 X100.212 Y112.464 E58.75913
G1 X100.942 Y112.442 E59.03156
G1 X96.419 Y129.321 E65.54988
G1 X95.851 Y128.953 E65.80234
G1 X95.4 Y128.62 E66.01146
G1 X94.81 Y128.126 E66.2985
G1 X109.665 Y124.146 E72.03514
G1 X109.472 Y124.704 E72.25538
G1 X109.256 Y125.228 E72.4668
G1 X108.885 Y125.99 E72.78294
G1 X96.51 Y113.615 E79.31111
G1 X97.293 Y113.235 E79.63577
G1 X97.796 Y113.029 E79.83852
G1 X98.351 Y112.837 E80.05759
G1 X94.371 Y127.688 E85.79278
G1 X93.856 Y127.067 E86.09372
G1 X93.531 Y126.626 E86.29807
G1 X93.244 Y126.181 E86.49559
G1 X92.981 Y125.714 E86.69551
G1 X92.617 Y124.963 E87.00682
G1 X95.467 Y114.327 E91.11422
G1 X94.996 Y114.718 E91.34256
G1 X94.596 Y115.095 E91.5476
G1 X107.404 Y127.903 E98.30419
G1 X107.768 Y127.521 E98.50102
G1 X108.168 Y127.032 E98.73668
G1 X97.561 Y129.874 E102.83285
G1 X97.782 Y129.966 E102.92215
G1 X98.271 Y130.136 E103.11526
G1 X98.657 Y130.243 E103.26468
G1 X103.346 Y112.745 E110.02206
G1 X102.647 Y112.592 E110.28898
G1 X102.205 Y112.522 E110.45591
G1 X109.973 Y120.29 E114.55375
G1 X109.91 Y119.86 E114.71586
G1 X109.757 Y119.152 E114.98606
G1 X92.243 Y123.845 E121.7496
G1 X92.089 Y123.134 E122.02096
G1 X92.025 Y122.707 E122.18202
G1 X99.794 Y130.476 E126.28039
G1 X100.145 Y130.532 E126.41298
G1 X101.057 Y130.557 E126.7533
G1 X105.578 Y113.686 E133.26855
G1 X105.214 Y113.48 E133.42457
G1 X104.465 Y113.116 E133.73521
G1 X93.83 Y115.966 E137.84224
G1 X93.546 Y116.353 E138.0213
G1 X93.243 Y116.821 E138.22927
G1 X92.986 Y117.275 E138.42387
G1 X92.744 Y117.772 E138.63007
G1 X92.528 Y118.296 E138.84149
G1 X92.341 Y118.85 E139.0596
G1 X107.173 Y114.875 E144.78747
G1 X107.623 Y115.327 E145.02538
G1 X103.648 Y130.161 E150.75397
G1 X103.042 Y130.329 E150.98855
G1 X92.177 Y119.464 E156.72015
G1 X92.092 Y119.854 E156.86904
G1 X91.968 Y120.646 E157.16807
G1 X91.943 Y121.441 E157.46477
G1 X108.813 Y116.921 E163.97957
G1 X109.017 Y117.281 E164.13392
G1 X109.383 Y118.033 E164.44589
G1 X106.532 Y128.67 E168.55374
G1 X106.143 Y128.958 E168.73429
G1 X105.487 Y129.381 E169.02545
G1 X93.128 Y117.021 E175.54544
G1 X93.058 Y116.951
G1 F1500 E174.54544
G1 F600 Z1.3
;MESH:NONMESH
G0 F6000 X101.565 Y130.882 Z1.3
;TIME_ELAPSED:21.742309
;LAYER:1
;MESH:Sajad.stl
G0 X101.565 Y130.882 Z1.6
;TYPE:WALL-INNER
G1 F600 Z0.6
G1 F1500 E175.70087
G1 F1800 X102.085 Y130.835 E175.89563
G1 X102.692 Y130.746 E176.12447
G1 X103.252 Y130.625 E176.33818
G1 X103.825 Y130.466 E176.56
G1 X104.333 Y130.287 E176.76091
G1 X104.861 Y130.069 E176.974
G1 X105.37 Y129.823 E177.18487
G1 X105.865 Y129.543 E177.39701
G1 X106.342 Y129.234 E177.60901
G1 X106.794 Y128.9 E177.81866
G1 X107.234 Y128.532 E178.03262
G1 X107.648 Y128.144 E178.24427
G1 X108.036 Y127.731 E178.45565
G1 X108.4 Y127.294 E178.6678
G1 X108.738 Y126.836 E178.88013
G1 X109.045 Y126.361 E179.0911
G1 X109.325 Y125.866 E179.30324
G1 X109.569 Y125.361 E179.51245
G1 X109.788 Y124.831 E179.72636
G1 X109.963 Y124.325 E179.92608
G1 X110.127 Y123.745 E180.15091
G1 X110.246 Y123.192 E180.36192
G1 X110.339 Y122.585 E180.59098
G1 X110.382 Y122.067 E180.78487
G1 X110.399 Y121.498 E180.99721
G1 X110.382 Y120.93 E181.20918
G1 X110.335 Y120.415 E181.40209
G1 X110.246 Y119.806 E181.63167
G1 X110.125 Y119.248 E181.84465
G1 X109.966 Y118.675 E182.06647
G1 X109.787 Y118.167 E182.26738
G1 X109.569 Y117.639 E182.48046
G1 X109.323 Y117.13 E182.69134
G1 X109.043 Y116.635 E182.90348
G1 X108.734 Y116.158 E183.11548
G1 X108.4 Y115.706 E183.32512
G1 X108.032 Y115.266 E183.53909
G1 X107.644 Y114.852 E183.75074
G1 X107.231 Y114.464 E183.96212
G1 X106.794 Y114.1 E184.17427
G1 X106.336 Y113.762 E184.3866
G1 X105.861 Y113.455 E184.59757
G1 X105.366 Y113.175 E184.8097
G1 X104.861 Y112.931 E185.01891
G1 X104.335 Y112.714 E185.23116
G1 X103.825 Y112.537 E185.43254
G1 X103.25 Y112.375 E185.65537
G1 X102.69 Y112.254 E185.86908
G1 X102.085 Y112.161 E186.09741
G1 X101.567 Y112.118 E186.2913
G1 X101 Y112.101 E186.5029
G1 X100.435 Y112.118 E186.71375
G1 X99.915 Y112.165 E186.90851
G1 X99.308 Y112.254 E187.13735
G1 X98.748 Y112.375 E187.35106
G1 X98.175 Y112.534 E187.57288
G1 X97.667 Y112.713 E187.77379
G1 X97.139 Y112.931 E187.98687
G1 X96.63 Y113.177 E188.19775
G1 X96.135 Y113.457 E188.40989
G1 X95.658 Y113.766 E188.62189
G1 X95.206 Y114.1 E188.83154
G1 X94.766 Y114.468 E189.0455
G1 X94.352 Y114.856 E189.25715
G1 X93.964 Y115.269 E189.46853
G1 X93.6 Y115.706 E189.68068
G1 X93.262 Y116.164 E189.89301
G1 X92.955 Y116.639 E190.10398
G1 X92.675 Y117.134 E190.31612
G1 X92.431 Y117.639 E190.52533
G1 X92.212 Y118.169 E190.73924
G1 X92.037 Y118.675 E190.93896
G1 X91.873 Y119.255 E191.16379
G1 X91.754 Y119.808 E191.37479
G1 X91.661 Y120.415 E191.60386
G1 X91.618 Y120.933 E191.79775
G1 X91.601 Y121.501 E192.00972
G1 X91.618 Y122.065 E192.2202
G1 X91.665 Y122.585 E192.41496
G1 X91.754 Y123.194 E192.64454
G1 X91.873 Y123.747 E192.85554
G1 X92.034 Y124.325 E193.07935
G1 X92.211 Y124.829 E193.27861
G1 X92.431 Y125.361 E193.49336
G1 X92.675 Y125.866 E193.70257
G1 X92.955 Y126.361 E193.91471
G1 X93.262 Y126.836 E194.12568
G1 X93.6 Y127.294 E194.33801
G1 X93.964 Y127.731 E194.55016
G1 X94.352 Y128.144 E194.76153
G1 X94.766 Y128.532 E194.97319
G1 X95.206 Y128.9 E195.18715
G1 X95.658 Y129.234 E195.39679
G1 X96.136 Y129.543 E195.60911
G1 X96.63 Y129.823 E195.82092
G1 X97.139 Y130.069 E196.0318
G1 X97.665 Y130.286 E196.24405
G1 X98.175 Y130.463 E196.44542
G1 X98.75 Y130.625 E196.66826
G1 X99.31 Y130.746 E196.88197
G1 X99.915 Y130.839 E197.1103
G1 X100.433 Y130.882 E197.30419
G1 X101 Y130.899 E197.51578
G1 X101.565 Y130.882 E197.72663
G0 F6000 X101.589 Y131.282
;TYPE:WALL-OUTER
G1 F1800 X102.132 Y131.233 E197.93001
G1 X102.764 Y131.14 E198.16829
G1 X103.348 Y131.013 E198.39123
G1 X103.945 Y130.848 E198.62227
G1 X104.476 Y130.661 E198.83227
G1 X105.025 Y130.434 E199.05387
G1 X105.556 Y130.177 E199.27392
G1 X106.072 Y129.885 E199.49508
G1 X106.57 Y129.563 E199.7163
G1 X107.041 Y129.215 E199.93474
G1 X107.5 Y128.832 E200.15773
G1 X107.931 Y128.427 E200.37835
G1 X108.336 Y127.996 E200.59896
G1 X108.715 Y127.541 E200.81985
G1 X109.067 Y127.064 E201.04098
G1 X109.387 Y126.568 E201.26117
G1 X109.679 Y126.052 E201.48233
G1 X109.934 Y125.525 E201.70071
G1 X110.162 Y124.973 E201.92349
G1 X110.345 Y124.445 E202.13194
G1 X110.515 Y123.842 E202.36564
G1 X110.64 Y123.264 E202.58623
G1 X110.737 Y122.632 E202.82474
G1 X110.782 Y122.089 E203.02798
G1 X110.799 Y121.498 E203.24853
G1 X110.782 Y120.906 E203.46944
G1 X110.733 Y120.368 E203.67096
G1 X110.64 Y119.734 E203.90998
G1 X110.513 Y119.152 E204.13219
G1 X110.348 Y118.555 E204.36323
G1 X110.161 Y118.024 E204.57323
G1 X109.934 Y117.475 E204.79483
G1 X109.677 Y116.944 E205.01488
G1 X109.385 Y116.428 E205.23604
G1 X109.063 Y115.93 E205.45726
G1 X108.715 Y115.459 E205.6757
G1 X108.332 Y115 E205.8987
G1 X107.927 Y114.569 E206.11931
G1 X107.496 Y114.164 E206.33992
G1 X107.041 Y113.785 E206.56081
G1 X106.564 Y113.433 E206.78195
G1 X106.068 Y113.113 E207.00213
G1 X105.552 Y112.821 E207.22329
G1 X105.025 Y112.566 E207.44167
G1 X104.477 Y112.34 E207.66279
G1 X103.945 Y112.155 E207.87289
G1 X103.347 Y111.987 E208.10459
G1 X102.763 Y111.86 E208.32753
G1 X102.132 Y111.763 E208.56567
G1 X101.589 Y111.718 E208.76891
G1 X101 Y111.701 E208.98871
G1 X100.411 Y111.718 E209.20851
G1 X99.868 Y111.767 E209.41188
G1 X99.236 Y111.86 E209.65017
G1 X98.652 Y111.987 E209.87311
G1 X98.055 Y112.152 E210.10415
G1 X97.524 Y112.339 E210.31414
G1 X96.975 Y112.566 E210.53575
G1 X96.444 Y112.823 E210.7558
G1 X95.928 Y113.115 E210.97696
G1 X95.43 Y113.437 E211.19817
G1 X94.959 Y113.785 E211.41662
G1 X94.5 Y114.168 E211.63961
G1 X94.069 Y114.573 E211.86023
G1 X93.664 Y115.004 E212.08084
G1 X93.285 Y115.459 E212.30173
G1 X92.933 Y115.936 E212.52286
G1 X92.613 Y116.432 E212.74304
G1 X92.321 Y116.948 E212.9642
G1 X92.066 Y117.475 E213.18259
G1 X91.838 Y118.027 E213.40537
G1 X91.655 Y118.555 E213.61382
G1 X91.485 Y119.158 E213.84752
G1 X91.36 Y119.736 E214.06811
G1 X91.263 Y120.368 E214.30661
G1 X91.218 Y120.911 E214.50986
G1 X91.201 Y121.501 E214.73003
G1 X91.218 Y122.089 E214.94946
G1 X91.267 Y122.632 E215.15283
G1 X91.36 Y123.265 E215.39149
G1 X91.485 Y123.843 E215.61208
G1 X91.652 Y124.445 E215.84511
G1 X91.837 Y124.972 E216.05346
G1 X92.066 Y125.525 E216.27672
G1 X92.321 Y126.052 E216.49511
G1 X92.613 Y126.568 E216.71627
G1 X92.933 Y127.064 E216.93645
G1 X93.285 Y127.541 E217.15758
G1 X93.664 Y127.996 E217.37847
G1 X94.069 Y128.427 E217.59909
G1 X94.5 Y128.832 E217.8197
G1 X94.959 Y129.215 E218.04269
G1 X95.43 Y129.563 E218.26114
G1 X95.928 Y129.885 E218.48235
G1 X96.444 Y130.177 E218.70351
G1 X96.975 Y130.434 E218.92356
G1 X97.523 Y130.66 E219.14468
G1 X98.055 Y130.845 E219.35478
G1 X98.653 Y131.013 E219.58648
G1 X99.237 Y131.14 E219.80942
G1 X99.868 Y131.237 E220.04756
