;FLAVOR:Marlin
;TIME:413
;Filament used: 4.00031m, 0m
;Layer height: 0.3
;MINX:91.201
;MINY:111.701
;MINZ:0.3
;MAXX:110.799
;MAXY:131.299
;MAXZ:7
;Generated with Cura_SteamEngine 5.0.1
T0
M140 S40
M105
M190 S40
M104 S200
M105
M109 S200
M82 ;absolute extrusion mode
M900 K0.020;
G28 ; home all axes
G1 Z5 F5000 ; lift nozzle
G1 X-45 Y70 F2500; go to glycerin roller;
G92 E0
G1 X-23 F5000; park to start
G92 E0; Extrude a small amount to clear nozzle
G1 E20 F4000
G4 P2000
G92 E0


G92 E0
G1 F1500 E-1
;LAYER_COUNT:20
;LAYER:0
M107
M204 S500
G1 F600 Z1.3
;MESH:Sajad.stl
G0 F6000 X101.565 Y130.882 Z1.3
;TYPE:WALL-INNER
G1 F600 Z0.3
G1 F1500 E0.15542
G1 F1800 X102.085 Y130.835 E0.35019
G1 X102.692 Y130.746 E0.57903
G1 X103.252 Y130.625 E0.79274
G1 X103.811 Y130.47 E1.00913
G1 X104.32 Y130.291 E1.21039
G1 X104.845 Y130.075 E1.42215
G1 X105.37 Y129.821 E1.6397
G1 X105.865 Y129.543 E1.85148
G1 X106.33 Y129.242 E2.0581
G1 X106.782 Y128.909 E2.26752
G1 X107.224 Y128.541 E2.48206
G1 X107.648 Y128.144 E2.69873
G1 X108.026 Y127.741 E2.90483
G1 X108.392 Y127.304 E3.11746
G1 X108.738 Y126.836 E3.33456
G1 X109.045 Y126.361 E3.54553
G1 X109.318 Y125.878 E3.75249
G1 X109.563 Y125.373 E3.96186
G1 X109.788 Y124.83 E4.18111
G1 X109.963 Y124.325 E4.38048
G1 X110.121 Y123.763 E4.59824
G1 X110.243 Y123.203 E4.81203
G1 X110.337 Y122.599 E5.04005
G1 X110.381 Y122.082 E5.2336
G1 X110.399 Y121.512 E5.44632
G1 X110.382 Y120.929 E5.66389
G1 X110.335 Y120.415 E5.85642
G1 X110.246 Y119.806 E6.086
G1 X110.125 Y119.248 E6.29898
G1 X109.97 Y118.689 E6.51537
G1 X109.792 Y118.18 E6.71651
G1 X109.574 Y117.653 E6.92925
G1 X109.322 Y117.13 E7.1458
G1 X109.043 Y116.635 E7.35775
G1 X108.742 Y116.17 E7.56438
G1 X108.409 Y115.718 E7.7738
G1 X108.041 Y115.276 E7.98834
G1 X107.644 Y114.852 E8.205
G1 X107.241 Y114.474 E8.41111
G1 X106.804 Y114.108 E8.62374
G1 X106.336 Y113.762 E8.84084
G1 X105.861 Y113.455 E9.05181
G1 X105.378 Y113.182 E9.25877
G1 X104.874 Y112.937 E9.46781
G1 X104.334 Y112.714 E9.68574
G1 X103.825 Y112.537 E9.88676
G1 X103.263 Y112.379 E10.10452
G1 X102.703 Y112.257 E10.31831
G1 X102.099 Y112.163 E10.54633
G1 X101.582 Y112.119 E10.73987
G1 X101.014 Y112.101 E10.95186
G1 X100.435 Y112.118 E11.16793
G1 X99.915 Y112.165 E11.36269
G1 X99.308 Y112.254 E11.59153
G1 X98.748 Y112.375 E11.80524
G1 X98.189 Y112.53 E12.02163
G1 X97.68 Y112.709 E12.22289
G1 X97.155 Y112.924 E12.43451
G1 X96.63 Y113.179 E12.65223
G1 X96.135 Y113.457 E12.864
G1 X95.67 Y113.758 E13.07062
G1 X95.218 Y114.091 E13.28004
G1 X94.776 Y114.459 E13.49458
G1 X94.352 Y114.856 E13.71125
G1 X93.974 Y115.259 E13.91736
G1 X93.608 Y115.696 E14.12998
G1 X93.262 Y116.164 E14.34709
G1 X92.955 Y116.639 E14.55806
G1 X92.682 Y117.122 E14.76501
G1 X92.437 Y117.627 E14.97439
G1 X92.212 Y118.17 E15.19364
G1 X92.037 Y118.675 E15.393
G1 X91.879 Y119.237 E15.61077
G1 X91.757 Y119.797 E15.82456
G1 X91.663 Y120.401 E16.05257
G1 X91.619 Y120.918 E16.24612
G1 X91.601 Y121.488 E16.45885
G1 X91.618 Y122.065 E16.67417
G1 X91.665 Y122.585 E16.86893
G1 X91.754 Y123.194 E17.09851
G1 X91.873 Y123.747 E17.30952
G1 X92.03 Y124.311 E17.5279
G1 X92.207 Y124.816 E17.72751
G1 X92.424 Y125.344 E17.94045
G1 X92.678 Y125.868 E18.15766
G1 X92.955 Y126.361 E18.3686
G1 X93.255 Y126.825 E18.57471
G1 X93.591 Y127.282 E18.78629
G1 X93.956 Y127.72 E18.99897
G1 X94.352 Y128.144 E19.21538
G1 X94.757 Y128.525 E19.4228
G1 X95.194 Y128.891 E19.63543
G1 X95.658 Y129.234 E19.85067
G1 X96.136 Y129.543 E20.06298
G1 X96.618 Y129.816 E20.26961
G1 X97.127 Y130.063 E20.48065
G1 X97.666 Y130.286 E20.69824
G1 X98.175 Y130.463 E20.89926
G1 X98.737 Y130.621 E21.11702
G1 X99.297 Y130.743 E21.33081
G1 X99.901 Y130.837 E21.55883
G1 X100.418 Y130.881 E21.75238
G1 X100.986 Y130.899 E21.96436
G1 X101.565 Y130.882 E22.18043
G0 F6000 X101.589 Y131.282
;TYPE:WALL-OUTER
G1 F1800 X102.132 Y131.233 E22.3838
G1 X102.764 Y131.14 E22.62209
G1 X103.348 Y131.013 E22.84502
G1 X103.931 Y130.852 E23.07064
G1 X104.462 Y130.665 E23.28063
G1 X105.008 Y130.441 E23.50077
G1 X105.556 Y130.176 E23.72784
G1 X106.072 Y129.885 E23.94881
G1 X106.558 Y129.571 E24.16465
G1 X107.029 Y129.224 E24.38287
G1 X107.489 Y128.841 E24.60615
G1 X107.931 Y128.427 E24.83205
G1 X108.326 Y128.007 E25.04712
G1 X108.706 Y127.552 E25.26825
G1 X109.067 Y127.064 E25.49468
G1 X109.387 Y126.568 E25.71486
G1 X109.672 Y126.064 E25.93084
G1 X109.928 Y125.537 E26.14939
G1 X110.162 Y124.972 E26.3775
G1 X110.345 Y124.445 E26.5856
G1 X110.509 Y123.86 E26.81223
G1 X110.637 Y123.277 E27.03488
G1 X110.735 Y122.647 E27.27271
G1 X110.781 Y122.105 E27.47561
G1 X110.799 Y121.512 E27.69691
G1 X110.782 Y120.905 E27.92342
G1 X110.733 Y120.368 E28.12457
G1 X110.64 Y119.734 E28.36359
G1 X110.513 Y119.152 E28.5858
G1 X110.352 Y118.569 E28.81141
G1 X110.166 Y118.038 E29.02128
G1 X109.94 Y117.489 E29.24274
G1 X109.676 Y116.944 E29.46863
G1 X109.385 Y116.428 E29.68961
G1 X109.071 Y115.942 E29.90544
G1 X108.724 Y115.471 E30.12367
G1 X108.341 Y115.011 E30.34695
G1 X107.927 Y114.569 E30.57285
G1 X107.507 Y114.174 E30.78792
G1 X107.052 Y113.794 E31.00905
G1 X106.564 Y113.433 E31.23548
G1 X106.068 Y113.113 E31.45566
G1 X105.564 Y112.828 E31.67164
G1 X105.038 Y112.572 E31.88985
G1 X104.476 Y112.34 E32.11665
G1 X103.945 Y112.155 E32.3264
G1 X103.36 Y111.991 E32.55303
G1 X102.777 Y111.863 E32.77568
G1 X102.147 Y111.765 E33.0135
G1 X101.605 Y111.719 E33.21641
G1 X101.014 Y111.701 E33.43696
G1 X100.411 Y111.718 E33.66198
G1 X99.868 Y111.767 E33.86536
G1 X99.236 Y111.86 E34.10364
G1 X98.652 Y111.987 E34.32658
G1 X98.069 Y112.148 E34.55219
G1 X97.538 Y112.335 E34.76219
G1 X96.992 Y112.559 E34.98233
G1 X96.444 Y112.824 E35.20939
G1 X95.928 Y113.115 E35.43037
G1 X95.442 Y113.429 E35.6462
G1 X94.971 Y113.776 E35.86442
G1 X94.511 Y114.159 E36.0877
G1 X94.069 Y114.573 E36.31361
G1 X93.674 Y114.993 E36.52868
G1 X93.294 Y115.448 E36.74981
G1 X92.933 Y115.936 E36.97623
G1 X92.613 Y116.432 E37.19641
G1 X92.328 Y116.936 E37.41239
G1 X92.072 Y117.463 E37.63094
G1 X91.838 Y118.028 E37.85906
G1 X91.655 Y118.555 E38.06715
G1 X91.491 Y119.14 E38.29378
G1 X91.363 Y119.723 E38.51643
G1 X91.265 Y120.353 E38.75426
G1 X91.219 Y120.895 E38.95716
G1 X91.201 Y121.488 E39.17847
G1 X91.218 Y122.089 E39.40274
G1 X91.267 Y122.632 E39.60611
G1 X91.36 Y123.265 E39.84477
G1 X91.485 Y123.843 E40.06536
G1 X91.648 Y124.431 E40.29297
G1 X91.833 Y124.958 E40.50131
G1 X92.059 Y125.508 E40.72311
G1 X92.323 Y126.054 E40.94934
G1 X92.613 Y126.568 E41.16948
G1 X92.925 Y127.052 E41.38429
G1 X93.276 Y127.528 E41.6049
G1 X93.656 Y127.985 E41.8266
G1 X94.069 Y128.427 E42.05225
G1 X94.491 Y128.824 E42.26837
G1 X94.946 Y129.205 E42.48974
G1 X95.43 Y129.563 E42.7143
G1 X95.928 Y129.885 E42.93552
G1 X96.432 Y130.17 E43.15149
G1 X96.963 Y130.428 E43.37171
G1 X97.524 Y130.66 E43.59816
G1 X98.055 Y130.845 E43.80791
G1 X98.64 Y131.009 E44.03454
G1 X99.223 Y131.137 E44.25719
G1 X99.853 Y131.235 E44.49502
G1 X100.395 Y131.281 E44.69792
G1 X100.986 Y131.299 E44.91848
G1 X101.589 Y131.282 E45.1435
G0 F6000 X101.788 Y131.265
G1 F1500 E44.1435
G1 F600 Z1.3
G0 F6000 X94.185 Y127.466 Z1.3
;TYPE:FILL
G1 F600 Z0.3
G1 F1500 E45.29893
G1 F2400 X109.882 Y123.26 E51.36076
G1 X109.951 Y122.866 E51.50997
G1 X109.435 Y124.79 E52.25302
G1 X109.572 Y124.414 E52.4023
G1 X98.084 Y112.927 E58.46229
G1 X98.124 Y112.911 E58.47836
G1 X94.216 Y127.499 E64.11184
G1 X93.856 Y127.067 E64.32161
G1 X93.531 Y126.626 E64.52595
G1 X93.244 Y126.181 E64.72347
G1 X92.982 Y125.718 E64.92192
G1 X110.07 Y121.139 E71.52096
G1 X110.042 Y122.055 E71.8628
G1 X100.443 Y112.456 E76.92655
G1 X100.316 Y112.46 E76.97395
G1 X95.89 Y128.977 E83.35248
G1 X96 Y129.05 E83.40173
G1 X109.121 Y125.534 E88.46879
G1 X108.667 Y126.338 E88.81321
G1 X96.17 Y113.84 E95.40601
G1 X95.725 Y114.137 E95.60557
G1 X92.751 Y125.239 E99.89285
G1 X92.523 Y124.69 E100.11459
G1 X92.338 Y124.151 E100.32717
G1 X98.342 Y130.155 E103.49445
G1 X97.703 Y129.939 E103.74606
G1 X102.363 Y112.546 E110.46281
G1 X103.024 Y112.674 E110.71396
G1 X94.834 Y114.869 E113.8768
G1 X94.596 Y115.095 E113.99923
G1 X107.404 Y127.903 E120.75583
G1 X107.164 Y128.129 E120.87879
G1 X98.972 Y130.324 E124.04236
G1 X99.636 Y130.452 E124.29461
G1 X104.295 Y113.065 E131.0091
G1 X103.658 Y112.843 E131.26073
G1 X109.66 Y118.845 E134.42696
G1 X109.747 Y119.155 E134.54706
G1 X92.243 Y123.845 E141.30671
G1 X92.089 Y123.134 E141.57808
G1 X91.964 Y122.288 E141.89708
G1 X91.951 Y121.853 E142.05941
G1 X109.016 Y117.28 E148.64958
G1 X109.248 Y117.76 E148.84845
G1 X106.274 Y128.86 E153.135
G1 X105.83 Y129.158 E153.33447
G1 X93.333 Y116.661 E159.927
G1 X92.88 Y117.463 E160.27059
G1 X105.997 Y113.948 E165.33612
G1 X106.109 Y114.021 E165.38598
G1 X101.683 Y130.538 E171.76452
G1 X101.556 Y130.541 E171.8119
G1 X91.957 Y120.942 E176.87565
G1 X91.968 Y120.646 E176.98614
G1 X92.046 Y120.142 E177.17638
G1 X92.566 Y118.201 E177.92595
G1 X92.364 Y118.771 E178.15152
G1 X92.208 Y119.325 E178.36621
G1 X92.117 Y119.738 E178.52397
G1 X107.812 Y115.532 E184.58508
G1 X107.784 Y115.499 E184.60123
G1 X103.875 Y130.085 E190.23409
G1 X103.915 Y130.071 E190.2499
G1 X92.428 Y118.583 E196.30989
G1 F1500 E195.30989
G1 F600 Z1.3
;MESH:NONMESH
G0 F6000 X101.565 Y130.882 Z1.3
;TIME_ELAPSED:23.733466
;LAYER:1
;MESH:Sajad.stl
G0 X101.565 Y130.882 Z1.6
;TYPE:WALL-INNER
G1 F600 Z0.6
G1 F1500 E196.46531
G1 F1800 X102.085 Y130.835 E196.66007
G1 X102.692 Y130.746 E196.88892
G1 X103.252 Y130.625 E197.10263
G1 X103.825 Y130.466 E197.32444
G1 X104.333 Y130.287 E197.52536
G1 X104.861 Y130.069 E197.73844
G1 X105.37 Y129.823 E197.94932
G1 X105.865 Y129.543 E198.16146
G1 X106.342 Y129.234 E198.37346
G1 X106.794 Y128.9 E198.5831
G1 X107.234 Y128.532 E198.79707
G1 X107.648 Y128.144 E199.00872
G1 X108.036 Y127.731 E199.22009
G1 X108.4 Y127.294 E199.43224
G1 X108.738 Y126.836 E199.64457
G1 X109.045 Y126.361 E199.85554
G1 X109.325 Y125.866 E200.06768
G1 X109.569 Y125.361 E200.27689
G1 X109.788 Y124.831 E200.49081
G1 X109.963 Y124.325 E200.69052
G1 X110.127 Y123.745 E200.91536
G1 X110.246 Y123.192 E201.12636
G1 X110.339 Y122.585 E201.35542
G1 X110.382 Y122.067 E201.54931
G1 X110.399 Y121.498 E201.76165
G1 X110.382 Y120.93 E201.97362
G1 X110.335 Y120.415 E202.16653
G1 X110.246 Y119.806 E202.39611
G1 X110.125 Y119.248 E202.60909
G1 X109.966 Y118.675 E202.83091
G1 X109.787 Y118.167 E203.03182
G1 X109.569 Y117.639 E203.2449
G1 X109.323 Y117.13 E203.45578
G1 X109.043 Y116.635 E203.66792
G1 X108.734 Y116.158 E203.87992
G1 X108.4 Y115.706 E204.08956
G1 X108.032 Y115.266 E204.30353
G1 X107.644 Y114.852 E204.51518
G1 X107.231 Y114.464 E204.72656
G1 X106.794 Y114.1 E204.93871
G1 X106.336 Y113.762 E205.15104
G1 X105.861 Y113.455 E205.36201
G1 X105.366 Y113.175 E205.57415
G1 X104.861 Y112.931 E205.78336
G1 X104.335 Y112.714 E205.99561
G1 X103.825 Y112.537 E206.19698
G1 X103.25 Y112.375 E206.41981
G1 X102.69 Y112.254 E206.63353
G1 X102.085 Y112.161 E206.86185
G1 X101.567 Y112.118 E207.05574
G1 X101 Y112.101 E207.26734
G1 X100.435 Y112.118 E207.47819
G1 X99.915 Y112.165 E207.67295
G1 X99.308 Y112.254 E207.90179
G1 X98.748 Y112.375 E208.11551
G1 X98.175 Y112.534 E208.33732
G1 X97.667 Y112.713 E208.53824
G1 X97.139 Y112.931 E208.75132
G1 X96.63 Y113.177 E208.9622
G1 X96.135 Y113.457 E209.17433
G1 X95.658 Y113.766 E209.38634
G1 X95.206 Y114.1 E209.59598
G1 X94.766 Y114.468 E209.80994
G1 X94.352 Y114.856 E210.02159
G1 X93.964 Y115.269 E210.23297
G1 X93.6 Y115.706 E210.44512
G1 X93.262 Y116.164 E210.65745
G1 X92.955 Y116.639 E210.86842
G1 X92.675 Y117.134 E211.08056
G1 X92.431 Y117.639 E211.28977
G1 X92.212 Y118.169 E211.50368
G1 X92.037 Y118.675 E211.7034
G1 X91.873 Y119.255 E211.92824
G1 X91.754 Y119.808 E212.13924
G1 X91.661 Y120.415 E212.3683
G1 X91.618 Y120.933 E212.56219
G1 X91.601 Y121.501 E212.77416
G1 X91.618 Y122.065 E212.98464
G1 X91.665 Y122.585 E213.1794
G1 X91.754 Y123.194 E213.40898
G1 X91.873 Y123.747 E213.61998
G1 X92.034 Y124.325 E213.8438
G1 X92.211 Y124.829 E214.04306
G1 X92.431 Y125.361 E214.2578
G1 X92.675 Y125.866 E214.46701
G1 X92.955 Y126.361 E214.67915
G1 X93.262 Y126.836 E214.89012
G1 X93.6 Y127.294 E215.10245
G1 X93.964 Y127.731 E215.3146
G1 X94.352 Y128.144 E215.52598
G1 X94.766 Y128.532 E215.73763
G1 X95.206 Y128.9 E215.95159
G1 X95.658 Y129.234 E216.16124
G1 X96.136 Y129.543 E216.37355
G1 X96.63 Y129.823 E216.58536
G1 X97.139 Y130.069 E216.79624
G1 X97.665 Y130.286 E217.00849
G1 X98.175 Y130.463 E217.20986
G1 X98.75 Y130.625 E217.4327
G1 X99.31 Y130.746 E217.64641
G1 X99.915 Y130.839 E217.87474
G1 X100.433 Y130.882 E218.06863
G1 X101 Y130.899 E218.28022
G1 X101.565 Y130.882 E218.49108
G0 F6000 X101.589 Y131.282
;TYPE:WALL-OUTER
G1 F1800 X102.132 Y131.233 E218.69445
G1 X102.764 Y131.14 E218.93274
G1 X103.348 Y131.013 E219.15567
G1 X103.945 Y130.848 E219.38671
G1 X104.476 Y130.661 E219.59671
G1 X105.025 Y130.434 E219.81831
G1 X105.556 Y130.177 E220.03836
G1 X106.072 Y129.885 E220.25952
G1 X106.57 Y129.563 E220.48074
G1 X107.041 Y129.215 E220.69918
G1 X107.5 Y128.832 E220.92218
G1 X107.931 Y128.427 E221.14279
G1 X108.336 Y127.996 E221.3634
G1 X108.715 Y127.541 E221.58429
G1 X109.067 Y127.064 E221.80543
G1 X109.387 Y126.568 E222.02561
G1 X109.679 Y126.052 E222.24677
G1 X109.934 Y125.525 E222.46515
G1 X110.162 Y124.973 E222.68793
G1 X110.345 Y124.445 E222.89638
G1 X110.515 Y123.842 E223.13008
G1 X110.64 Y123.264 E223.35067
G1 X110.737 Y122.632 E223.58918
G1 X110.782 Y122.089 E223.79242
G1 X110.799 Y121.498 E224.01297
G1 X110.782 Y120.906 E224.23389
G1 X110.733 Y120.368 E224.4354
G1 X110.64 Y119.734 E224.67443
G1 X110.513 Y119.152 E224.89663
G1 X110.348 Y118.555 E225.12767
G1 X110.161 Y118.024 E225.33767
G1 X109.934 Y117.475 E225.55927
G1 X109.677 Y116.944 E225.77933
G1 X109.385 Y116.428 E226.00049
G1 X109.063 Y115.93 E226.2217
G1 X108.715 Y115.459 E226.44015
G1 X108.332 Y115 E226.66314
G1 X107.927 Y114.569 E226.88375
G1 X107.496 Y114.164 E227.10437
G1 X107.041 Y113.785 E227.32526
G1 X106.564 Y113.433 E227.54639
G1 X106.068 Y113.113 E227.76657
G1 X105.552 Y112.821 E227.98773
G1 X105.025 Y112.566 E228.20612
G1 X104.477 Y112.34 E228.42723
G1 X103.945 Y112.155 E228.63733
G1 X103.347 Y111.987 E228.86904
G1 X102.763 Y111.86 E229.09197
G1 X102.132 Y111.763 E229.33011
G1 X101.589 Y111.718 E229.53335
G1 X101 Y111.701 E229.75315
G1 X100.411 Y111.718 E229.97295
G1 X99.868 Y111.767 E230.17633
G1 X99.236 Y111.86 E230.41461
G1 X98.652 Y111.987 E230.63755
G1 X98.055 Y112.152 E230.86859
G1 X97.524 Y112.339 E231.07859
G1 X96.975 Y112.566 E231.30019
G1 X96.444 Y112.823 E231.52024
G1 X95.928 Y113.115 E231.7414
G1 X95.43 Y113.437 E231.96262
G1 X94.959 Y113.785 E232.18106
G1 X94.5 Y114.168 E232.40405
G1 X94.069 Y114.573 E232.62467
G1 X93.664 Y115.004 E232.84528
G1 X93.285 Y115.459 E233.06617
G1 X92.933 Y115.936 E233.28731
G1 X92.613 Y116.432 E233.50749
G1 X92.321 Y116.948 E233.72865
G1 X92.066 Y117.475 E233.94703
G1 X91.838 Y118.027 E234.16981
G1 X91.655 Y118.555 E234.37826
G1 X91.485 Y119.158 E234.61196
G1 X91.36 Y119.736 E234.83255
G1 X91.263 Y120.368 E235.07106
G1 X91.218 Y120.911 E235.2743
G1 X91.201 Y121.501 E235.49447
G1 X91.218 Y122.089 E235.7139
G1 X91.267 Y122.632 E235.91727
G1 X91.36 Y123.265 E236.15593
G1 X91.485 Y123.843 E236.37652
G1 X91.652 Y124.445 E236.60956
G1 X91.837 Y124.972 E236.8179
G1 X92.066 Y125.525 E237.04117
G1 X92.321 Y126.052 E237.25955
G1 X92.613 Y126.568 E237.48071
G1 X92.933 Y127.064 E237.70089
G1 X93.285 Y127.541 E237.92202
G1 X93.664 Y127.996 E238.14292
G1 X94.069 Y128.427 E238.36353
G1 X94.5 Y128.832 E238.58414
G1 X94.959 Y129.215 E238.80714
G1 X95.43 Y129.563 E239.02558
G1 X95.928 Y129.885 E239.24679
G1 X96.444 Y130.177 E239.46795
G1 X96.975 Y130.434 E239.68801
G1 X97.523 Y130.66 E239.90912
G1 X98.055 Y130.845 E240.11923
G1 X98.653 Y131.013 E240.35093
G1 X99.237 Y131.14 E240.57386
G1 X99.868 Y131.237 E240.812
G1 X100.411 Y131.282 E241.01525
G1 X101 Y131.299 E241.23505
G1 X101.589 Y131.282 E241.45485
G0 F6000 X101.788 Y131.265
G1 F1500 E240.45485
G1 F600 Z1.6
G0 F6000 X91.96 Y122.183 Z1.6
;TYPE:FILL
G1 F600 Z0.6
G1 F1500 E241.61027
G1 F2400 X108.478 Y126.609 E247.98916
G1 X108.136 Y127.079 E248.20598
