;FLAVOR:Marlin
;TIME:180
;Filament used: 1.50012m, 0m
;Layer height: 0.3
;MINX:91.201
;MINY:111.701
;MINZ:0.3
;MAXX:110.799
;MAXY:131.299
;MAXZ:7
;Generated with Cura_SteamEngine 5.0.1
T0
M140 S40
M105
M190 S40
M104 S200
M105
M109 S200
M82 ;absolute extrusion mode
M900 K0.020;
G28 ; home all axes
G1 Z5 F5000 ; lift nozzle
G1 X-45 Y70 F2500; go to glycerin roller;
G92 E0
G1 X-23 F5000; park to start
G92 E0; Extrude a small amount to clear nozzle
G1 E20 F4000
G4 P2000
G92 E0


G92 E0
G1 F1500 E-1
;LAYER_COUNT:20
;LAYER:0
M107
M204 S500
G1 F600 Z1.3
;MESH:Sajad.stl
G0 F6000 X101.565 Y130.882 Z1.3
;TYPE:WALL-INNER
G1 F600 Z0.3
G1 F1500 E0.15542
G1 F1800 X102.085 Y130.835 E0.35019
G1 X102.692 Y130.746 E0.57903
G1 X103.252 Y130.625 E0.79274
G1 X103.811 Y130.47 E1.00913
G1 X104.32 Y130.291 E1.21039
G1 X104.845 Y130.075 E1.42215
G1 X105.37 Y129.821 E1.6397
G1 X105.865 Y129.543 E1.85148
G1 X106.33 Y129.242 E2.0581
G1 X106.782 Y128.909 E2.26752
G1 X107.224 Y128.541 E2.48206
G1 X107.648 Y128.144 E2.69873
G1 X108.026 Y127.741 E2.90483
G1 X108.392 Y127.304 E3.11746
G1 X108.738 Y126.836 E3.33456
G1 X109.045 Y126.361 E3.54553
G1 X109.318 Y125.878 E3.75249
G1 X109.563 Y125.373 E3.96186
G1 X109.788 Y124.83 E4.18111
G1 X109.963 Y124.325 E4.38048
G1 X110.121 Y123.763 E4.59824
G1 X110.243 Y123.203 E4.81203
G1 X110.337 Y122.599 E5.04005
G1 X110.381 Y122.082 E5.2336
G1 X110.399 Y121.512 E5.44632
G1 X110.382 Y120.929 E5.66389
G1 X110.335 Y120.415 E5.85642
G1 X110.246 Y119.806 E6.086
G1 X110.125 Y119.248 E6.29898
G1 X109.97 Y118.689 E6.51537
G1 X109.792 Y118.18 E6.71651
G1 X109.574 Y117.653 E6.92925
G1 X109.322 Y117.13 E7.1458
G1 X109.043 Y116.635 E7.35775
G1 X108.742 Y116.17 E7.56438
G1 X108.409 Y115.718 E7.7738
G1 X108.041 Y115.276 E7.98834
G1 X107.644 Y114.852 E8.205
G1 X107.241 Y114.474 E8.41111
G1 X106.804 Y114.108 E8.62374
G1 X106.336 Y113.762 E8.84084
G1 X105.861 Y113.455 E9.05181
G1 X105.378 Y113.182 E9.25877
G1 X104.874 Y112.937 E9.46781
G1 X104.334 Y112.714 E9.68574
G1 X103.825 Y112.537 E9.88676
G1 X103.263 Y112.379 E10.10452
G1 X102.703 Y112.257 E10.31831
G1 X102.099 Y112.163 E10.54633
G1 X101.582 Y112.119 E10.73987
G1 X101.014 Y112.101 E10.95186
G1 X100.435 Y112.118 E11.16793
G1 X99.915 Y112.165 E11.36269
G1 X99.308 Y112.254 E11.59153
G1 X98.748 Y112.375 E11.80524
G1 X98.189 Y112.53 E12.02163
G1 X97.68 Y112.709 E12.22289
G1 X97.155 Y112.924 E12.43451
G1 X96.63 Y113.179 E12.65223
G1 X96.135 Y113.457 E12.864
G1 X95.67 Y113.758 E13.07062
G1 X95.218 Y114.091 E13.28004
G1 X94.776 Y114.459 E13.49458
G1 X94.352 Y114.856 E13.71125
G1 X93.974 Y115.259 E13.91736
G1 X93.608 Y115.696 E14.12998
G1 X93.262 Y116.164 E14.34709
G1 X92.955 Y116.639 E14.55806
G1 X92.682 Y117.122 E14.76501
G1 X92.437 Y117.627 E14.97439
G1 X92.212 Y118.17 E15.19364
G1 X92.037 Y118.675 E15.393
G1 X91.879 Y119.237 E15.61077
G1 X91.757 Y119.797 E15.82456
G1 X91.663 Y120.401 E16.05257
G1 X91.619 Y120.918 E16.24612
G1 X91.601 Y121.488 E16.45885
G1 X91.618 Y122.065 E16.67417
G1 X91.665 Y122.585 E16.86893
G1 X91.754 Y123.194 E17.09851
G1 X91.873 Y123.747 E17.30952
G1 X92.03 Y124.311 E17.5279
G1 X92.207 Y124.816 E17.72751
G1 X92.424 Y125.344 E17.94045
G1 X92.678 Y125.868 E18.15766
G1 X92.955 Y126.361 E18.3686
G1 X93.255 Y126.825 E18.57471
G1 X93.591 Y127.282 E18.78629
G1 X93.956 Y127.72 E18.99897
G1 X94.352 Y128.144 E19.21538
G1 X94.757 Y128.525 E19.4228
G1 X95.194 Y128.891 E19.63543
G1 X95.658 Y129.234 E19.85067
G1 X96.136 Y129.543 E20.06298
G1 X96.618 Y129.816 E20.26961
G1 X97.127 Y130.063 E20.48065
G1 X97.666 Y130.286 E20.69824
G1 X98.175 Y130.463 E20.89926
G1 X98.737 Y130.621 E21.11702
G1 X99.297 Y130.743 E21.33081
G1 X99.901 Y130.837 E21.55883
G1 X100.418 Y130.881 E21.75238
G1 X100.986 Y130.899 E21.96436
G1 X101.565 Y130.882 E22.18043
G0 F6000 X101.589 Y131.282
;TYPE:WALL-OUTER
G1 F1800 X102.132 Y131.233 E22.3838
G1 X102.764 Y131.14 E22.62209
G1 X103.348 Y131.013 E22.84502
G1 X103.931 Y130.852 E23.07064
G1 X104.462 Y130.665 E23.28063
G1 X105.008 Y130.441 E23.50077
G1 X105.556 Y130.176 E23.72784
G1 X106.072 Y129.885 E23.94881
G1 X106.558 Y129.571 E24.16465
G1 X107.029 Y129.224 E24.38287
G1 X107.489 Y128.841 E24.60615
G1 X107.931 Y128.427 E24.83205
G1 X108.326 Y128.007 E25.04712
G1 X108.706 Y127.552 E25.26825
G1 X109.067 Y127.064 E25.49468
G1 X109.387 Y126.568 E25.71486
G1 X109.672 Y126.064 E25.93084
G1 X109.928 Y125.537 E26.14939
G1 X110.162 Y124.972 E26.3775
G1 X110.345 Y124.445 E26.5856
G1 X110.509 Y123.86 E26.81223
G1 X110.637 Y123.277 E27.03488
G1 X110.735 Y122.647 E27.27271
G1 X110.781 Y122.105 E27.47561
G1 X110.799 Y121.512 E27.69691
G1 X110.782 Y120.905 E27.92342
G1 X110.733 Y120.368 E28.12457
G1 X110.64 Y119.734 E28.36359
G1 X110.513 Y119.152 E28.5858
G1 X110.352 Y118.569 E28.81141
G1 X110.166 Y118.038 E29.02128
G1 X109.94 Y117.489 E29.24274
G1 X109.676 Y116.944 E29.46863
G1 X109.385 Y116.428 E29.68961
G1 X109.071 Y115.942 E29.90544
G1 X108.724 Y115.471 E30.12367
G1 X108.341 Y115.011 E30.34695
G1 X107.927 Y114.569 E30.57285
G1 X107.507 Y114.174 E30.78792
G1 X107.052 Y113.794 E31.00905
G1 X106.564 Y113.433 E31.23548
G1 X106.068 Y113.113 E31.45566
G1 X105.564 Y112.828 E31.67164
G1 X105.038 Y112.572 E31.88985
G1 X104.476 Y112.34 E32.11665
G1 X103.945 Y112.155 E32.3264
G1 X103.36 Y111.991 E32.55303
G1 X102.777 Y111.863 E32.77568
G1 X102.147 Y111.765 E33.0135
G1 X101.605 Y111.719 E33.21641
G1 X101.014 Y111.701 E33.43696
G1 X100.411 Y111.718 E33.66198
G1 X99.868 Y111.767 E33.86536
G1 X99.236 Y111.86 E34.10364
G1 X98.652 Y111.987 E34.32658
G1 X98.069 Y112.148 E34.55219
G1 X97.538 Y112.335 E34.76219
G1 X96.992 Y112.559 E34.98233
G1 X96.444 Y112.824 E35.20939
G1 X95.928 Y113.115 E35.43037
G1 X95.442 Y113.429 E35.6462
G1 X94.971 Y113.776 E35.86442
G1 X94.511 Y114.159 E36.0877
G1 X94.069 Y114.573 E36.31361
G1 X93.674 Y114.993 E36.52868
G1 X93.294 Y115.448 E36.74981
G1 X92.933 Y115.936 E36.97623
G1 X92.613 Y116.432 E37.19641
G1 X92.328 Y116.936 E37.41239
G1 X92.072 Y117.463 E37.63094
G1 X91.838 Y118.028 E37.85906
G1 X91.655 Y118.555 E38.06715
G1 X91.491 Y119.14 E38.29378
G1 X91.363 Y119.723 E38.51643
G1 X91.265 Y120.353 E38.75426
G1 X91.219 Y120.895 E38.95716
G1 X91.201 Y121.488 E39.17847
G1 X91.218 Y122.089 E39.40274
G1 X91.267 Y122.632 E39.60611
G1 X91.36 Y123.265 E39.84477
G1 X91.485 Y123.843 E40.06536
G1 X91.648 Y124.431 E40.29297
G1 X91.833 Y124.958 E40.50131
G1 X92.059 Y125.508 E40.72311
G1 X92.323 Y126.054 E40.94934
G1 X92.613 Y126.568 E41.16948
G1 X92.925 Y127.052 E41.38429
G1 X93.276 Y127.528 E41.6049
G1 X93.656 Y127.985 E41.8266
G1 X94.069 Y128.427 E42.05225
G1 X94.491 Y128.824 E42.26837
G1 X94.946 Y129.205 E42.48974
G1 X95.43 Y129.563 E42.7143
G1 X95.928 Y129.885 E42.93552
G1 X96.432 Y130.17 E43.15149
G1 X96.963 Y130.428 E43.37171
G1 X97.524 Y130.66 E43.59816
G1 X98.055 Y130.845 E43.80791
G1 X98.64 Y131.009 E44.03454
G1 X99.223 Y131.137 E44.25719
G1 X99.853 Y131.235 E44.49502
G1 X100.395 Y131.281 E44.69792
G1 X100.986 Y131.299 E44.91848
G1 X101.589 Y131.282 E45.1435
G0 F6000 X101.788 Y131.265
G1 F1500 E44.1435
G1 F600 Z1.3
G0 F6000 X93.449 Y126.497 Z1.3
;TYPE:FILL
G1 F600 Z0.3
G1 F1500 E45.29893
G1 F2400 X96.967 Y113.369 E50.36871
G1 X97.796 Y113.029 E50.70294
G1 X98.292 Y112.855 E50.89901
G1 X98.835 Y112.705 E51.10915
G1 X99.362 Y112.59 E51.31035
G1 X100.212 Y112.464 E51.63088
G1 X101.014 Y112.441 E51.93017
G1 X101.855 Y112.468 E52.24404
G1 X102.647 Y112.592 E52.54307
G1 X103.175 Y112.708 E52.74472
G1 X103.729 Y112.864 E52.95941
G1 X104.218 Y113.034 E53.15253
G1 X104.736 Y113.248 E53.36159
G1 X105.214 Y113.48 E53.55978
G1 X105.682 Y113.745 E53.7604
G1 X106.141 Y114.042 E53.96433
G1 X106.59 Y114.373 E54.17241
G1 X107.021 Y114.732 E54.38165
G1 X107.398 Y115.088 E54.57507
G1 X107.782 Y115.496 E54.78406
G1 X108.137 Y115.923 E54.9912
G1 X108.554 Y116.488 E55.25314
G1 X105.032 Y129.632 E60.32908
G1 X104.204 Y129.971 E60.66282
G1 X103.708 Y130.145 E60.85889
G1 X103.165 Y130.295 E61.06903
G1 X102.638 Y130.41 E61.27023
G1 X101.788 Y130.536 E61.59077
G1 X100.986 Y130.559 E61.89005
G1 X100.145 Y130.532 E62.20392
G1 X99.353 Y130.408 E62.50295
G1 X98.825 Y130.292 E62.7046
G1 X98.271 Y130.136 E62.91929
G1 X97.782 Y129.966 E63.11241
G1 X97.265 Y129.752 E63.32113
G1 X96.78 Y129.517 E63.52216
G1 X96.313 Y129.252 E63.72245
G1 X95.851 Y128.953 E63.92773
G1 X95.4 Y128.62 E64.13685
G1 X94.987 Y128.274 E64.33783
G1 X94.594 Y127.904 E64.53917
G1 X94.212 Y127.496 E64.74766
G1 X93.856 Y127.067 E64.9556
G1 X93.531 Y126.626 E65.15995
G1 X93.244 Y126.181 E65.35747
G1 X92.981 Y125.714 E65.5574
G1 X92.732 Y125.2 E65.77044
G1 X92.523 Y124.69 E65.97604
G1 X92.229 Y123.849 E66.30836
G1 X109.757 Y119.152 E73.07733
G1 X109.91 Y119.86 E73.34753
G1 X110.036 Y120.714 E73.66953
G1 X110.059 Y121.506 E73.96509
G1 X110.032 Y122.354 E74.28157
G1 X109.908 Y123.146 E74.5806
G1 X109.792 Y123.675 E74.78262
G1 X109.636 Y124.229 E74.99731
G1 X109.472 Y124.704 E75.18475
G1 X109.256 Y125.228 E75.39617
G1 X109.018 Y125.717 E75.59903
G1 X108.757 Y126.179 E75.79697
G1 X108.457 Y126.643 E76.00308
G1 X108.127 Y127.09 E76.21033
G1 X107.768 Y127.521 E76.41957
G1 X107.404 Y127.903 E76.61639
G1 X94.596 Y115.095 E83.37299
G1 X94.996 Y114.718 E83.57802
G1 X95.432 Y114.355 E83.78965
G1 X95.858 Y114.042 E83.98683
G1 X96.317 Y113.745 E84.19077
G1 F1500 E83.19077
G1 F600 Z1.3
;MESH:NONMESH
G0 F6000 X101.565 Y130.882 Z1.3
;TIME_ELAPSED:12.695449
;LAYER:1
;MESH:Sajad.stl
G0 X101.565 Y130.882 Z1.6
;TYPE:WALL-INNER
G1 F600 Z0.6
G1 F1500 E84.34619
G1 F1800 X102.085 Y130.835 E84.54095
G1 X102.692 Y130.746 E84.7698
G1 X103.252 Y130.625 E84.98351
G1 X103.825 Y130.466 E85.20532
G1 X104.333 Y130.287 E85.40624
G1 X104.861 Y130.069 E85.61932
G1 X105.37 Y129.823 E85.8302
G1 X105.865 Y129.543 E86.04234
G1 X106.342 Y129.234 E86.25434
G1 X106.794 Y128.9 E86.46398
G1 X107.234 Y128.532 E86.67795
G1 X107.648 Y128.144 E86.8896
G1 X108.036 Y127.731 E87.10097
G1 X108.4 Y127.294 E87.31313
G1 X108.738 Y126.836 E87.52545
G1 X109.045 Y126.361 E87.73642
G1 X109.325 Y125.866 E87.94856
G1 X109.569 Y125.361 E88.15777
G1 X109.788 Y124.831 E88.37169
G1 X109.963 Y124.325 E88.5714
G1 X110.127 Y123.745 E88.79624
G1 X110.246 Y123.192 E89.00724
G1 X110.339 Y122.585 E89.2363
G1 X110.382 Y122.067 E89.43019
G1 X110.399 Y121.498 E89.64254
G1 X110.382 Y120.93 E89.85451
G1 X110.335 Y120.415 E90.04741
G1 X110.246 Y119.806 E90.27699
G1 X110.125 Y119.248 E90.48997
G1 X109.966 Y118.675 E90.71179
G1 X109.787 Y118.167 E90.9127
G1 X109.569 Y117.639 E91.12578
G1 X109.323 Y117.13 E91.33666
G1 X109.043 Y116.635 E91.5488
G1 X108.734 Y116.158 E91.7608
G1 X108.4 Y115.706 E91.97044
G1 X108.032 Y115.266 E92.18441
G1 X107.644 Y114.852 E92.39606
G1 X107.231 Y114.464 E92.60744
G1 X106.794 Y114.1 E92.81959
G1 X106.336 Y113.762 E93.03192
G1 X105.861 Y113.455 E93.24289
G1 X105.366 Y113.175 E93.45503
G1 X104.861 Y112.931 E93.66424
G1 X104.335 Y112.714 E93.87649
G1 X103.825 Y112.537 E94.07786
G1 X103.25 Y112.375 E94.30069
G1 X102.69 Y112.254 E94.51441
G1 X102.085 Y112.161 E94.74273
G1 X101.567 Y112.118 E94.93662
G1 X101 Y112.101 E95.14822
G1 X100.435 Y112.118 E95.35907
G1 X99.915 Y112.165 E95.55383
G1 X99.308 Y112.254 E95.78268
G1 X98.748 Y112.375 E95.99639
G1 X98.175 Y112.534 E96.2182
G1 X97.667 Y112.713 E96.41912
G1 X97.139 Y112.931 E96.6322
G1 X96.63 Y113.177 E96.84308
G1 X96.135 Y113.457 E97.05521
G1 X95.658 Y113.766 E97.26722
G1 X95.206 Y114.1 E97.47686
G1 X94.766 Y114.468 E97.69082
G1 X94.352 Y114.856 E97.90248
G1 X93.964 Y115.269 E98.11385
G1 X93.6 Y115.706 E98.326
G1 X93.262 Y116.164 E98.53833
G1 X92.955 Y116.639 E98.7493
G1 X92.675 Y117.134 E98.96144
G1 X92.431 Y117.639 E99.17065
G1 X92.212 Y118.169 E99.38457
G1 X92.037 Y118.675 E99.58428
G1 X91.873 Y119.255 E99.80912
G1 X91.754 Y119.808 E100.02012
G1 X91.661 Y120.415 E100.24918
G1 X91.618 Y120.933 E100.44307
G1 X91.601 Y121.501 E100.65504
G1 X91.618 Y122.065 E100.86552
G1 X91.665 Y122.585 E101.06028
G1 X91.754 Y123.194 E101.28986
G1 X91.873 Y123.747 E101.50086
G1 X92.034 Y124.325 E101.72468
G1 X92.211 Y124.829 E101.92394
G1 X92.431 Y125.361 E102.13868
G1 X92.675 Y125.866 E102.34789
G1 X92.955 Y126.361 E102.56003
G1 X93.262 Y126.836 E102.771
G1 X93.6 Y127.294 E102.98333
G1 X93.964 Y127.731 E103.19548
G1 X94.352 Y128.144 E103.40686
G1 X94.766 Y128.532 E103.61851
G1 X95.206 Y128.9 E103.83247
G1 X95.658 Y129.234 E104.04212
G1 X96.136 Y129.543 E104.25443
G1 X96.63 Y129.823 E104.46624
G1 X97.139 Y130.069 E104.67712
G1 X97.665 Y130.286 E104.88937
G1 X98.175 Y130.463 E105.09074
G1 X98.75 Y130.625 E105.31358
G1 X99.31 Y130.746 E105.52729
G1 X99.915 Y130.839 E105.75562
G1 X100.433 Y130.882 E105.94951
G1 X101 Y130.899 E106.16111
G1 X101.565 Y130.882 E106.37196
G0 F6000 X101.589 Y131.282
;TYPE:WALL-OUTER
G1 F1800 X102.132 Y131.233 E106.57533
G1 X102.764 Y131.14 E106.81362
G1 X103.348 Y131.013 E107.03655
G1 X103.945 Y130.848 E107.26759
G1 X104.476 Y130.661 E107.47759
G1 X105.025 Y130.434 E107.69919
G1 X105.556 Y130.177 E107.91925
G1 X106.072 Y129.885 E108.14041
G1 X106.57 Y129.563 E108.36162
G1 X107.041 Y129.215 E108.58006
G1 X107.5 Y128.832 E108.80306
G1 X107.931 Y128.427 E109.02367
G1 X108.336 Y127.996 E109.24428
G1 X108.715 Y127.541 E109.46518
G1 X109.067 Y127.064 E109.68631
G1 X109.387 Y126.568 E109.90649
G1 X109.679 Y126.052 E110.12765
G1 X109.934 Y125.525 E110.34603
G1 X110.162 Y124.973 E110.56881
G1 X110.345 Y124.445 E110.77726
G1 X110.515 Y123.842 E111.01096
G1 X110.64 Y123.264 E111.23155
G1 X110.737 Y122.632 E111.47006
G1 X110.782 Y122.089 E111.6733
G1 X110.799 Y121.498 E111.89385
G1 X110.782 Y120.906 E112.11477
G1 X110.733 Y120.368 E112.31628
G1 X110.64 Y119.734 E112.55531
G1 X110.513 Y119.152 E112.77751
G1 X110.348 Y118.555 E113.00855
G1 X110.161 Y118.024 E113.21855
G1 X109.934 Y117.475 E113.44015
G1 X109.677 Y116.944 E113.66021
G1 X109.385 Y116.428 E113.88137
G1 X109.063 Y115.93 E114.10258
G1 X108.715 Y115.459 E114.32103
G1 X108.332 Y115 E114.54402
G1 X107.927 Y114.569 E114.76463
G1 X107.496 Y114.164 E114.98525
G1 X107.041 Y113.785 E115.20614
G1 X106.564 Y113.433 E115.42727
G1 X106.068 Y113.113 E115.64745
G1 X105.552 Y112.821 E115.86861
G1 X105.025 Y112.566 E116.087
G1 X104.477 Y112.34 E116.30811
G1 X103.945 Y112.155 E116.51821
G1 X103.347 Y111.987 E116.74992
G1 X102.763 Y111.86 E116.97285
G1 X102.132 Y111.763 E117.21099
G1 X101.589 Y111.718 E117.41423
G1 X101 Y111.701 E117.63403
G1 X100.411 Y111.718 E117.85383
G1 X99.868 Y111.767 E118.05721
G1 X99.236 Y111.86 E118.29549
G1 X98.652 Y111.987 E118.51843
G1 X98.055 Y112.152 E118.74947
G1 X97.524 Y112.339 E118.95947
G1 X96.975 Y112.566 E119.18107
G1 X96.444 Y112.823 E119.40112
G1 X95.928 Y113.115 E119.62228
G1 X95.43 Y113.437 E119.8435
G1 X94.959 Y113.785 E120.06194
G1 X94.5 Y114.168 E120.28493
G1 X94.069 Y114.573 E120.50555
G1 X93.664 Y115.004 E120.72616
G1 X93.285 Y115.459 E120.94705
G1 X92.933 Y115.936 E121.16819
G1 X92.613 Y116.432 E121.38837
G1 X92.321 Y116.948 E121.60953
G1 X92.066 Y117.475 E121.82791
G1 X91.838 Y118.027 E122.05069
G1 X91.655 Y118.555 E122.25914
G1 X91.485 Y119.158 E122.49284
G1 X91.36 Y119.736 E122.71343
G1 X91.263 Y120.368 E122.95194
G1 X91.218 Y120.911 E123.15518
G1 X91.201 Y121.501 E123.37535
G1 X91.218 Y122.089 E123.59478
G1 X91.267 Y122.632 E123.79815
G1 X91.36 Y123.265 E124.03681
G1 X91.485 Y123.843 E124.2574
G1 X91.652 Y124.445 E124.49044
G1 X91.837 Y124.972 E124.69878
G1 X92.066 Y125.525 E124.92205
G1 X92.321 Y126.052 E125.14043
G1 X92.613 Y126.568 E125.36159
G1 X92.933 Y127.064 E125.58177
G1 X93.285 Y127.541 E125.8029
G1 X93.664 Y127.996 E126.0238
G1 X94.069 Y128.427 E126.24441
G1 X94.5 Y128.832 E126.46502
G1 X94.959 Y129.215 E126.68802
G1 X95.43 Y129.563 E126.90646
G1 X95.928 Y129.885 E127.12767
G1 X96.444 Y130.177 E127.34883
G1 X96.975 Y130.434 E127.56889
G1 X97.523 Y130.66 E127.79
G1 X98.055 Y130.845 E128.00011
G1 X98.653 Y131.013 E128.23181
G1 X99.237 Y131.14 E128.45474
G1 X99.868 Y131.237 E128.69288
G1 X100.411 Y131.282 E128.89613
G1 X101 Y131.299 E129.11593
G1 X101.589 Y131.282 E129.33573
G0 F6000 X101.788 Y131.265
G1 F1500 E128.33573
G1 F600 Z1.6
G0 F6000 X98.655 Y112.754 Z1.6
;TYPE:FILL
G1 F600 Z0.6
G1 F1500 E129.49115
