;FLAVOR:Marlin
;TIME:551
;Filament used: 5.428m, 0m
;Layer height: 0.3
;MINX:91.201
;MINY:111.701
;MINZ:0.3
;MAXX:110.799
;MAXY:131.299
;MAXZ:7
;Generated with Cura_SteamEngine 5.0.1
T0
M140 S40
M105
M190 S40
M104 S200
M105
M109 S200
M82 ;absolute extrusion mode
M900 K0.020;
G28 ; home all axes
G1 Z5 F5000 ; lift nozzle
G1 X-45 Y70 F2500; go to glycerin roller;
G92 E0
G1 X-23 F5000; park to start
G92 E0; Extrude a small amount to clear nozzle
G1 E20 F4000
G4 P2000
G92 E0


G92 E0
G1 F1500 E-1
;LAYER_COUNT:20
;LAYER:0
M107
M204 S500
G1 F600 Z1.3
;MESH:Sajad.stl
G0 F6000 X101.565 Y130.882 Z1.3
;TYPE:WALL-INNER
G1 F600 Z0.3
G1 F1500 E0.15542
G1 F1800 X102.085 Y130.835 E0.35019
G1 X102.692 Y130.746 E0.57903
G1 X103.252 Y130.625 E0.79274
G1 X103.811 Y130.47 E1.00913
G1 X104.32 Y130.291 E1.21039
G1 X104.845 Y130.075 E1.42215
G1 X105.37 Y129.821 E1.6397
G1 X105.865 Y129.543 E1.85148
G1 X106.33 Y129.242 E2.0581
G1 X106.782 Y128.909 E2.26752
G1 X107.224 Y128.541 E2.48206
G1 X107.648 Y128.144 E2.69873
G1 X108.026 Y127.741 E2.90483
G1 X108.392 Y127.304 E3.11746
G1 X108.738 Y126.836 E3.33456
G1 X109.045 Y126.361 E3.54553
G1 X109.318 Y125.878 E3.75249
G1 X109.563 Y125.373 E3.96186
G1 X109.788 Y124.83 E4.18111
G1 X109.963 Y124.325 E4.38048
G1 X110.121 Y123.763 E4.59824
G1 X110.243 Y123.203 E4.81203
G1 X110.337 Y122.599 E5.04005
G1 X110.381 Y122.082 E5.2336
G1 X110.399 Y121.512 E5.44632
G1 X110.382 Y120.929 E5.66389
G1 X110.335 Y120.415 E5.85642
G1 X110.246 Y119.806 E6.086
G1 X110.125 Y119.248 E6.29898
G1 X109.97 Y118.689 E6.51537
G1 X109.792 Y118.18 E6.71651
G1 X109.574 Y117.653 E6.92925
G1 X109.322 Y117.13 E7.1458
G1 X109.043 Y116.635 E7.35775
G1 X108.742 Y116.17 E7.56438
G1 X108.409 Y115.718 E7.7738
G1 X108.041 Y115.276 E7.98834
G1 X107.644 Y114.852 E8.205
G1 X107.241 Y114.474 E8.41111
G1 X106.804 Y114.108 E8.62374
G1 X106.336 Y113.762 E8.84084
G1 X105.861 Y113.455 E9.05181
G1 X105.378 Y113.182 E9.25877
G1 X104.874 Y112.937 E9.46781
G1 X104.334 Y112.714 E9.68574
G1 X103.825 Y112.537 E9.88676
G1 X103.263 Y112.379 E10.10452
G1 X102.703 Y112.257 E10.31831
G1 X102.099 Y112.163 E10.54633
G1 X101.582 Y112.119 E10.73987
G1 X101.014 Y112.101 E10.95186
G1 X100.435 Y112.118 E11.16793
G1 X99.915 Y112.165 E11.36269
G1 X99.308 Y112.254 E11.59153
G1 X98.748 Y112.375 E11.80524
G1 X98.189 Y112.53 E12.02163
G1 X97.68 Y112.709 E12.22289
G1 X97.155 Y112.924 E12.43451
G1 X96.63 Y113.179 E12.65223
G1 X96.135 Y113.457 E12.864
G1 X95.67 Y113.758 E13.07062
G1 X95.218 Y114.091 E13.28004
G1 X94.776 Y114.459 E13.49458
G1 X94.352 Y114.856 E13.71125
G1 X93.974 Y115.259 E13.91736
G1 X93.608 Y115.696 E14.12998
G1 X93.262 Y116.164 E14.34709
G1 X92.955 Y116.639 E14.55806
G1 X92.682 Y117.122 E14.76501
G1 X92.437 Y117.627 E14.97439
G1 X92.212 Y118.17 E15.19364
G1 X92.037 Y118.675 E15.393
G1 X91.879 Y119.237 E15.61077
G1 X91.757 Y119.797 E15.82456
G1 X91.663 Y120.401 E16.05257
G1 X91.619 Y120.918 E16.24612
G1 X91.601 Y121.488 E16.45885
G1 X91.618 Y122.065 E16.67417
G1 X91.665 Y122.585 E16.86893
G1 X91.754 Y123.194 E17.09851
G1 X91.873 Y123.747 E17.30952
G1 X92.03 Y124.311 E17.5279
G1 X92.207 Y124.816 E17.72751
G1 X92.424 Y125.344 E17.94045
G1 X92.678 Y125.868 E18.15766
G1 X92.955 Y126.361 E18.3686
G1 X93.255 Y126.825 E18.57471
G1 X93.591 Y127.282 E18.78629
G1 X93.956 Y127.72 E18.99897
G1 X94.352 Y128.144 E19.21538
G1 X94.757 Y128.525 E19.4228
G1 X95.194 Y128.891 E19.63543
G1 X95.658 Y129.234 E19.85067
G1 X96.136 Y129.543 E20.06298
G1 X96.618 Y129.816 E20.26961
G1 X97.127 Y130.063 E20.48065
G1 X97.666 Y130.286 E20.69824
G1 X98.175 Y130.463 E20.89926
G1 X98.737 Y130.621 E21.11702
G1 X99.297 Y130.743 E21.33081
G1 X99.901 Y130.837 E21.55883
G1 X100.418 Y130.881 E21.75238
G1 X100.986 Y130.899 E21.96436
G1 X101.565 Y130.882 E22.18043
G0 F6000 X101.589 Y131.282
;TYPE:WALL-OUTER
G1 F1800 X102.132 Y131.233 E22.3838
G1 X102.764 Y131.14 E22.62209
G1 X103.348 Y131.013 E22.84502
G1 X103.931 Y130.852 E23.07064
G1 X104.462 Y130.665 E23.28063
G1 X105.008 Y130.441 E23.50077
G1 X105.556 Y130.176 E23.72784
G1 X106.072 Y129.885 E23.94881
G1 X106.558 Y129.571 E24.16465
G1 X107.029 Y129.224 E24.38287
G1 X107.489 Y128.841 E24.60615
G1 X107.931 Y128.427 E24.83205
G1 X108.326 Y128.007 E25.04712
G1 X108.706 Y127.552 E25.26825
G1 X109.067 Y127.064 E25.49468
G1 X109.387 Y126.568 E25.71486
G1 X109.672 Y126.064 E25.93084
G1 X109.928 Y125.537 E26.14939
G1 X110.162 Y124.972 E26.3775
G1 X110.345 Y124.445 E26.5856
G1 X110.509 Y123.86 E26.81223
G1 X110.637 Y123.277 E27.03488
G1 X110.735 Y122.647 E27.27271
G1 X110.781 Y122.105 E27.47561
G1 X110.799 Y121.512 E27.69691
G1 X110.782 Y120.905 E27.92342
G1 X110.733 Y120.368 E28.12457
G1 X110.64 Y119.734 E28.36359
G1 X110.513 Y119.152 E28.5858
G1 X110.352 Y118.569 E28.81141
G1 X110.166 Y118.038 E29.02128
G1 X109.94 Y117.489 E29.24274
G1 X109.676 Y116.944 E29.46863
G1 X109.385 Y116.428 E29.68961
G1 X109.071 Y115.942 E29.90544
G1 X108.724 Y115.471 E30.12367
G1 X108.341 Y115.011 E30.34695
G1 X107.927 Y114.569 E30.57285
G1 X107.507 Y114.174 E30.78792
G1 X107.052 Y113.794 E31.00905
G1 X106.564 Y113.433 E31.23548
G1 X106.068 Y113.113 E31.45566
G1 X105.564 Y112.828 E31.67164
G1 X105.038 Y112.572 E31.88985
G1 X104.476 Y112.34 E32.11665
G1 X103.945 Y112.155 E32.3264
G1 X103.36 Y111.991 E32.55303
G1 X102.777 Y111.863 E32.77568
G1 X102.147 Y111.765 E33.0135
G1 X101.605 Y111.719 E33.21641
G1 X101.014 Y111.701 E33.43696
G1 X100.411 Y111.718 E33.66198
G1 X99.868 Y111.767 E33.86536
G1 X99.236 Y111.86 E34.10364
G1 X98.652 Y111.987 E34.32658
G1 X98.069 Y112.148 E34.55219
G1 X97.538 Y112.335 E34.76219
G1 X96.992 Y112.559 E34.98233
G1 X96.444 Y112.824 E35.20939
G1 X95.928 Y113.115 E35.43037
G1 X95.442 Y113.429 E35.6462
G1 X94.971 Y113.776 E35.86442
G1 X94.511 Y114.159 E36.0877
G1 X94.069 Y114.573 E36.31361
G1 X93.674 Y114.993 E36.52868
G1 X93.294 Y115.448 E36.74981
G1 X92.933 Y115.936 E36.97623
G1 X92.613 Y116.432 E37.19641
G1 X92.328 Y116.936 E37.41239
G1 X92.072 Y117.463 E37.63094
G1 X91.838 Y118.028 E37.85906
G1 X91.655 Y118.555 E38.06715
G1 X91.491 Y119.14 E38.29378
G1 X91.363 Y119.723 E38.51643
G1 X91.265 Y120.353 E38.75426
G1 X91.219 Y120.895 E38.95716
G1 X91.201 Y121.488 E39.17847
G1 X91.218 Y122.089 E39.40274
G1 X91.267 Y122.632 E39.60611
G1 X91.36 Y123.265 E39.84477
G1 X91.485 Y123.843 E40.06536
G1 X91.648 Y124.431 E40.29297
G1 X91.833 Y124.958 E40.50131
G1 X92.059 Y125.508 E40.72311
G1 X92.323 Y126.054 E40.94934
G1 X92.613 Y126.568 E41.16948
G1 X92.925 Y127.052 E41.38429
G1 X93.276 Y127.528 E41.6049
G1 X93.656 Y127.985 E41.8266
G1 X94.069 Y128.427 E42.05225
G1 X94.491 Y128.824 E42.26837
G1 X94.946 Y129.205 E42.48974
G1 X95.43 Y129.563 E42.7143
G1 X95.928 Y129.885 E42.93552
G1 X96.432 Y130.17 E43.15149
G1 X96.963 Y130.428 E43.37171
G1 X97.524 Y130.66 E43.59816
G1 X98.055 Y130.845 E43.80791
G1 X98.64 Y131.009 E44.03454
G1 X99.223 Y131.137 E44.25719
G1 X99.853 Y131.235 E44.49502
G1 X100.395 Y131.281 E44.69792
G1 X100.986 Y131.299 E44.91848
G1 X101.589 Y131.282 E45.1435
G0 F6000 X101.788 Y131.265
G1 F1500 E44.1435
G1 F600 Z1.3
G0 F6000 X94.185 Y127.465 Z1.3
;TYPE:FILL
G1 F600 Z0.3
G1 F1500 E45.29893
G1 F2400 X109.882 Y123.259 E51.36076
G1 X109.946 Y122.905 E51.49495
G1 X99.595 Y112.554 E56.95541
G1 X99.961 Y112.5 E57.09341
G1 X95.602 Y128.768 E63.37576
G1 X95.309 Y128.544 E63.51333
G1 X109.45 Y124.755 E68.97427
G1 X109.571 Y124.415 E69.10889
G1 X98.084 Y112.927 E75.16888
G1 X98.502 Y112.795 E75.33239
G1 X94.485 Y127.787 E81.12196
G1 X94.212 Y127.496 E81.2708
G1 X93.856 Y127.067 E81.47875
G1 X93.447 Y126.512 E81.73592
G1 X96.962 Y113.393 E86.80217
G1 X96.764 Y113.492 E86.88474
G1 X109.007 Y125.736 E93.34355
G1 X108.757 Y126.179 E93.53329
G1 X108.688 Y126.283 E93.57985
G1 X110.049 Y121.205 E95.54089
G1 X110.047 Y121.835 E95.7759
G1 X93.32 Y126.316 E102.2354
G1 X92.981 Y125.714 E102.49312
G1 X92.687 Y125.107 E102.7447
G1 X109.998 Y120.468 E109.42988
G1 X110.047 Y121.121 E109.67415
G1 X101.36 Y112.433 E114.25706
G1 X96.779 Y129.53 E120.85953
G1 X108.644 Y126.351 E125.44151
G1 X108.275 Y126.888 E125.68456
G1 X95.61 Y114.223 E132.36571
G1 X95.294 Y114.468 E132.51486
G1 X92.542 Y124.738 E136.48093
G1 X92.337 Y124.147 E136.71427
G1 X98.345 Y130.155 E139.88366
G1 X98.02 Y130.047 E140.01141
G1 X102.694 Y112.601 E146.74862
G1 X103.028 Y112.675 E146.87623
G1 X94.831 Y114.872 E150.04179
G1 X94.596 Y115.095 E150.16263
G1 X107.404 Y127.903 E156.91923
G1 X107.168 Y128.126 E157.04034
G1 X98.968 Y130.323 E160.20698
G1 X99.306 Y130.398 E160.33613
G1 X103.98 Y112.951 E167.07369
G1 X103.654 Y112.842 E167.20191
G1 X109.66 Y118.849 E170.37052
G1 X109.747 Y119.155 E170.48919
G1 X92.243 Y123.845 E177.24883
G1 X92.089 Y123.134 E177.5202
G1 X91.999 Y122.531 E177.74762
G1 X109.306 Y117.893 E184.43126
G1 X109.458 Y118.262 E184.58013
G1 X106.707 Y128.528 E188.54465
G1 X106.39 Y128.774 E188.69433
G1 X93.724 Y116.109 E195.37575
G1 X93.354 Y116.647 E195.61931
G1 X105.222 Y113.467 E200.20247
G1 X100.641 Y130.565 E206.80531
G1 X91.934 Y121.859 E211.39824
G1 X93.313 Y116.71 E213.3866
G1 X92.992 Y117.261 E213.62447
G1 X105.236 Y129.505 E220.08354
G1 X105.039 Y129.604 E220.16578
G1 X108.55 Y116.5 E225.22624
G1 X108.668 Y116.684 E225.30778
G1 X91.951 Y121.163 E231.76349
G1 X91.968 Y120.646 E231.95644
G1 X92.053 Y120.093 E232.16514
G1 X102.403 Y130.443 E237.62507
G1 X102.039 Y130.498 E237.76239
G1 X106.397 Y114.232 E244.04392
G1 X106.689 Y114.454 E244.18074
G1 X92.549 Y118.243 E249.64132
G1 X92.364 Y118.771 E249.85002
G1 X92.208 Y119.325 E250.06471
G1 X92.116 Y119.739 E250.2229
G1 X107.812 Y115.533 E256.28438
G1 X107.515 Y115.212 E256.44751
G1 X103.498 Y130.202 E262.23636
G1 X103.916 Y130.07 E262.39987
G1 X92.428 Y118.582 E268.46013
G1 F1500 E267.46013
G1 F600 Z1.3
;MESH:NONMESH
G0 F6000 X101.565 Y130.882 Z1.3
;TIME_ELAPSED:30.713635
;LAYER:1
;MESH:Sajad.stl
G0 X101.565 Y130.882 Z1.6
;TYPE:WALL-INNER
G1 F600 Z0.6
G1 F1500 E268.61555
G1 F1800 X102.085 Y130.835 E268.81031
G1 X102.692 Y130.746 E269.03916
G1 X103.252 Y130.625 E269.25287
G1 X103.825 Y130.466 E269.47468
G1 X104.333 Y130.287 E269.6756
G1 X104.861 Y130.069 E269.88868
G1 X105.37 Y129.823 E270.09956
G1 X105.865 Y129.543 E270.3117
G1 X106.342 Y129.234 E270.5237
G1 X106.794 Y128.9 E270.73334
G1 X107.234 Y128.532 E270.94731
G1 X107.648 Y128.144 E271.15896
G1 X108.036 Y127.731 E271.37033
G1 X108.4 Y127.294 E271.58249
G1 X108.738 Y126.836 E271.79481
G1 X109.045 Y126.361 E272.00578
G1 X109.325 Y125.866 E272.21792
G1 X109.569 Y125.361 E272.42713
G1 X109.788 Y124.831 E272.64105
G1 X109.963 Y124.325 E272.84076
G1 X110.127 Y123.745 E273.0656
G1 X110.246 Y123.192 E273.2766
G1 X110.339 Y122.585 E273.50566
G1 X110.382 Y122.067 E273.69955
G1 X110.399 Y121.498 E273.9119
G1 X110.382 Y120.93 E274.12387
G1 X110.335 Y120.415 E274.31677
G1 X110.246 Y119.806 E274.54635
G1 X110.125 Y119.248 E274.75933
G1 X109.966 Y118.675 E274.98115
G1 X109.787 Y118.167 E275.18206
G1 X109.569 Y117.639 E275.39514
G1 X109.323 Y117.13 E275.60602
G1 X109.043 Y116.635 E275.81816
G1 X108.734 Y116.158 E276.03016
G1 X108.4 Y115.706 E276.2398
G1 X108.032 Y115.266 E276.45377
G1 X107.644 Y114.852 E276.66542
G1 X107.231 Y114.464 E276.8768
G1 X106.794 Y114.1 E277.08895
G1 X106.336 Y113.762 E277.30128
G1 X105.861 Y113.455 E277.51225
G1 X105.366 Y113.175 E277.72439
G1 X104.861 Y112.931 E277.9336
G1 X104.335 Y112.714 E278.14585
G1 X103.825 Y112.537 E278.34722
G1 X103.25 Y112.375 E278.57006
G1 X102.69 Y112.254 E278.78377
G1 X102.085 Y112.161 E279.01209
G1 X101.567 Y112.118 E279.20598
G1 X101 Y112.101 E279.41758
G1 X100.435 Y112.118 E279.62843
G1 X99.915 Y112.165 E279.82319
G1 X99.308 Y112.254 E280.05204
G1 X98.748 Y112.375 E280.26575
G1 X98.175 Y112.534 E280.48756
G1 X97.667 Y112.713 E280.68848
G1 X97.139 Y112.931 E280.90156
G1 X96.63 Y113.177 E281.11244
G1 X96.135 Y113.457 E281.32457
G1 X95.658 Y113.766 E281.53658
G1 X95.206 Y114.1 E281.74622
G1 X94.766 Y114.468 E281.96019
G1 X94.352 Y114.856 E282.17184
G1 X93.964 Y115.269 E282.38321
G1 X93.6 Y115.706 E282.59536
G1 X93.262 Y116.164 E282.80769
G1 X92.955 Y116.639 E283.01866
G1 X92.675 Y117.134 E283.2308
G1 X92.431 Y117.639 E283.44001
G1 X92.212 Y118.169 E283.65393
G1 X92.037 Y118.675 E283.85364
G1 X91.873 Y119.255 E284.07848
G1 X91.754 Y119.808 E284.28948
G1 X91.661 Y120.415 E284.51854
G1 X91.618 Y120.933 E284.71243
G1 X91.601 Y121.501 E284.9244
G1 X91.618 Y122.065 E285.13488
G1 X91.665 Y122.585 E285.32964
G1 X91.754 Y123.194 E285.55922
G1 X91.873 Y123.747 E285.77022
G1 X92.034 Y124.325 E285.99404
G1 X92.211 Y124.829 E286.1933
G1 X92.431 Y125.361 E286.40804
G1 X92.675 Y125.866 E286.61725
G1 X92.955 Y126.361 E286.82939
G1 X93.262 Y126.836 E287.04036
G1 X93.6 Y127.294 E287.25269
G1 X93.964 Y127.731 E287.46484
G1 X94.352 Y128.144 E287.67622
G1 X94.766 Y128.532 E287.88787
G1 X95.206 Y128.9 E288.10183
G1 X95.658 Y129.234 E288.31148
G1 X96.136 Y129.543 E288.52379
G1 X96.63 Y129.823 E288.73561
G1 X97.139 Y130.069 E288.94648
G1 X97.665 Y130.286 E289.15873
G1 X98.175 Y130.463 E289.3601
G1 X98.75 Y130.625 E289.58294
G1 X99.31 Y130.746 E289.79665
G1 X99.915 Y130.839 E290.02498
G1 X100.433 Y130.882 E290.21887
G1 X101 Y130.899 E290.43047
G1 X101.565 Y130.882 E290.64132
G0 F6000 X101.589 Y131.282
;TYPE:WALL-OUTER
G1 F1800 X102.132 Y131.233 E290.84469
G1 X102.764 Y131.14 E291.08298
G1 X103.348 Y131.013 E291.30591
G1 X103.945 Y130.848 E291.53695
G1 X104.476 Y130.661 E291.74695
G1 X105.025 Y130.434 E291.96855
G1 X105.556 Y130.177 E292.18861
G1 X106.072 Y129.885 E292.40977
G1 X106.57 Y129.563 E292.63098
G1 X107.041 Y129.215 E292.84942
G1 X107.5 Y128.832 E293.07242
G1 X107.931 Y128.427 E293.29303
G1 X108.336 Y127.996 E293.51364
G1 X108.715 Y127.541 E293.73454
G1 X109.067 Y127.064 E293.95567
G1 X109.387 Y126.568 E294.17585
G1 X109.679 Y126.052 E294.39701
G1 X109.934 Y125.525 E294.61539
G1 X110.162 Y124.973 E294.83817
G1 X110.345 Y124.445 E295.04662
G1 X110.515 Y123.842 E295.28032
G1 X110.64 Y123.264 E295.50091
G1 X110.737 Y122.632 E295.73942
G1 X110.782 Y122.089 E295.94266
G1 X110.799 Y121.498 E296.16321
G1 X110.782 Y120.906 E296.38413
G1 X110.733 Y120.368 E296.58564
G1 X110.64 Y119.734 E296.82467
G1 X110.513 Y119.152 E297.04687
G1 X110.348 Y118.555 E297.27792
G1 X110.161 Y118.024 E297.48791
G1 X109.934 Y117.475 E297.70952
G1 X109.677 Y116.944 E297.92957
G1 X109.385 Y116.428 E298.15073
G1 X109.063 Y115.93 E298.37194
G1 X108.715 Y115.459 E298.59039
G1 X108.332 Y115 E298.81338
G1 X107.927 Y114.569 E299.03399
G1 X107.496 Y114.164 E299.25461
G1 X107.041 Y113.785 E299.4755
G1 X106.564 Y113.433 E299.69663
G1 X106.068 Y113.113 E299.91681
G1 X105.552 Y112.821 E300.13797
G1 X105.025 Y112.566 E300.35636
G1 X104.477 Y112.34 E300.57747
G1 X103.945 Y112.155 E300.78758
G1 X103.347 Y111.987 E301.01928
G1 X102.763 Y111.86 E301.24221
G1 X102.132 Y111.763 E301.48035
G1 X101.589 Y111.718 E301.6836
G1 X101 Y111.701 E301.9034
G1 X100.411 Y111.718 E302.1232
G1 X99.868 Y111.767 E302.32657
G1 X99.236 Y111.86 E302.56485
G1 X98.652 Y111.987 E302.78779
G1 X98.055 Y112.152 E303.01883
G1 X97.524 Y112.339 E303.22883
G1 X96.975 Y112.566 E303.45043
G1 X96.444 Y112.823 E303.67048
G1 X95.928 Y113.115 E303.89164
G1 X95.43 Y113.437 E304.11286
G1 X94.959 Y113.785 E304.3313
G1 X94.5 Y114.168 E304.5543
G1 X94.069 Y114.573 E304.77491
G1 X93.664 Y115.004 E304.99552
G1 X93.285 Y115.459 E305.21641
G1 X92.933 Y115.936 E305.43755
G1 X92.613 Y116.432 E305.65773
G1 X92.321 Y116.948 E305.87889
G1 X92.066 Y117.475 E306.09727
G1 X91.838 Y118.027 E306.32005
G1 X91.655 Y118.555 E306.5285
G1 X91.485 Y119.158 E306.7622
G1 X91.36 Y119.736 E306.98279
G1 X91.263 Y120.368 E307.2213
G1 X91.218 Y120.911 E307.42454
G1 X91.201 Y121.501 E307.64471
G1 X91.218 Y122.089 E307.86414
G1 X91.267 Y122.632 E308.06751
G1 X91.36 Y123.265 E308.30617
G1 X91.485 Y123.843 E308.52676
G1 X91.652 Y124.445 E308.7598
G1 X91.837 Y124.972 E308.96814
G1 X92.066 Y125.525 E309.19141
G1 X92.321 Y126.052 E309.40979
G1 X92.613 Y126.568 E309.63095
G1 X92.933 Y127.064 E309.85113
G1 X93.285 Y127.541 E310.07227
G1 X93.664 Y127.996 E310.29316
G1 X94.069 Y128.427 E310.51377
G1 X94.5 Y128.832 E310.73438
G1 X94.959 Y129.215 E310.95738
