;FLAVOR:Marlin
;TIME:196
;Filament used: 1.68811m, 0m
;Layer height: 0.3
;MINX:91.201
;MINY:111.701
;MINZ:0.3
;MAXX:110.799
;MAXY:131.299
;MAXZ:7
;Generated with Cura_SteamEngine 5.0.1
T0
M140 S40
M105
M190 S40
M104 S200
M105
M109 S200
M82 ;absolute extrusion mode
M900 K0.020;
G28 ; home all axes
G1 Z5 F5000 ; lift nozzle
G1 X-45 Y70 F2500; go to glycerin roller;
G92 E0
G1 X-23 F5000; park to start
G92 E0; Extrude a small amount to clear nozzle
G1 E20 F4000
G4 P2000
G92 E0


G92 E0
G1 F1500 E-1
;LAYER_COUNT:20
;LAYER:0
M107
M204 S500
G1 F600 Z1.3
;MESH:Sajad.stl
G0 F6000 X101.565 Y130.882 Z1.3
;TYPE:WALL-INNER
G1 F600 Z0.3
G1 F1500 E0.15542
G1 F1800 X102.085 Y130.835 E0.35019
G1 X102.692 Y130.746 E0.57903
G1 X103.252 Y130.625 E0.79274
G1 X103.811 Y130.47 E1.00913
G1 X104.32 Y130.291 E1.21039
G1 X104.845 Y130.075 E1.42215
G1 X105.37 Y129.821 E1.6397
G1 X105.865 Y129.543 E1.85148
G1 X106.33 Y129.242 E2.0581
G1 X106.782 Y128.909 E2.26752
G1 X107.224 Y128.541 E2.48206
G1 X107.648 Y128.144 E2.69873
G1 X108.026 Y127.741 E2.90483
G1 X108.392 Y127.304 E3.11746
G1 X108.738 Y126.836 E3.33456
G1 X109.045 Y126.361 E3.54553
G1 X109.318 Y125.878 E3.75249
G1 X109.563 Y125.373 E3.96186
G1 X109.788 Y124.83 E4.18111
G1 X109.963 Y124.325 E4.38048
G1 X110.121 Y123.763 E4.59824
G1 X110.243 Y123.203 E4.81203
G1 X110.337 Y122.599 E5.04005
G1 X110.381 Y122.082 E5.2336
G1 X110.399 Y121.512 E5.44632
G1 X110.382 Y120.929 E5.66389
G1 X110.335 Y120.415 E5.85642
G1 X110.246 Y119.806 E6.086
G1 X110.125 Y119.248 E6.29898
G1 X109.97 Y118.689 E6.51537
G1 X109.792 Y118.18 E6.71651
G1 X109.574 Y117.653 E6.92925
G1 X109.322 Y117.13 E7.1458
G1 X109.043 Y116.635 E7.35775
G1 X108.742 Y116.17 E7.56438
G1 X108.409 Y115.718 E7.7738
G1 X108.041 Y115.276 E7.98834
G1 X107.644 Y114.852 E8.205
G1 X107.241 Y114.474 E8.41111
G1 X106.804 Y114.108 E8.62374
G1 X106.336 Y113.762 E8.84084
G1 X105.861 Y113.455 E9.05181
G1 X105.378 Y113.182 E9.25877
G1 X104.874 Y112.937 E9.46781
G1 X104.334 Y112.714 E9.68574
G1 X103.825 Y112.537 E9.88676
G1 X103.263 Y112.379 E10.10452
G1 X102.703 Y112.257 E10.31831
G1 X102.099 Y112.163 E10.54633
G1 X101.582 Y112.119 E10.73987
G1 X101.014 Y112.101 E10.95186
G1 X100.435 Y112.118 E11.16793
G1 X99.915 Y112.165 E11.36269
G1 X99.308 Y112.254 E11.59153
G1 X98.748 Y112.375 E11.80524
G1 X98.189 Y112.53 E12.02163
G1 X97.68 Y112.709 E12.22289
G1 X97.155 Y112.924 E12.43451
G1 X96.63 Y113.179 E12.65223
G1 X96.135 Y113.457 E12.864
G1 X95.67 Y113.758 E13.07062
G1 X95.218 Y114.091 E13.28004
G1 X94.776 Y114.459 E13.49458
G1 X94.352 Y114.856 E13.71125
G1 X93.974 Y115.259 E13.91736
G1 X93.608 Y115.696 E14.12998
G1 X93.262 Y116.164 E14.34709
G1 X92.955 Y116.639 E14.55806
G1 X92.682 Y117.122 E14.76501
G1 X92.437 Y117.627 E14.97439
G1 X92.212 Y118.17 E15.19364
G1 X92.037 Y118.675 E15.393
G1 X91.879 Y119.237 E15.61077
G1 X91.757 Y119.797 E15.82456
G1 X91.663 Y120.401 E16.05257
G1 X91.619 Y120.918 E16.24612
G1 X91.601 Y121.488 E16.45885
G1 X91.618 Y122.065 E16.67417
G1 X91.665 Y122.585 E16.86893
G1 X91.754 Y123.194 E17.09851
G1 X91.873 Y123.747 E17.30952
G1 X92.03 Y124.311 E17.5279
G1 X92.207 Y124.816 E17.72751
G1 X92.424 Y125.344 E17.94045
G1 X92.678 Y125.868 E18.15766
G1 X92.955 Y126.361 E18.3686
G1 X93.255 Y126.825 E18.57471
G1 X93.591 Y127.282 E18.78629
G1 X93.956 Y127.72 E18.99897
G1 X94.352 Y128.144 E19.21538
G1 X94.757 Y128.525 E19.4228
G1 X95.194 Y128.891 E19.63543
G1 X95.658 Y129.234 E19.85067
G1 X96.136 Y129.543 E20.06298
G1 X96.618 Y129.816 E20.26961
G1 X97.127 Y130.063 E20.48065
G1 X97.666 Y130.286 E20.69824
G1 X98.175 Y130.463 E20.89926
G1 X98.737 Y130.621 E21.11702
G1 X99.297 Y130.743 E21.33081
G1 X99.901 Y130.837 E21.55883
G1 X100.418 Y130.881 E21.75238
G1 X100.986 Y130.899 E21.96436
G1 X101.565 Y130.882 E22.18043
G0 F6000 X101.589 Y131.282
;TYPE:WALL-OUTER
G1 F1800 X102.132 Y131.233 E22.3838
G1 X102.764 Y131.14 E22.62209
G1 X103.348 Y131.013 E22.84502
G1 X103.931 Y130.852 E23.07064
G1 X104.462 Y130.665 E23.28063
G1 X105.008 Y130.441 E23.50077
G1 X105.556 Y130.176 E23.72784
G1 X106.072 Y129.885 E23.94881
G1 X106.558 Y129.571 E24.16465
G1 X107.029 Y129.224 E24.38287
G1 X107.489 Y128.841 E24.60615
G1 X107.931 Y128.427 E24.83205
G1 X108.326 Y128.007 E25.04712
G1 X108.706 Y127.552 E25.26825
G1 X109.067 Y127.064 E25.49468
G1 X109.387 Y126.568 E25.71486
G1 X109.672 Y126.064 E25.93084
G1 X109.928 Y125.537 E26.14939
G1 X110.162 Y124.972 E26.3775
G1 X110.345 Y124.445 E26.5856
G1 X110.509 Y123.86 E26.81223
G1 X110.637 Y123.277 E27.03488
G1 X110.735 Y122.647 E27.27271
G1 X110.781 Y122.105 E27.47561
G1 X110.799 Y121.512 E27.69691
G1 X110.782 Y120.905 E27.92342
G1 X110.733 Y120.368 E28.12457
G1 X110.64 Y119.734 E28.36359
G1 X110.513 Y119.152 E28.5858
G1 X110.352 Y118.569 E28.81141
G1 X110.166 Y118.038 E29.02128
G1 X109.94 Y117.489 E29.24274
G1 X109.676 Y116.944 E29.46863
G1 X109.385 Y116.428 E29.68961
G1 X109.071 Y115.942 E29.90544
G1 X108.724 Y115.471 E30.12367
G1 X108.341 Y115.011 E30.34695
G1 X107.927 Y114.569 E30.57285
G1 X107.507 Y114.174 E30.78792
G1 X107.052 Y113.794 E31.00905
G1 X106.564 Y113.433 E31.23548
G1 X106.068 Y113.113 E31.45566
G1 X105.564 Y112.828 E31.67164
G1 X105.038 Y112.572 E31.88985
G1 X104.476 Y112.34 E32.11665
G1 X103.945 Y112.155 E32.3264
G1 X103.36 Y111.991 E32.55303
G1 X102.777 Y111.863 E32.77568
G1 X102.147 Y111.765 E33.0135
G1 X101.605 Y111.719 E33.21641
G1 X101.014 Y111.701 E33.43696
G1 X100.411 Y111.718 E33.66198
G1 X99.868 Y111.767 E33.86536
G1 X99.236 Y111.86 E34.10364
G1 X98.652 Y111.987 E34.32658
G1 X98.069 Y112.148 E34.55219
G1 X97.538 Y112.335 E34.76219
G1 X96.992 Y112.559 E34.98233
G1 X96.444 Y112.824 E35.20939
G1 X95.928 Y113.115 E35.43037
G1 X95.442 Y113.429 E35.6462
G1 X94.971 Y113.776 E35.86442
G1 X94.511 Y114.159 E36.0877
G1 X94.069 Y114.573 E36.31361
G1 X93.674 Y114.993 E36.52868
G1 X93.294 Y115.448 E36.74981
G1 X92.933 Y115.936 E36.97623
G1 X92.613 Y116.432 E37.19641
G1 X92.328 Y116.936 E37.41239
G1 X92.072 Y117.463 E37.63094
G1 X91.838 Y118.028 E37.85906
G1 X91.655 Y118.555 E38.06715
G1 X91.491 Y119.14 E38.29378
G1 X91.363 Y119.723 E38.51643
G1 X91.265 Y120.353 E38.75426
G1 X91.219 Y120.895 E38.95716
G1 X91.201 Y121.488 E39.17847
G1 X91.218 Y122.089 E39.40274
G1 X91.267 Y122.632 E39.60611
G1 X91.36 Y123.265 E39.84477
G1 X91.485 Y123.843 E40.06536
G1 X91.648 Y124.431 E40.29297
G1 X91.833 Y124.958 E40.50131
G1 X92.059 Y125.508 E40.72311
G1 X92.323 Y126.054 E40.94934
G1 X92.613 Y126.568 E41.16948
G1 X92.925 Y127.052 E41.38429
G1 X93.276 Y127.528 E41.6049
G1 X93.656 Y127.985 E41.8266
G1 X94.069 Y128.427 E42.05225
G1 X94.491 Y128.824 E42.26837
G1 X94.946 Y129.205 E42.48974
G1 X95.43 Y129.563 E42.7143
G1 X95.928 Y129.885 E42.93552
G1 X96.432 Y130.17 E43.15149
G1 X96.963 Y130.428 E43.37171
G1 X97.524 Y130.66 E43.59816
G1 X98.055 Y130.845 E43.80791
G1 X98.64 Y131.009 E44.03454
G1 X99.223 Y131.137 E44.25719
G1 X99.853 Y131.235 E44.49502
G1 X100.395 Y131.281 E44.69792
G1 X100.986 Y131.299 E44.91848
G1 X101.589 Y131.282 E45.1435
G0 F6000 X101.788 Y131.265
G1 F1500 E44.1435
G1 F600 Z1.3
G0 F6000 X92.353 Y124.202 Z1.3
;TYPE:FILL
G1 F600 Z0.3
G1 F1500 E45.29893
G1 F2400 X92.522 Y124.689 E45.49121
G1 X92.732 Y125.199 E45.69695
G1 X92.981 Y125.712 E45.90966
G1 X93.244 Y126.179 E46.10958
G1 X93.531 Y126.625 E46.30742
G1 X93.856 Y127.066 E46.51177
G1 X94.212 Y127.495 E46.71972
G1 X94.593 Y127.902 E46.92768
G1 X94.987 Y128.273 E47.12955
G1 X95.4 Y128.619 E47.33052
G1 X95.851 Y128.952 E47.53964
G1 X96.312 Y129.251 E47.74461
G1 X96.78 Y129.516 E47.94522
G1 X97.265 Y129.751 E48.14626
G1 X97.782 Y129.965 E48.35498
G1 X98.342 Y130.155 E48.57556
G1 X92.338 Y124.151 E51.74285
G1 X92.203 Y123.659 E51.93316
G1 X92.088 Y123.133 E52.134
G1 X91.964 Y122.287 E52.45295
G1 X91.94 Y121.493 E52.74926
G1 X91.967 Y120.645 E53.06574
G1 X92.092 Y119.853 E53.36483
G1 X92.208 Y119.324 E53.56684
G1 X92.418 Y118.573 E53.85773
G1 X103.927 Y130.083 E59.92932
G1 X104.706 Y129.763 E60.24347
G1 X105.218 Y129.516 E60.45552
G1 X105.691 Y129.248 E60.65831
G1 X106.143 Y128.957 E60.85883
G1 X106.568 Y128.643 E61.05594
G1 X107.004 Y128.281 E61.26733
G1 X107.404 Y127.903 E61.47262
G1 X94.596 Y115.095 E68.22921
G1 X94.996 Y114.717 E68.4345
G1 X95.431 Y114.354 E68.64584
G1 X95.857 Y114.041 E68.84303
G1 X96.317 Y113.744 E69.04727
G1 X96.78 Y113.482 E69.24572
G1 X97.292 Y113.233 E69.45809
G1 X98.072 Y112.915 E69.7723
G1 X109.581 Y124.423 E75.84337
G1 X109.792 Y123.674 E76.13363
G1 X109.908 Y123.145 E76.33565
G1 X110.032 Y122.352 E76.63505
G1 X110.059 Y121.505 E76.95115
G1 X110.035 Y120.713 E77.24672
G1 X109.909 Y119.858 E77.5691
G1 X109.796 Y119.335 E77.76869
G1 X109.642 Y118.784 E77.9821
G1 X109.472 Y118.295 E78.17521
G1 X109.262 Y117.784 E78.38129
G1 X109.016 Y117.28 E78.5905
G1 X108.755 Y116.816 E78.78908
G1 X108.457 Y116.357 E78.99322
G1 X108.137 Y115.922 E79.19465
G1 X107.782 Y115.495 E79.40179
G1 X107.398 Y115.087 E79.61079
G1 X107.021 Y114.731 E79.80421
G1 X106.589 Y114.372 E80.01373
G1 X106.14 Y114.04 E80.22203
G1 X105.682 Y113.744 E80.42545
G1 X105.214 Y113.479 E80.62606
G1 X104.735 Y113.246 E80.82476
G1 X104.218 Y113.033 E81.03333
G1 X103.658 Y112.843 E81.25392
G1 X109.66 Y118.845 E84.42015
G1 F1500 E83.42015
G1 F600 Z1.3
;MESH:NONMESH
G0 F6000 X101.565 Y130.882 Z1.3
;TIME_ELAPSED:13.129400
;LAYER:1
;MESH:Sajad.stl
G0 X101.565 Y130.882 Z1.6
;TYPE:WALL-INNER
G1 F600 Z0.6
G1 F1500 E84.57558
G1 F1800 X102.085 Y130.835 E84.77034
G1 X102.692 Y130.746 E84.99918
G1 X103.252 Y130.625 E85.21289
G1 X103.825 Y130.466 E85.43471
G1 X104.333 Y130.287 E85.63562
G1 X104.861 Y130.069 E85.8487
G1 X105.37 Y129.823 E86.05958
G1 X105.865 Y129.543 E86.27172
G1 X106.342 Y129.234 E86.48372
G1 X106.794 Y128.9 E86.69336
G1 X107.234 Y128.532 E86.90733
G1 X107.648 Y128.144 E87.11898
G1 X108.036 Y127.731 E87.33036
G1 X108.4 Y127.294 E87.54251
G1 X108.738 Y126.836 E87.75484
G1 X109.045 Y126.361 E87.96581
G1 X109.325 Y125.866 E88.17795
G1 X109.569 Y125.361 E88.38716
G1 X109.788 Y124.831 E88.60107
G1 X109.963 Y124.325 E88.80079
G1 X110.127 Y123.745 E89.02562
G1 X110.246 Y123.192 E89.23662
G1 X110.339 Y122.585 E89.46569
G1 X110.382 Y122.067 E89.65958
G1 X110.399 Y121.498 E89.87192
G1 X110.382 Y120.93 E90.08389
G1 X110.335 Y120.415 E90.27679
G1 X110.246 Y119.806 E90.50637
G1 X110.125 Y119.248 E90.71936
G1 X109.966 Y118.675 E90.94117
G1 X109.787 Y118.167 E91.14209
G1 X109.569 Y117.639 E91.35517
G1 X109.323 Y117.13 E91.56605
G1 X109.043 Y116.635 E91.77818
G1 X108.734 Y116.158 E91.99019
G1 X108.4 Y115.706 E92.19983
G1 X108.032 Y115.266 E92.41379
G1 X107.644 Y114.852 E92.62544
G1 X107.231 Y114.464 E92.83682
G1 X106.794 Y114.1 E93.04897
G1 X106.336 Y113.762 E93.2613
G1 X105.861 Y113.455 E93.47227
G1 X105.366 Y113.175 E93.68441
G1 X104.861 Y112.931 E93.89362
G1 X104.335 Y112.714 E94.10587
G1 X103.825 Y112.537 E94.30724
G1 X103.25 Y112.375 E94.53008
G1 X102.69 Y112.254 E94.74379
G1 X102.085 Y112.161 E94.97212
G1 X101.567 Y112.118 E95.16601
G1 X101 Y112.101 E95.3776
G1 X100.435 Y112.118 E95.58845
G1 X99.915 Y112.165 E95.78322
G1 X99.308 Y112.254 E96.01206
G1 X98.748 Y112.375 E96.22577
G1 X98.175 Y112.534 E96.44759
G1 X97.667 Y112.713 E96.6485
G1 X97.139 Y112.931 E96.86158
G1 X96.63 Y113.177 E97.07246
G1 X96.135 Y113.457 E97.2846
G1 X95.658 Y113.766 E97.4966
G1 X95.206 Y114.1 E97.70624
G1 X94.766 Y114.468 E97.92021
G1 X94.352 Y114.856 E98.13186
G1 X93.964 Y115.269 E98.34324
G1 X93.6 Y115.706 E98.55539
G1 X93.262 Y116.164 E98.76772
G1 X92.955 Y116.639 E98.97869
G1 X92.675 Y117.134 E99.19083
G1 X92.431 Y117.639 E99.40004
G1 X92.212 Y118.169 E99.61395
G1 X92.037 Y118.675 E99.81367
G1 X91.873 Y119.255 E100.0385
G1 X91.754 Y119.808 E100.2495
G1 X91.661 Y120.415 E100.47857
G1 X91.618 Y120.933 E100.67246
G1 X91.601 Y121.501 E100.88443
G1 X91.618 Y122.065 E101.0949
G1 X91.665 Y122.585 E101.28966
G1 X91.754 Y123.194 E101.51925
G1 X91.873 Y123.747 E101.73025
G1 X92.034 Y124.325 E101.95406
G1 X92.211 Y124.829 E102.15332
G1 X92.431 Y125.361 E102.36807
G1 X92.675 Y125.866 E102.57728
G1 X92.955 Y126.361 E102.78941
G1 X93.262 Y126.836 E103.00038
G1 X93.6 Y127.294 E103.21271
G1 X93.964 Y127.731 E103.42486
G1 X94.352 Y128.144 E103.63624
G1 X94.766 Y128.532 E103.84789
G1 X95.206 Y128.9 E104.06186
G1 X95.658 Y129.234 E104.2715
G1 X96.136 Y129.543 E104.48382
G1 X96.63 Y129.823 E104.69563
G1 X97.139 Y130.069 E104.90651
G1 X97.665 Y130.286 E105.11876
G1 X98.175 Y130.463 E105.32013
G1 X98.75 Y130.625 E105.54296
G1 X99.31 Y130.746 E105.75668
G1 X99.915 Y130.839 E105.985
G1 X100.433 Y130.882 E106.17889
G1 X101 Y130.899 E106.39049
G1 X101.565 Y130.882 E106.60134
G0 F6000 X101.589 Y131.282
;TYPE:WALL-OUTER
G1 F1800 X102.132 Y131.233 E106.80471
G1 X102.764 Y131.14 E107.043
G1 X103.348 Y131.013 E107.26593
G1 X103.945 Y130.848 E107.49698
G1 X104.476 Y130.661 E107.70697
G1 X105.025 Y130.434 E107.92858
G1 X105.556 Y130.177 E108.14863
G1 X106.072 Y129.885 E108.36979
G1 X106.57 Y129.563 E108.591
G1 X107.041 Y129.215 E108.80945
G1 X107.5 Y128.832 E109.03244
G1 X107.931 Y128.427 E109.25305
G1 X108.336 Y127.996 E109.47367
G1 X108.715 Y127.541 E109.69456
G1 X109.067 Y127.064 E109.91569
G1 X109.387 Y126.568 E110.13587
G1 X109.679 Y126.052 E110.35703
G1 X109.934 Y125.525 E110.57542
G1 X110.162 Y124.973 E110.7982
G1 X110.345 Y124.445 E111.00665
G1 X110.515 Y123.842 E111.24034
G1 X110.64 Y123.264 E111.46093
G1 X110.737 Y122.632 E111.69944
G1 X110.782 Y122.089 E111.90269
G1 X110.799 Y121.498 E112.12323
G1 X110.782 Y120.906 E112.34415
G1 X110.733 Y120.368 E112.54567
G1 X110.64 Y119.734 E112.78469
G1 X110.513 Y119.152 E113.0069
G1 X110.348 Y118.555 E113.23794
G1 X110.161 Y118.024 E113.44794
G1 X109.934 Y117.475 E113.66954
G1 X109.677 Y116.944 E113.88959
G1 X109.385 Y116.428 E114.11075
G1 X109.063 Y115.93 E114.33196
G1 X108.715 Y115.459 E114.55041
G1 X108.332 Y115 E114.7734
G1 X107.927 Y114.569 E114.99402
G1 X107.496 Y114.164 E115.21463
G1 X107.041 Y113.785 E115.43552
G1 X106.564 Y113.433 E115.65665
G1 X106.068 Y113.113 E115.87684
G1 X105.552 Y112.821 E116.098
G1 X105.025 Y112.566 E116.31638
G1 X104.477 Y112.34 E116.5375
G1 X103.945 Y112.155 E116.7476
G1 X103.347 Y111.987 E116.9793
G1 X102.763 Y111.86 E117.20223
G1 X102.132 Y111.763 E117.44037
G1 X101.589 Y111.718 E117.64362
G1 X101 Y111.701 E117.86342
G1 X100.411 Y111.718 E118.08322
G1 X99.868 Y111.767 E118.28659
G1 X99.236 Y111.86 E118.52488
G1 X98.652 Y111.987 E118.74781
G1 X98.055 Y112.152 E118.97885
G1 X97.524 Y112.339 E119.18885
G1 X96.975 Y112.566 E119.41045
G1 X96.444 Y112.823 E119.63051
G1 X95.928 Y113.115 E119.85167
G1 X95.43 Y113.437 E120.07288
G1 X94.959 Y113.785 E120.29133
G1 X94.5 Y114.168 E120.51432
G1 X94.069 Y114.573 E120.73493
G1 X93.664 Y115.004 E120.95555
G1 X93.285 Y115.459 E121.17644
G1 X92.933 Y115.936 E121.39757
G1 X92.613 Y116.432 E121.61775
G1 X92.321 Y116.948 E121.83891
G1 X92.066 Y117.475 E122.0573
G1 X91.838 Y118.027 E122.28008
G1 X91.655 Y118.555 E122.48852
G1 X91.485 Y119.158 E122.72222
G1 X91.36 Y119.736 E122.94281
G1 X91.263 Y120.368 E123.18132
G1 X91.218 Y120.911 E123.38457
G1 X91.201 Y121.501 E123.60474
G1 X91.218 Y122.089 E123.82416
G1 X91.267 Y122.632 E124.02754
G1 X91.36 Y123.265 E124.26619
G1 X91.485 Y123.843 E124.48678
G1 X91.652 Y124.445 E124.71982
G1 X91.837 Y124.972 E124.92816
G1 X92.066 Y125.525 E125.15143
G1 X92.321 Y126.052 E125.36981
G1 X92.613 Y126.568 E125.59097
G1 X92.933 Y127.064 E125.81116
G1 X93.285 Y127.541 E126.03229
G1 X93.664 Y127.996 E126.25318
G1 X94.069 Y128.427 E126.47379
G1 X94.5 Y128.832 E126.69441
G1 X94.959 Y129.215 E126.9174
G1 X95.43 Y129.563 E127.13585
G1 X95.928 Y129.885 E127.35706
G1 X96.444 Y130.177 E127.57822
G1 X96.975 Y130.434 E127.79827
G1 X97.523 Y130.66 E128.01939
G1 X98.055 Y130.845 E128.22949
G1 X98.653 Y131.013 E128.46119
G1 X99.237 Y131.14 E128.68413
G1 X99.868 Y131.237 E128.92227
G1 X100.411 Y131.282 E129.12551
G1 X101 Y131.299 E129.34531
G1 X101.589 Y131.282 E129.56511
G0 F6000 X101.788 Y131.265
G1 F1500 E128.56511
G1 F600 Z1.6
G0 F6000 X103.726 Y130.139 Z1.6
;TYPE:FILL
G1 F600 Z0.6
G1 F1500 E129.72053
G1 F2400 X104.217 Y129.966 E129.91472
G1 X104.723 Y129.757 E130.11894
