;FLAVOR:Marlin
;TIME:334
;Filament used: 3.05114m, 0m
;Layer height: 0.3
;MINX:91.201
;MINY:111.701
;MINZ:0.3
;MAXX:110.799
;MAXY:131.299
;MAXZ:7
;Generated with Cura_SteamEngine 5.0.1
T0
M140 S40
M105
M190 S40
M104 S200
M105
M109 S200
M82 ;absolute extrusion mode
M900 K0.020;
G28 ; home all axes
G1 Z5 F5000 ; lift nozzle
G1 X-45 Y70 F2500; go to glycerin roller;
G92 E0
G1 X-23 F5000; park to start
G92 E0; Extrude a small amount to clear nozzle
G1 E20 F4000
G4 P2000
G92 E0


G92 E0
G1 F1500 E-1
;LAYER_COUNT:20
;LAYER:0
M107
M204 S500
G1 F600 Z1.3
;MESH:Sajad.stl
G0 F6000 X101.565 Y130.882 Z1.3
;TYPE:WALL-INNER
G1 F600 Z0.3
G1 F1500 E0.15542
G1 F1800 X102.085 Y130.835 E0.35019
G1 X102.692 Y130.746 E0.57903
G1 X103.252 Y130.625 E0.79274
G1 X103.811 Y130.47 E1.00913
G1 X104.32 Y130.291 E1.21039
G1 X104.845 Y130.075 E1.42215
G1 X105.37 Y129.821 E1.6397
G1 X105.865 Y129.543 E1.85148
G1 X106.33 Y129.242 E2.0581
G1 X106.782 Y128.909 E2.26752
G1 X107.224 Y128.541 E2.48206
G1 X107.648 Y128.144 E2.69873
G1 X108.026 Y127.741 E2.90483
G1 X108.392 Y127.304 E3.11746
G1 X108.738 Y126.836 E3.33456
G1 X109.045 Y126.361 E3.54553
G1 X109.318 Y125.878 E3.75249
G1 X109.563 Y125.373 E3.96186
G1 X109.788 Y124.83 E4.18111
G1 X109.963 Y124.325 E4.38048
G1 X110.121 Y123.763 E4.59824
G1 X110.243 Y123.203 E4.81203
G1 X110.337 Y122.599 E5.04005
G1 X110.381 Y122.082 E5.2336
G1 X110.399 Y121.512 E5.44632
G1 X110.382 Y120.929 E5.66389
G1 X110.335 Y120.415 E5.85642
G1 X110.246 Y119.806 E6.086
G1 X110.125 Y119.248 E6.29898
G1 X109.97 Y118.689 E6.51537
G1 X109.792 Y118.18 E6.71651
G1 X109.574 Y117.653 E6.92925
G1 X109.322 Y117.13 E7.1458
G1 X109.043 Y116.635 E7.35775
G1 X108.742 Y116.17 E7.56438
G1 X108.409 Y115.718 E7.7738
G1 X108.041 Y115.276 E7.98834
G1 X107.644 Y114.852 E8.205
G1 X107.241 Y114.474 E8.41111
G1 X106.804 Y114.108 E8.62374
G1 X106.336 Y113.762 E8.84084
G1 X105.861 Y113.455 E9.05181
G1 X105.378 Y113.182 E9.25877
G1 X104.874 Y112.937 E9.46781
G1 X104.334 Y112.714 E9.68574
G1 X103.825 Y112.537 E9.88676
G1 X103.263 Y112.379 E10.10452
G1 X102.703 Y112.257 E10.31831
G1 X102.099 Y112.163 E10.54633
G1 X101.582 Y112.119 E10.73987
G1 X101.014 Y112.101 E10.95186
G1 X100.435 Y112.118 E11.16793
G1 X99.915 Y112.165 E11.36269
G1 X99.308 Y112.254 E11.59153
G1 X98.748 Y112.375 E11.80524
G1 X98.189 Y112.53 E12.02163
G1 X97.68 Y112.709 E12.22289
G1 X97.155 Y112.924 E12.43451
G1 X96.63 Y113.179 E12.65223
G1 X96.135 Y113.457 E12.864
G1 X95.67 Y113.758 E13.07062
G1 X95.218 Y114.091 E13.28004
G1 X94.776 Y114.459 E13.49458
G1 X94.352 Y114.856 E13.71125
G1 X93.974 Y115.259 E13.91736
G1 X93.608 Y115.696 E14.12998
G1 X93.262 Y116.164 E14.34709
G1 X92.955 Y116.639 E14.55806
G1 X92.682 Y117.122 E14.76501
G1 X92.437 Y117.627 E14.97439
G1 X92.212 Y118.17 E15.19364
G1 X92.037 Y118.675 E15.393
G1 X91.879 Y119.237 E15.61077
G1 X91.757 Y119.797 E15.82456
G1 X91.663 Y120.401 E16.05257
G1 X91.619 Y120.918 E16.24612
G1 X91.601 Y121.488 E16.45885
G1 X91.618 Y122.065 E16.67417
G1 X91.665 Y122.585 E16.86893
G1 X91.754 Y123.194 E17.09851
G1 X91.873 Y123.747 E17.30952
G1 X92.03 Y124.311 E17.5279
G1 X92.207 Y124.816 E17.72751
G1 X92.424 Y125.344 E17.94045
G1 X92.678 Y125.868 E18.15766
G1 X92.955 Y126.361 E18.3686
G1 X93.255 Y126.825 E18.57471
G1 X93.591 Y127.282 E18.78629
G1 X93.956 Y127.72 E18.99897
G1 X94.352 Y128.144 E19.21538
G1 X94.757 Y128.525 E19.4228
G1 X95.194 Y128.891 E19.63543
G1 X95.658 Y129.234 E19.85067
G1 X96.136 Y129.543 E20.06298
G1 X96.618 Y129.816 E20.26961
G1 X97.127 Y130.063 E20.48065
G1 X97.666 Y130.286 E20.69824
G1 X98.175 Y130.463 E20.89926
G1 X98.737 Y130.621 E21.11702
G1 X99.297 Y130.743 E21.33081
G1 X99.901 Y130.837 E21.55883
G1 X100.418 Y130.881 E21.75238
G1 X100.986 Y130.899 E21.96436
G1 X101.565 Y130.882 E22.18043
G0 F6000 X101.589 Y131.282
;TYPE:WALL-OUTER
G1 F1800 X102.132 Y131.233 E22.3838
G1 X102.764 Y131.14 E22.62209
G1 X103.348 Y131.013 E22.84502
G1 X103.931 Y130.852 E23.07064
G1 X104.462 Y130.665 E23.28063
G1 X105.008 Y130.441 E23.50077
G1 X105.556 Y130.176 E23.72784
G1 X106.072 Y129.885 E23.94881
G1 X106.558 Y129.571 E24.16465
G1 X107.029 Y129.224 E24.38287
G1 X107.489 Y128.841 E24.60615
G1 X107.931 Y128.427 E24.83205
G1 X108.326 Y128.007 E25.04712
G1 X108.706 Y127.552 E25.26825
G1 X109.067 Y127.064 E25.49468
G1 X109.387 Y126.568 E25.71486
G1 X109.672 Y126.064 E25.93084
G1 X109.928 Y125.537 E26.14939
G1 X110.162 Y124.972 E26.3775
G1 X110.345 Y124.445 E26.5856
G1 X110.509 Y123.86 E26.81223
G1 X110.637 Y123.277 E27.03488
G1 X110.735 Y122.647 E27.27271
G1 X110.781 Y122.105 E27.47561
G1 X110.799 Y121.512 E27.69691
G1 X110.782 Y120.905 E27.92342
G1 X110.733 Y120.368 E28.12457
G1 X110.64 Y119.734 E28.36359
G1 X110.513 Y119.152 E28.5858
G1 X110.352 Y118.569 E28.81141
G1 X110.166 Y118.038 E29.02128
G1 X109.94 Y117.489 E29.24274
G1 X109.676 Y116.944 E29.46863
G1 X109.385 Y116.428 E29.68961
G1 X109.071 Y115.942 E29.90544
G1 X108.724 Y115.471 E30.12367
G1 X108.341 Y115.011 E30.34695
G1 X107.927 Y114.569 E30.57285
G1 X107.507 Y114.174 E30.78792
G1 X107.052 Y113.794 E31.00905
G1 X106.564 Y113.433 E31.23548
G1 X106.068 Y113.113 E31.45566
G1 X105.564 Y112.828 E31.67164
G1 X105.038 Y112.572 E31.88985
G1 X104.476 Y112.34 E32.11665
G1 X103.945 Y112.155 E32.3264
G1 X103.36 Y111.991 E32.55303
G1 X102.777 Y111.863 E32.77568
G1 X102.147 Y111.765 E33.0135
G1 X101.605 Y111.719 E33.21641
G1 X101.014 Y111.701 E33.43696
G1 X100.411 Y111.718 E33.66198
G1 X99.868 Y111.767 E33.86536
G1 X99.236 Y111.86 E34.10364
G1 X98.652 Y111.987 E34.32658
G1 X98.069 Y112.148 E34.55219
G1 X97.538 Y112.335 E34.76219
G1 X96.992 Y112.559 E34.98233
G1 X96.444 Y112.824 E35.20939
G1 X95.928 Y113.115 E35.43037
G1 X95.442 Y113.429 E35.6462
G1 X94.971 Y113.776 E35.86442
G1 X94.511 Y114.159 E36.0877
G1 X94.069 Y114.573 E36.31361
G1 X93.674 Y114.993 E36.52868
G1 X93.294 Y115.448 E36.74981
G1 X92.933 Y115.936 E36.97623
G1 X92.613 Y116.432 E37.19641
G1 X92.328 Y116.936 E37.41239
G1 X92.072 Y117.463 E37.63094
G1 X91.838 Y118.028 E37.85906
G1 X91.655 Y118.555 E38.06715
G1 X91.491 Y119.14 E38.29378
G1 X91.363 Y119.723 E38.51643
G1 X91.265 Y120.353 E38.75426
G1 X91.219 Y120.895 E38.95716
G1 X91.201 Y121.488 E39.17847
G1 X91.218 Y122.089 E39.40274
G1 X91.267 Y122.632 E39.60611
G1 X91.36 Y123.265 E39.84477
G1 X91.485 Y123.843 E40.06536
G1 X91.648 Y124.431 E40.29297
G1 X91.833 Y124.958 E40.50131
G1 X92.059 Y125.508 E40.72311
G1 X92.323 Y126.054 E40.94934
G1 X92.613 Y126.568 E41.16948
G1 X92.925 Y127.052 E41.38429
G1 X93.276 Y127.528 E41.6049
G1 X93.656 Y127.985 E41.8266
G1 X94.069 Y128.427 E42.05225
G1 X94.491 Y128.824 E42.26837
G1 X94.946 Y129.205 E42.48974
G1 X95.43 Y129.563 E42.7143
G1 X95.928 Y129.885 E42.93552
G1 X96.432 Y130.17 E43.15149
G1 X96.963 Y130.428 E43.37171
G1 X97.524 Y130.66 E43.59816
G1 X98.055 Y130.845 E43.80791
G1 X98.64 Y131.009 E44.03454
G1 X99.223 Y131.137 E44.25719
G1 X99.853 Y131.235 E44.49502
G1 X100.395 Y131.281 E44.69792
G1 X100.986 Y131.299 E44.91848
G1 X101.589 Y131.282 E45.1435
G0 F6000 X101.788 Y131.265
G1 F1500 E44.1435
G1 F600 Z1.3
G0 F6000 X94.212 Y127.495 Z1.3
;TYPE:FILL
G1 F600 Z0.3
G1 F1500 E45.29893
G1 F2400 X94.593 Y127.902 E45.50689
G1 X94.987 Y128.273 E45.70876
G1 X95.355 Y128.582 E45.888
G1 X93.904 Y127.131 E46.65345
G1 X93.531 Y126.625 E46.88793
G1 X93.244 Y126.179 E47.08577
G1 X92.981 Y125.712 E47.2857
G1 X92.732 Y125.199 E47.4984
G1 X92.522 Y124.689 E47.70414
G1 X92.338 Y124.151 E47.91624
G1 X98.342 Y130.155 E51.08352
G1 X98.825 Y130.291 E51.2707
G1 X99.352 Y130.407 E51.47198
G1 X100.129 Y130.528 E51.76531
G1 X91.966 Y122.365 E56.07153
G1 X91.94 Y121.493 E56.39695
G1 X91.957 Y120.942 E56.60258
G1 X101.58 Y130.565 E61.67899
G1 X102.812 Y130.382 E62.1436
G1 X92.109 Y119.679 E67.78974
G1 X92.418 Y118.573 E68.2181
G1 X103.927 Y130.083 E74.2897
G1 X104.93 Y129.671 E74.69417
G1 X92.821 Y117.563 E81.08175
G1 X93.332 Y116.66 E81.46878
G1 X105.847 Y129.175 E88.07081
G1 X106.661 Y128.574 E88.44824
G1 X93.928 Y115.841 E95.16527
G1 X94.232 Y115.478 E95.34189
G1 X94.596 Y115.095 E95.53898
G1 X107.404 Y127.903 E102.29558
G1 X107.768 Y127.52 E102.49267
G1 X108.071 Y127.156 E102.66934
G1 X95.338 Y114.423 E109.38637
G1 X96.153 Y113.823 E109.76388
G1 X108.666 Y126.337 E116.36511
G1 X109.177 Y125.433 E116.75247
G1 X97.068 Y113.325 E123.14005
G1 X98.072 Y112.915 E123.54459
G1 X109.581 Y124.423 E129.61566
G1 X109.892 Y123.32 E130.04314
G1 X99.187 Y112.615 E135.69034
G1 X100.419 Y112.432 E136.15494
G1 X110.042 Y122.055 E141.23135
G1 X110.059 Y121.505 E141.43661
G1 X110.033 Y120.632 E141.7624
G1 X101.87 Y112.47 E146.06836
G1 X102.646 Y112.591 E146.36132
G1 X103.175 Y112.707 E146.56333
G1 X103.658 Y112.843 E146.75051
G1 X109.66 Y118.845 E149.91674
G1 X109.472 Y118.295 E150.13355
G1 X109.262 Y117.784 E150.33963
G1 X109.016 Y117.28 E150.54883
G1 X108.755 Y116.816 E150.74742
G1 X108.457 Y116.357 E150.95155
G1 X108.098 Y115.869 E151.17754
G1 X106.657 Y114.428 E151.93771
G1 X107.021 Y114.731 E152.11437
G1 X107.398 Y115.087 E152.30779
G1 X107.782 Y115.495 E152.51679
G1 F1500 E151.51679
G1 F600 Z1.3
;MESH:NONMESH
G0 F6000 X101.565 Y130.882 Z1.3
;TIME_ELAPSED:19.722213
;LAYER:1
;MESH:Sajad.stl
G0 X101.565 Y130.882 Z1.6
;TYPE:WALL-INNER
G1 F600 Z0.6
G1 F1500 E152.67221
G1 F1800 X102.085 Y130.835 E152.86698
G1 X102.692 Y130.746 E153.09582
G1 X103.252 Y130.625 E153.30953
G1 X103.825 Y130.466 E153.53135
G1 X104.333 Y130.287 E153.73226
G1 X104.861 Y130.069 E153.94534
G1 X105.37 Y129.823 E154.15622
G1 X105.865 Y129.543 E154.36836
G1 X106.342 Y129.234 E154.58036
G1 X106.794 Y128.9 E154.79
G1 X107.234 Y128.532 E155.00397
G1 X107.648 Y128.144 E155.21562
G1 X108.036 Y127.731 E155.427
G1 X108.4 Y127.294 E155.63915
G1 X108.738 Y126.836 E155.85148
G1 X109.045 Y126.361 E156.06245
G1 X109.325 Y125.866 E156.27459
G1 X109.569 Y125.361 E156.4838
G1 X109.788 Y124.831 E156.69771
G1 X109.963 Y124.325 E156.89743
G1 X110.127 Y123.745 E157.12226
G1 X110.246 Y123.192 E157.33326
G1 X110.339 Y122.585 E157.56233
G1 X110.382 Y122.067 E157.75622
G1 X110.399 Y121.498 E157.96856
G1 X110.382 Y120.93 E158.18053
G1 X110.335 Y120.415 E158.37343
G1 X110.246 Y119.806 E158.60301
G1 X110.125 Y119.248 E158.816
G1 X109.966 Y118.675 E159.03781
G1 X109.787 Y118.167 E159.23873
G1 X109.569 Y117.639 E159.45181
G1 X109.323 Y117.13 E159.66269
G1 X109.043 Y116.635 E159.87482
G1 X108.734 Y116.158 E160.08683
G1 X108.4 Y115.706 E160.29647
G1 X108.032 Y115.266 E160.51043
G1 X107.644 Y114.852 E160.72208
G1 X107.231 Y114.464 E160.93346
G1 X106.794 Y114.1 E161.14561
G1 X106.336 Y113.762 E161.35794
G1 X105.861 Y113.455 E161.56891
G1 X105.366 Y113.175 E161.78105
G1 X104.861 Y112.931 E161.99026
G1 X104.335 Y112.714 E162.20251
G1 X103.825 Y112.537 E162.40388
G1 X103.25 Y112.375 E162.62672
G1 X102.69 Y112.254 E162.84043
G1 X102.085 Y112.161 E163.06876
G1 X101.567 Y112.118 E163.26265
G1 X101 Y112.101 E163.47424
G1 X100.435 Y112.118 E163.68509
G1 X99.915 Y112.165 E163.87985
G1 X99.308 Y112.254 E164.1087
G1 X98.748 Y112.375 E164.32241
G1 X98.175 Y112.534 E164.54423
G1 X97.667 Y112.713 E164.74514
G1 X97.139 Y112.931 E164.95822
G1 X96.63 Y113.177 E165.1691
G1 X96.135 Y113.457 E165.38124
G1 X95.658 Y113.766 E165.59324
G1 X95.206 Y114.1 E165.80288
G1 X94.766 Y114.468 E166.01685
G1 X94.352 Y114.856 E166.2285
G1 X93.964 Y115.269 E166.43988
G1 X93.6 Y115.706 E166.65203
G1 X93.262 Y116.164 E166.86436
G1 X92.955 Y116.639 E167.07533
G1 X92.675 Y117.134 E167.28746
G1 X92.431 Y117.639 E167.49667
G1 X92.212 Y118.169 E167.71059
G1 X92.037 Y118.675 E167.91031
G1 X91.873 Y119.255 E168.13514
G1 X91.754 Y119.808 E168.34614
G1 X91.661 Y120.415 E168.57521
G1 X91.618 Y120.933 E168.76909
G1 X91.601 Y121.501 E168.98106
G1 X91.618 Y122.065 E169.19154
G1 X91.665 Y122.585 E169.3863
G1 X91.754 Y123.194 E169.61589
G1 X91.873 Y123.747 E169.82689
G1 X92.034 Y124.325 E170.0507
G1 X92.211 Y124.829 E170.24996
G1 X92.431 Y125.361 E170.4647
G1 X92.675 Y125.866 E170.67391
G1 X92.955 Y126.361 E170.88605
G1 X93.262 Y126.836 E171.09702
G1 X93.6 Y127.294 E171.30935
G1 X93.964 Y127.731 E171.5215
G1 X94.352 Y128.144 E171.73288
G1 X94.766 Y128.532 E171.94453
G1 X95.206 Y128.9 E172.1585
G1 X95.658 Y129.234 E172.36814
G1 X96.136 Y129.543 E172.58045
G1 X96.63 Y129.823 E172.79227
G1 X97.139 Y130.069 E173.00315
G1 X97.665 Y130.286 E173.2154
G1 X98.175 Y130.463 E173.41677
G1 X98.75 Y130.625 E173.6396
G1 X99.31 Y130.746 E173.85331
G1 X99.915 Y130.839 E174.08164
G1 X100.433 Y130.882 E174.27553
G1 X101 Y130.899 E174.48713
G1 X101.565 Y130.882 E174.69798
G0 F6000 X101.589 Y131.282
;TYPE:WALL-OUTER
G1 F1800 X102.132 Y131.233 E174.90135
G1 X102.764 Y131.14 E175.13964
G1 X103.348 Y131.013 E175.36257
G1 X103.945 Y130.848 E175.59362
G1 X104.476 Y130.661 E175.80361
G1 X105.025 Y130.434 E176.02522
G1 X105.556 Y130.177 E176.24527
G1 X106.072 Y129.885 E176.46643
G1 X106.57 Y129.563 E176.68764
G1 X107.041 Y129.215 E176.90609
G1 X107.5 Y128.832 E177.12908
G1 X107.931 Y128.427 E177.34969
G1 X108.336 Y127.996 E177.57031
G1 X108.715 Y127.541 E177.7912
G1 X109.067 Y127.064 E178.01233
G1 X109.387 Y126.568 E178.23251
G1 X109.679 Y126.052 E178.45367
G1 X109.934 Y125.525 E178.67206
G1 X110.162 Y124.973 E178.89484
G1 X110.345 Y124.445 E179.10329
G1 X110.515 Y123.842 E179.33698
G1 X110.64 Y123.264 E179.55757
G1 X110.737 Y122.632 E179.79608
G1 X110.782 Y122.089 E179.99933
G1 X110.799 Y121.498 E180.21987
G1 X110.782 Y120.906 E180.44079
G1 X110.733 Y120.368 E180.64231
G1 X110.64 Y119.734 E180.88133
G1 X110.513 Y119.152 E181.10354
G1 X110.348 Y118.555 E181.33458
G1 X110.161 Y118.024 E181.54457
G1 X109.934 Y117.475 E181.76618
G1 X109.677 Y116.944 E181.98623
G1 X109.385 Y116.428 E182.20739
G1 X109.063 Y115.93 E182.4286
G1 X108.715 Y115.459 E182.64705
G1 X108.332 Y115 E182.87004
G1 X107.927 Y114.569 E183.09066
G1 X107.496 Y114.164 E183.31127
G1 X107.041 Y113.785 E183.53216
G1 X106.564 Y113.433 E183.75329
G1 X106.068 Y113.113 E183.97347
G1 X105.552 Y112.821 E184.19463
G1 X105.025 Y112.566 E184.41302
G1 X104.477 Y112.34 E184.63414
G1 X103.945 Y112.155 E184.84424
G1 X103.347 Y111.987 E185.07594
G1 X102.763 Y111.86 E185.29887
G1 X102.132 Y111.763 E185.53701
G1 X101.589 Y111.718 E185.74026
G1 X101 Y111.701 E185.96006
G1 X100.411 Y111.718 E186.17986
G1 X99.868 Y111.767 E186.38323
G1 X99.236 Y111.86 E186.62152
G1 X98.652 Y111.987 E186.84445
G1 X98.055 Y112.152 E187.07549
G1 X97.524 Y112.339 E187.28549
G1 X96.975 Y112.566 E187.50709
G1 X96.444 Y112.823 E187.72715
G1 X95.928 Y113.115 E187.94831
G1 X95.43 Y113.437 E188.16952
G1 X94.959 Y113.785 E188.38797
G1 X94.5 Y114.168 E188.61096
G1 X94.069 Y114.573 E188.83157
G1 X93.664 Y115.004 E189.05219
G1 X93.285 Y115.459 E189.27308
G1 X92.933 Y115.936 E189.49421
G1 X92.613 Y116.432 E189.71439
G1 X92.321 Y116.948 E189.93555
G1 X92.066 Y117.475 E190.15394
G1 X91.838 Y118.027 E190.37671
G1 X91.655 Y118.555 E190.58516
G1 X91.485 Y119.158 E190.81886
G1 X91.36 Y119.736 E191.03945
G1 X91.263 Y120.368 E191.27796
G1 X91.218 Y120.911 E191.4812
G1 X91.201 Y121.501 E191.70138
G1 X91.218 Y122.089 E191.9208
G1 X91.267 Y122.632 E192.12418
G1 X91.36 Y123.265 E192.36283
G1 X91.485 Y123.843 E192.58342
G1 X91.652 Y124.445 E192.81646
G1 X91.837 Y124.972 E193.0248
G1 X92.066 Y125.525 E193.24807
G1 X92.321 Y126.052 E193.46645
G1 X92.613 Y126.568 E193.68761
G1 X92.933 Y127.064 E193.9078
G1 X93.285 Y127.541 E194.12893
G1 X93.664 Y127.996 E194.34982
G1 X94.069 Y128.427 E194.57043
G1 X94.5 Y128.832 E194.79105
G1 X94.959 Y129.215 E195.01404
G1 X95.43 Y129.563 E195.23248
G1 X95.928 Y129.885 E195.4537
G1 X96.444 Y130.177 E195.67486
G1 X96.975 Y130.434 E195.89491
G1 X97.523 Y130.66 E196.11603
G1 X98.055 Y130.845 E196.32613
G1 X98.653 Y131.013 E196.55783
G1 X99.237 Y131.14 E196.78077
G1 X99.868 Y131.237 E197.01891
G1 X100.411 Y131.282 E197.22215
G1 X101 Y131.299 E197.44195
G1 X101.589 Y131.282 E197.66175
G0 F6000 X101.788 Y131.265
G1 F1500 E196.66175
G1 F600 Z1.6
G0 F6000 X106.658 Y128.568 Z1.6
;TYPE:FILL
G1 F600 Z0.6
G1 F1500 E197.81717
G1 F2400 X108.073 Y127.154 E198.56336
G1 F1500 E197.56336
G1 F600 Z1.6
G0 F6000 X107.014 Y128.272 Z1.6
G1 F600 Z0.6
G1 F1500 E198.71879
