;FLAVOR:Marlin
;TIME:376
;Filament used: 3.55832m, 0m
;Layer height: 0.3
;MINX:91.201
;MINY:111.701
;MINZ:0.3
;MAXX:110.799
;MAXY:131.299
;MAXZ:7
;Generated with Cura_SteamEngine 5.0.1
T0
M140 S40
M105
M190 S40
M104 S200
M105
M109 S200
M82 ;absolute extrusion mode
M900 K0.020;
G28 ; home all axes
G1 Z5 F5000 ; lift nozzle
G1 X-45 Y70 F2500; go to glycerin roller;
G92 E0
G1 X-23 F5000; park to start
G92 E0; Extrude a small amount to clear nozzle
G1 E20 F4000
G4 P2000
G92 E0


G92 E0
G1 F1500 E-1
;LAYER_COUNT:20
;LAYER:0
M107
M204 S500
G1 F600 Z1.3
;MESH:Sajad.stl
G0 F6000 X101.565 Y130.882 Z1.3
;TYPE:WALL-INNER
G1 F600 Z0.3
G1 F1500 E0.15542
G1 F1800 X102.085 Y130.835 E0.35019
G1 X102.692 Y130.746 E0.57903
G1 X103.252 Y130.625 E0.79274
G1 X103.811 Y130.47 E1.00913
G1 X104.32 Y130.291 E1.21039
G1 X104.845 Y130.075 E1.42215
G1 X105.37 Y129.821 E1.6397
G1 X105.865 Y129.543 E1.85148
G1 X106.33 Y129.242 E2.0581
G1 X106.782 Y128.909 E2.26752
G1 X107.224 Y128.541 E2.48206
G1 X107.648 Y128.144 E2.69873
G1 X108.026 Y127.741 E2.90483
G1 X108.392 Y127.304 E3.11746
G1 X108.738 Y126.836 E3.33456
G1 X109.045 Y126.361 E3.54553
G1 X109.318 Y125.878 E3.75249
G1 X109.563 Y125.373 E3.96186
G1 X109.788 Y124.83 E4.18111
G1 X109.963 Y124.325 E4.38048
G1 X110.121 Y123.763 E4.59824
G1 X110.243 Y123.203 E4.81203
G1 X110.337 Y122.599 E5.04005
G1 X110.381 Y122.082 E5.2336
G1 X110.399 Y121.512 E5.44632
G1 X110.382 Y120.929 E5.66389
G1 X110.335 Y120.415 E5.85642
G1 X110.246 Y119.806 E6.086
G1 X110.125 Y119.248 E6.29898
G1 X109.97 Y118.689 E6.51537
G1 X109.792 Y118.18 E6.71651
G1 X109.574 Y117.653 E6.92925
G1 X109.322 Y117.13 E7.1458
G1 X109.043 Y116.635 E7.35775
G1 X108.742 Y116.17 E7.56438
G1 X108.409 Y115.718 E7.7738
G1 X108.041 Y115.276 E7.98834
G1 X107.644 Y114.852 E8.205
G1 X107.241 Y114.474 E8.41111
G1 X106.804 Y114.108 E8.62374
G1 X106.336 Y113.762 E8.84084
G1 X105.861 Y113.455 E9.05181
G1 X105.378 Y113.182 E9.25877
G1 X104.874 Y112.937 E9.46781
G1 X104.334 Y112.714 E9.68574
G1 X103.825 Y112.537 E9.88676
G1 X103.263 Y112.379 E10.10452
G1 X102.703 Y112.257 E10.31831
G1 X102.099 Y112.163 E10.54633
G1 X101.582 Y112.119 E10.73987
G1 X101.014 Y112.101 E10.95186
G1 X100.435 Y112.118 E11.16793
G1 X99.915 Y112.165 E11.36269
G1 X99.308 Y112.254 E11.59153
G1 X98.748 Y112.375 E11.80524
G1 X98.189 Y112.53 E12.02163
G1 X97.68 Y112.709 E12.22289
G1 X97.155 Y112.924 E12.43451
G1 X96.63 Y113.179 E12.65223
G1 X96.135 Y113.457 E12.864
G1 X95.67 Y113.758 E13.07062
G1 X95.218 Y114.091 E13.28004
G1 X94.776 Y114.459 E13.49458
G1 X94.352 Y114.856 E13.71125
G1 X93.974 Y115.259 E13.91736
G1 X93.608 Y115.696 E14.12998
G1 X93.262 Y116.164 E14.34709
G1 X92.955 Y116.639 E14.55806
G1 X92.682 Y117.122 E14.76501
G1 X92.437 Y117.627 E14.97439
G1 X92.212 Y118.17 E15.19364
G1 X92.037 Y118.675 E15.393
G1 X91.879 Y119.237 E15.61077
G1 X91.757 Y119.797 E15.82456
G1 X91.663 Y120.401 E16.05257
G1 X91.619 Y120.918 E16.24612
G1 X91.601 Y121.488 E16.45885
G1 X91.618 Y122.065 E16.67417
G1 X91.665 Y122.585 E16.86893
G1 X91.754 Y123.194 E17.09851
G1 X91.873 Y123.747 E17.30952
G1 X92.03 Y124.311 E17.5279
G1 X92.207 Y124.816 E17.72751
G1 X92.424 Y125.344 E17.94045
G1 X92.678 Y125.868 E18.15766
G1 X92.955 Y126.361 E18.3686
G1 X93.255 Y126.825 E18.57471
G1 X93.591 Y127.282 E18.78629
G1 X93.956 Y127.72 E18.99897
G1 X94.352 Y128.144 E19.21538
G1 X94.757 Y128.525 E19.4228
G1 X95.194 Y128.891 E19.63543
G1 X95.658 Y129.234 E19.85067
G1 X96.136 Y129.543 E20.06298
G1 X96.618 Y129.816 E20.26961
G1 X97.127 Y130.063 E20.48065
G1 X97.666 Y130.286 E20.69824
G1 X98.175 Y130.463 E20.89926
G1 X98.737 Y130.621 E21.11702
G1 X99.297 Y130.743 E21.33081
G1 X99.901 Y130.837 E21.55883
G1 X100.418 Y130.881 E21.75238
G1 X100.986 Y130.899 E21.96436
G1 X101.565 Y130.882 E22.18043
G0 F6000 X101.589 Y131.282
;TYPE:WALL-OUTER
G1 F1800 X102.132 Y131.233 E22.3838
G1 X102.764 Y131.14 E22.62209
G1 X103.348 Y131.013 E22.84502
G1 X103.931 Y130.852 E23.07064
G1 X104.462 Y130.665 E23.28063
G1 X105.008 Y130.441 E23.50077
G1 X105.556 Y130.176 E23.72784
G1 X106.072 Y129.885 E23.94881
G1 X106.558 Y129.571 E24.16465
G1 X107.029 Y129.224 E24.38287
G1 X107.489 Y128.841 E24.60615
G1 X107.931 Y128.427 E24.83205
G1 X108.326 Y128.007 E25.04712
G1 X108.706 Y127.552 E25.26825
G1 X109.067 Y127.064 E25.49468
G1 X109.387 Y126.568 E25.71486
G1 X109.672 Y126.064 E25.93084
G1 X109.928 Y125.537 E26.14939
G1 X110.162 Y124.972 E26.3775
G1 X110.345 Y124.445 E26.5856
G1 X110.509 Y123.86 E26.81223
G1 X110.637 Y123.277 E27.03488
G1 X110.735 Y122.647 E27.27271
G1 X110.781 Y122.105 E27.47561
G1 X110.799 Y121.512 E27.69691
G1 X110.782 Y120.905 E27.92342
G1 X110.733 Y120.368 E28.12457
G1 X110.64 Y119.734 E28.36359
G1 X110.513 Y119.152 E28.5858
G1 X110.352 Y118.569 E28.81141
G1 X110.166 Y118.038 E29.02128
G1 X109.94 Y117.489 E29.24274
G1 X109.676 Y116.944 E29.46863
G1 X109.385 Y116.428 E29.68961
G1 X109.071 Y115.942 E29.90544
G1 X108.724 Y115.471 E30.12367
G1 X108.341 Y115.011 E30.34695
G1 X107.927 Y114.569 E30.57285
G1 X107.507 Y114.174 E30.78792
G1 X107.052 Y113.794 E31.00905
G1 X106.564 Y113.433 E31.23548
G1 X106.068 Y113.113 E31.45566
G1 X105.564 Y112.828 E31.67164
G1 X105.038 Y112.572 E31.88985
G1 X104.476 Y112.34 E32.11665
G1 X103.945 Y112.155 E32.3264
G1 X103.36 Y111.991 E32.55303
G1 X102.777 Y111.863 E32.77568
G1 X102.147 Y111.765 E33.0135
G1 X101.605 Y111.719 E33.21641
G1 X101.014 Y111.701 E33.43696
G1 X100.411 Y111.718 E33.66198
G1 X99.868 Y111.767 E33.86536
G1 X99.236 Y111.86 E34.10364
G1 X98.652 Y111.987 E34.32658
G1 X98.069 Y112.148 E34.55219
G1 X97.538 Y112.335 E34.76219
G1 X96.992 Y112.559 E34.98233
G1 X96.444 Y112.824 E35.20939
G1 X95.928 Y113.115 E35.43037
G1 X95.442 Y113.429 E35.6462
G1 X94.971 Y113.776 E35.86442
G1 X94.511 Y114.159 E36.0877
G1 X94.069 Y114.573 E36.31361
G1 X93.674 Y114.993 E36.52868
G1 X93.294 Y115.448 E36.74981
G1 X92.933 Y115.936 E36.97623
G1 X92.613 Y116.432 E37.19641
G1 X92.328 Y116.936 E37.41239
G1 X92.072 Y117.463 E37.63094
G1 X91.838 Y118.028 E37.85906
G1 X91.655 Y118.555 E38.06715
G1 X91.491 Y119.14 E38.29378
G1 X91.363 Y119.723 E38.51643
G1 X91.265 Y120.353 E38.75426
G1 X91.219 Y120.895 E38.95716
G1 X91.201 Y121.488 E39.17847
G1 X91.218 Y122.089 E39.40274
G1 X91.267 Y122.632 E39.60611
G1 X91.36 Y123.265 E39.84477
G1 X91.485 Y123.843 E40.06536
G1 X91.648 Y124.431 E40.29297
G1 X91.833 Y124.958 E40.50131
G1 X92.059 Y125.508 E40.72311
G1 X92.323 Y126.054 E40.94934
G1 X92.613 Y126.568 E41.16948
G1 X92.925 Y127.052 E41.38429
G1 X93.276 Y127.528 E41.6049
G1 X93.656 Y127.985 E41.8266
G1 X94.069 Y128.427 E42.05225
G1 X94.491 Y128.824 E42.26837
G1 X94.946 Y129.205 E42.48974
G1 X95.43 Y129.563 E42.7143
G1 X95.928 Y129.885 E42.93552
G1 X96.432 Y130.17 E43.15149
G1 X96.963 Y130.428 E43.37171
G1 X97.524 Y130.66 E43.59816
G1 X98.055 Y130.845 E43.80791
G1 X98.64 Y131.009 E44.03454
G1 X99.223 Y131.137 E44.25719
G1 X99.853 Y131.235 E44.49502
G1 X100.395 Y131.281 E44.69792
G1 X100.986 Y131.299 E44.91848
G1 X101.589 Y131.282 E45.1435
G0 F6000 X101.788 Y131.265
G1 F1500 E44.1435
G1 F600 Z1.3
G0 F6000 X93.531 Y126.625 Z1.3
;TYPE:FILL
G1 F600 Z0.3
G1 F1500 E45.29893
G1 F2400 X93.856 Y127.066 E45.50327
G1 X94.212 Y127.495 E45.71122
G1 X94.593 Y127.902 E45.91918
G1 X94.987 Y128.273 E46.12105
G1 X95.4 Y128.619 E46.32203
G1 X95.851 Y128.952 E46.53115
G1 X96.296 Y129.24 E46.72887
G1 X93.258 Y126.203 E48.33124
G1 X92.981 Y125.712 E48.54153
G1 X92.732 Y125.199 E48.75424
G1 X92.522 Y124.689 E48.95998
G1 X92.338 Y124.151 E49.17207
G1 X98.342 Y130.155 E52.33936
G1 X98.825 Y130.291 E52.52653
G1 X99.352 Y130.407 E52.72782
G1 X99.794 Y130.476 E52.89469
G1 X92.025 Y122.707 E56.99306
G1 X91.964 Y122.287 E57.15138
G1 X91.94 Y121.49 E57.44881
G1 X101.008 Y130.558 E62.23244
G1 X101.788 Y130.534 E62.52353
G1 X102.073 Y130.492 E62.63099
G1 X92.002 Y120.42 E67.944
G1 X92.092 Y119.853 E68.15815
G1 X92.177 Y119.464 E68.30668
G1 X103.041 Y130.328 E74.03776
G1 X103.927 Y130.083 E74.38065
G1 X92.415 Y118.57 E80.45383
G1 X92.744 Y117.769 E80.77684
G1 X104.728 Y129.753 E87.09875
G1 X105.49 Y129.384 E87.41457
G1 X93.117 Y117.01 E93.94195
G1 X93.565 Y116.326 E94.24695
G1 X106.172 Y128.934 E100.89777
G1 X106.81 Y128.44 E101.19876
G1 X94.045 Y115.675 E107.93267
G1 X94.596 Y115.095 E108.23108
G1 X107.404 Y127.903 E114.98768
G1 X107.955 Y127.323 E115.28609
G1 X95.189 Y114.556 E122.02079
G1 X95.827 Y114.064 E122.32132
G1 X108.435 Y126.671 E128.97215
G1 X108.881 Y125.986 E129.27705
G1 X96.508 Y113.613 E135.80417
G1 X97.271 Y113.245 E136.12016
G1 X109.255 Y125.229 E142.44207
G1 X109.586 Y124.428 E142.76536
G1 X98.072 Y112.915 E148.83907
G1 X98.959 Y112.67 E149.18233
G1 X109.823 Y123.534 E154.9134
G1 X109.908 Y123.145 E155.06193
G1 X109.997 Y122.576 E155.27676
G1 X99.926 Y112.505 E160.5895
G1 X100.211 Y112.463 E160.69696
G1 X100.993 Y112.441 E160.98878
G1 X110.059 Y121.507 E165.77136
G1 X110.035 Y120.713 E166.06767
G1 X109.973 Y120.29 E166.22714
G1 X102.205 Y112.522 E170.32499
G1 X102.646 Y112.591 E170.49149
G1 X103.175 Y112.707 E170.69351
G1 X103.658 Y112.843 E170.88068
G1 X109.66 Y118.845 E174.04691
G1 X109.472 Y118.295 E174.26373
G1 X109.262 Y117.784 E174.46981
G1 X109.016 Y117.28 E174.67901
G1 X108.742 Y116.796 E174.88647
G1 X105.706 Y113.76 E176.48805
G1 X106.14 Y114.04 E176.68071
G1 X106.589 Y114.372 E176.88901
G1 X107.021 Y114.731 E177.09853
G1 X107.398 Y115.087 E177.29195
G1 X107.782 Y115.495 E177.50095
G1 X108.137 Y115.922 E177.70809
G1 X108.457 Y116.357 E177.90953
G1 F1500 E176.90953
G1 F600 Z1.3
;MESH:NONMESH
G0 F6000 X101.565 Y130.882 Z1.3
;TIME_ELAPSED:22.176927
;LAYER:1
;MESH:Sajad.stl
G0 X101.565 Y130.882 Z1.6
;TYPE:WALL-INNER
G1 F600 Z0.6
G1 F1500 E178.06495
G1 F1800 X102.085 Y130.835 E178.25971
G1 X102.692 Y130.746 E178.48856
G1 X103.252 Y130.625 E178.70227
G1 X103.825 Y130.466 E178.92408
G1 X104.333 Y130.287 E179.125
G1 X104.861 Y130.069 E179.33808
G1 X105.37 Y129.823 E179.54896
G1 X105.865 Y129.543 E179.76109
G1 X106.342 Y129.234 E179.9731
G1 X106.794 Y128.9 E180.18274
G1 X107.234 Y128.532 E180.3967
G1 X107.648 Y128.144 E180.60835
G1 X108.036 Y127.731 E180.81973
G1 X108.4 Y127.294 E181.03188
G1 X108.738 Y126.836 E181.24421
G1 X109.045 Y126.361 E181.45518
G1 X109.325 Y125.866 E181.66732
G1 X109.569 Y125.361 E181.87653
G1 X109.788 Y124.831 E182.09044
G1 X109.963 Y124.325 E182.29016
G1 X110.127 Y123.745 E182.515
G1 X110.246 Y123.192 E182.726
G1 X110.339 Y122.585 E182.95506
G1 X110.382 Y122.067 E183.14895
G1 X110.399 Y121.498 E183.36129
G1 X110.382 Y120.93 E183.57326
G1 X110.335 Y120.415 E183.76617
G1 X110.246 Y119.806 E183.99575
G1 X110.125 Y119.248 E184.20873
G1 X109.966 Y118.675 E184.43055
G1 X109.787 Y118.167 E184.63146
G1 X109.569 Y117.639 E184.84454
G1 X109.323 Y117.13 E185.05542
G1 X109.043 Y116.635 E185.26756
G1 X108.734 Y116.158 E185.47956
G1 X108.4 Y115.706 E185.6892
G1 X108.032 Y115.266 E185.90317
G1 X107.644 Y114.852 E186.11482
G1 X107.231 Y114.464 E186.3262
G1 X106.794 Y114.1 E186.53835
G1 X106.336 Y113.762 E186.75068
G1 X105.861 Y113.455 E186.96165
G1 X105.366 Y113.175 E187.17379
G1 X104.861 Y112.931 E187.383
G1 X104.335 Y112.714 E187.59525
G1 X103.825 Y112.537 E187.79662
G1 X103.25 Y112.375 E188.01945
G1 X102.69 Y112.254 E188.23317
G1 X102.085 Y112.161 E188.46149
G1 X101.567 Y112.118 E188.65538
G1 X101 Y112.101 E188.86698
G1 X100.435 Y112.118 E189.07783
G1 X99.915 Y112.165 E189.27259
G1 X99.308 Y112.254 E189.50143
G1 X98.748 Y112.375 E189.71515
G1 X98.175 Y112.534 E189.93696
G1 X97.667 Y112.713 E190.13788
G1 X97.139 Y112.931 E190.35096
G1 X96.63 Y113.177 E190.56184
G1 X96.135 Y113.457 E190.77397
G1 X95.658 Y113.766 E190.98597
G1 X95.206 Y114.1 E191.19562
G1 X94.766 Y114.468 E191.40958
G1 X94.352 Y114.856 E191.62123
G1 X93.964 Y115.269 E191.83261
G1 X93.6 Y115.706 E192.04476
G1 X93.262 Y116.164 E192.25709
G1 X92.955 Y116.639 E192.46806
G1 X92.675 Y117.134 E192.6802
G1 X92.431 Y117.639 E192.88941
G1 X92.212 Y118.169 E193.10332
G1 X92.037 Y118.675 E193.30304
G1 X91.873 Y119.255 E193.52787
G1 X91.754 Y119.808 E193.73888
G1 X91.661 Y120.415 E193.96794
G1 X91.618 Y120.933 E194.16183
G1 X91.601 Y121.501 E194.3738
G1 X91.618 Y122.065 E194.58428
G1 X91.665 Y122.585 E194.77904
G1 X91.754 Y123.194 E195.00862
G1 X91.873 Y123.747 E195.21962
G1 X92.034 Y124.325 E195.44344
G1 X92.211 Y124.829 E195.64269
G1 X92.431 Y125.361 E195.85744
G1 X92.675 Y125.866 E196.06665
G1 X92.955 Y126.361 E196.27879
G1 X93.262 Y126.836 E196.48976
G1 X93.6 Y127.294 E196.70209
G1 X93.964 Y127.731 E196.91424
G1 X94.352 Y128.144 E197.12562
G1 X94.766 Y128.532 E197.33727
G1 X95.206 Y128.9 E197.55123
G1 X95.658 Y129.234 E197.76088
G1 X96.136 Y129.543 E197.97319
G1 X96.63 Y129.823 E198.185
G1 X97.139 Y130.069 E198.39588
G1 X97.665 Y130.286 E198.60813
G1 X98.175 Y130.463 E198.8095
G1 X98.75 Y130.625 E199.03234
G1 X99.31 Y130.746 E199.24605
G1 X99.915 Y130.839 E199.47438
G1 X100.433 Y130.882 E199.66827
G1 X101 Y130.899 E199.87986
G1 X101.565 Y130.882 E200.09072
G0 F6000 X101.589 Y131.282
;TYPE:WALL-OUTER
G1 F1800 X102.132 Y131.233 E200.29409
G1 X102.764 Y131.14 E200.53237
G1 X103.348 Y131.013 E200.75531
G1 X103.945 Y130.848 E200.98635
G1 X104.476 Y130.661 E201.19635
G1 X105.025 Y130.434 E201.41795
G1 X105.556 Y130.177 E201.638
G1 X106.072 Y129.885 E201.85916
G1 X106.57 Y129.563 E202.08038
G1 X107.041 Y129.215 E202.29882
G1 X107.5 Y128.832 E202.52182
G1 X107.931 Y128.427 E202.74243
G1 X108.336 Y127.996 E202.96304
G1 X108.715 Y127.541 E203.18393
G1 X109.067 Y127.064 E203.40507
G1 X109.387 Y126.568 E203.62525
G1 X109.679 Y126.052 E203.84641
G1 X109.934 Y125.525 E204.06479
G1 X110.162 Y124.973 E204.28757
G1 X110.345 Y124.445 E204.49602
G1 X110.515 Y123.842 E204.72972
G1 X110.64 Y123.264 E204.95031
G1 X110.737 Y122.632 E205.18882
G1 X110.782 Y122.089 E205.39206
G1 X110.799 Y121.498 E205.61261
G1 X110.782 Y120.906 E205.83353
G1 X110.733 Y120.368 E206.03504
G1 X110.64 Y119.734 E206.27407
G1 X110.513 Y119.152 E206.49627
G1 X110.348 Y118.555 E206.72731
G1 X110.161 Y118.024 E206.93731
G1 X109.934 Y117.475 E207.15891
G1 X109.677 Y116.944 E207.37897
G1 X109.385 Y116.428 E207.60013
G1 X109.063 Y115.93 E207.82134
G1 X108.715 Y115.459 E208.03978
G1 X108.332 Y115 E208.26278
G1 X107.927 Y114.569 E208.48339
G1 X107.496 Y114.164 E208.70401
G1 X107.041 Y113.785 E208.9249
G1 X106.564 Y113.433 E209.14603
G1 X106.068 Y113.113 E209.36621
G1 X105.552 Y112.821 E209.58737
G1 X105.025 Y112.566 E209.80575
G1 X104.477 Y112.34 E210.02687
G1 X103.945 Y112.155 E210.23697
G1 X103.347 Y111.987 E210.46867
G1 X102.763 Y111.86 E210.69161
G1 X102.132 Y111.763 E210.92975
G1 X101.589 Y111.718 E211.13299
G1 X101 Y111.701 E211.35279
G1 X100.411 Y111.718 E211.57259
G1 X99.868 Y111.767 E211.77597
G1 X99.236 Y111.86 E212.01425
G1 X98.652 Y111.987 E212.23719
G1 X98.055 Y112.152 E212.46823
G1 X97.524 Y112.339 E212.67823
G1 X96.975 Y112.566 E212.89983
G1 X96.444 Y112.823 E213.11988
G1 X95.928 Y113.115 E213.34104
G1 X95.43 Y113.437 E213.56226
G1 X94.959 Y113.785 E213.7807
G1 X94.5 Y114.168 E214.00369
G1 X94.069 Y114.573 E214.22431
G1 X93.664 Y115.004 E214.44492
G1 X93.285 Y115.459 E214.66581
G1 X92.933 Y115.936 E214.88694
G1 X92.613 Y116.432 E215.10713
G1 X92.321 Y116.948 E215.32829
G1 X92.066 Y117.475 E215.54667
G1 X91.838 Y118.027 E215.76945
G1 X91.655 Y118.555 E215.9779
G1 X91.485 Y119.158 E216.2116
G1 X91.36 Y119.736 E216.43219
G1 X91.263 Y120.368 E216.6707
G1 X91.218 Y120.911 E216.87394
G1 X91.201 Y121.501 E217.09411
G1 X91.218 Y122.089 E217.31354
G1 X91.267 Y122.632 E217.51691
G1 X91.36 Y123.265 E217.75557
G1 X91.485 Y123.843 E217.97616
G1 X91.652 Y124.445 E218.2092
G1 X91.837 Y124.972 E218.41754
G1 X92.066 Y125.525 E218.6408
G1 X92.321 Y126.052 E218.85919
G1 X92.613 Y126.568 E219.08035
G1 X92.933 Y127.064 E219.30053
G1 X93.285 Y127.541 E219.52166
G1 X93.664 Y127.996 E219.74255
G1 X94.069 Y128.427 E219.96317
G1 X94.5 Y128.832 E220.18378
G1 X94.959 Y129.215 E220.40677
G1 X95.43 Y129.563 E220.62522
G1 X95.928 Y129.885 E220.84643
G1 X96.444 Y130.177 E221.06759
G1 X96.975 Y130.434 E221.28765
G1 X97.523 Y130.66 E221.50876
G1 X98.055 Y130.845 E221.71886
G1 X98.653 Y131.013 E221.95057
