;FLAVOR:Marlin
;TIME:270
;Filament used: 2.3864m, 0m
;Layer height: 0.3
;MINX:91.201
;MINY:111.701
;MINZ:0.3
;MAXX:110.799
;MAXY:131.299
;MAXZ:7
;Generated with Cura_SteamEngine 5.0.1
T0
M140 S40
M105
M190 S40
M104 S200
M105
M109 S200
M82 ;absolute extrusion mode
M900 K0.020;
G28 ; home all axes
G1 Z5 F5000 ; lift nozzle
G1 X-45 Y70 F2500; go to glycerin roller;
G92 E0
G1 X-23 F5000; park to start
G92 E0; Extrude a small amount to clear nozzle
G1 E20 F4000
G4 P2000
G92 E0


G92 E0
G1 F1500 E-1
;LAYER_COUNT:20
;LAYER:0
M107
M204 S500
G1 F600 Z1.3
;MESH:Sajad.stl
G0 F6000 X101.565 Y130.882 Z1.3
;TYPE:WALL-INNER
G1 F600 Z0.3
G1 F1500 E0.15542
G1 F1800 X102.085 Y130.835 E0.35019
G1 X102.692 Y130.746 E0.57903
G1 X103.252 Y130.625 E0.79274
G1 X103.811 Y130.47 E1.00913
G1 X104.32 Y130.291 E1.21039
G1 X104.845 Y130.075 E1.42215
G1 X105.37 Y129.821 E1.6397
G1 X105.865 Y129.543 E1.85148
G1 X106.33 Y129.242 E2.0581
G1 X106.782 Y128.909 E2.26752
G1 X107.224 Y128.541 E2.48206
G1 X107.648 Y128.144 E2.69873
G1 X108.026 Y127.741 E2.90483
G1 X108.392 Y127.304 E3.11746
G1 X108.738 Y126.836 E3.33456
G1 X109.045 Y126.361 E3.54553
G1 X109.318 Y125.878 E3.75249
G1 X109.563 Y125.373 E3.96186
G1 X109.788 Y124.83 E4.18111
G1 X109.963 Y124.325 E4.38048
G1 X110.121 Y123.763 E4.59824
G1 X110.243 Y123.203 E4.81203
G1 X110.337 Y122.599 E5.04005
G1 X110.381 Y122.082 E5.2336
G1 X110.399 Y121.512 E5.44632
G1 X110.382 Y120.929 E5.66389
G1 X110.335 Y120.415 E5.85642
G1 X110.246 Y119.806 E6.086
G1 X110.125 Y119.248 E6.29898
G1 X109.97 Y118.689 E6.51537
G1 X109.792 Y118.18 E6.71651
G1 X109.574 Y117.653 E6.92925
G1 X109.322 Y117.13 E7.1458
G1 X109.043 Y116.635 E7.35775
G1 X108.742 Y116.17 E7.56438
G1 X108.409 Y115.718 E7.7738
G1 X108.041 Y115.276 E7.98834
G1 X107.644 Y114.852 E8.205
G1 X107.241 Y114.474 E8.41111
G1 X106.804 Y114.108 E8.62374
G1 X106.336 Y113.762 E8.84084
G1 X105.861 Y113.455 E9.05181
G1 X105.378 Y113.182 E9.25877
G1 X104.874 Y112.937 E9.46781
G1 X104.334 Y112.714 E9.68574
G1 X103.825 Y112.537 E9.88676
G1 X103.263 Y112.379 E10.10452
G1 X102.703 Y112.257 E10.31831
G1 X102.099 Y112.163 E10.54633
G1 X101.582 Y112.119 E10.73987
G1 X101.014 Y112.101 E10.95186
G1 X100.435 Y112.118 E11.16793
G1 X99.915 Y112.165 E11.36269
G1 X99.308 Y112.254 E11.59153
G1 X98.748 Y112.375 E11.80524
G1 X98.189 Y112.53 E12.02163
G1 X97.68 Y112.709 E12.22289
G1 X97.155 Y112.924 E12.43451
G1 X96.63 Y113.179 E12.65223
G1 X96.135 Y113.457 E12.864
G1 X95.67 Y113.758 E13.07062
G1 X95.218 Y114.091 E13.28004
G1 X94.776 Y114.459 E13.49458
G1 X94.352 Y114.856 E13.71125
G1 X93.974 Y115.259 E13.91736
G1 X93.608 Y115.696 E14.12998
G1 X93.262 Y116.164 E14.34709
G1 X92.955 Y116.639 E14.55806
G1 X92.682 Y117.122 E14.76501
G1 X92.437 Y117.627 E14.97439
G1 X92.212 Y118.17 E15.19364
G1 X92.037 Y118.675 E15.393
G1 X91.879 Y119.237 E15.61077
G1 X91.757 Y119.797 E15.82456
G1 X91.663 Y120.401 E16.05257
G1 X91.619 Y120.918 E16.24612
G1 X91.601 Y121.488 E16.45885
G1 X91.618 Y122.065 E16.67417
G1 X91.665 Y122.585 E16.86893
G1 X91.754 Y123.194 E17.09851
G1 X91.873 Y123.747 E17.30952
G1 X92.03 Y124.311 E17.5279
G1 X92.207 Y124.816 E17.72751
G1 X92.424 Y125.344 E17.94045
G1 X92.678 Y125.868 E18.15766
G1 X92.955 Y126.361 E18.3686
G1 X93.255 Y126.825 E18.57471
G1 X93.591 Y127.282 E18.78629
G1 X93.956 Y127.72 E18.99897
G1 X94.352 Y128.144 E19.21538
G1 X94.757 Y128.525 E19.4228
G1 X95.194 Y128.891 E19.63543
G1 X95.658 Y129.234 E19.85067
G1 X96.136 Y129.543 E20.06298
G1 X96.618 Y129.816 E20.26961
G1 X97.127 Y130.063 E20.48065
G1 X97.666 Y130.286 E20.69824
G1 X98.175 Y130.463 E20.89926
G1 X98.737 Y130.621 E21.11702
G1 X99.297 Y130.743 E21.33081
G1 X99.901 Y130.837 E21.55883
G1 X100.418 Y130.881 E21.75238
G1 X100.986 Y130.899 E21.96436
G1 X101.565 Y130.882 E22.18043
G0 F6000 X101.589 Y131.282
;TYPE:WALL-OUTER
G1 F1800 X102.132 Y131.233 E22.3838
G1 X102.764 Y131.14 E22.62209
G1 X103.348 Y131.013 E22.84502
G1 X103.931 Y130.852 E23.07064
G1 X104.462 Y130.665 E23.28063
G1 X105.008 Y130.441 E23.50077
G1 X105.556 Y130.176 E23.72784
G1 X106.072 Y129.885 E23.94881
G1 X106.558 Y129.571 E24.16465
G1 X107.029 Y129.224 E24.38287
G1 X107.489 Y128.841 E24.60615
G1 X107.931 Y128.427 E24.83205
G1 X108.326 Y128.007 E25.04712
G1 X108.706 Y127.552 E25.26825
G1 X109.067 Y127.064 E25.49468
G1 X109.387 Y126.568 E25.71486
G1 X109.672 Y126.064 E25.93084
G1 X109.928 Y125.537 E26.14939
G1 X110.162 Y124.972 E26.3775
G1 X110.345 Y124.445 E26.5856
G1 X110.509 Y123.86 E26.81223
G1 X110.637 Y123.277 E27.03488
G1 X110.735 Y122.647 E27.27271
G1 X110.781 Y122.105 E27.47561
G1 X110.799 Y121.512 E27.69691
G1 X110.782 Y120.905 E27.92342
G1 X110.733 Y120.368 E28.12457
G1 X110.64 Y119.734 E28.36359
G1 X110.513 Y119.152 E28.5858
G1 X110.352 Y118.569 E28.81141
G1 X110.166 Y118.038 E29.02128
G1 X109.94 Y117.489 E29.24274
G1 X109.676 Y116.944 E29.46863
G1 X109.385 Y116.428 E29.68961
G1 X109.071 Y115.942 E29.90544
G1 X108.724 Y115.471 E30.12367
G1 X108.341 Y115.011 E30.34695
G1 X107.927 Y114.569 E30.57285
G1 X107.507 Y114.174 E30.78792
G1 X107.052 Y113.794 E31.00905
G1 X106.564 Y113.433 E31.23548
G1 X106.068 Y113.113 E31.45566
G1 X105.564 Y112.828 E31.67164
G1 X105.038 Y112.572 E31.88985
G1 X104.476 Y112.34 E32.11665
G1 X103.945 Y112.155 E32.3264
G1 X103.36 Y111.991 E32.55303
G1 X102.777 Y111.863 E32.77568
G1 X102.147 Y111.765 E33.0135
G1 X101.605 Y111.719 E33.21641
G1 X101.014 Y111.701 E33.43696
G1 X100.411 Y111.718 E33.66198
G1 X99.868 Y111.767 E33.86536
G1 X99.236 Y111.86 E34.10364
G1 X98.652 Y111.987 E34.32658
G1 X98.069 Y112.148 E34.55219
G1 X97.538 Y112.335 E34.76219
G1 X96.992 Y112.559 E34.98233
G1 X96.444 Y112.824 E35.20939
G1 X95.928 Y113.115 E35.43037
G1 X95.442 Y113.429 E35.6462
G1 X94.971 Y113.776 E35.86442
G1 X94.511 Y114.159 E36.0877
G1 X94.069 Y114.573 E36.31361
G1 X93.674 Y114.993 E36.52868
G1 X93.294 Y115.448 E36.74981
G1 X92.933 Y115.936 E36.97623
G1 X92.613 Y116.432 E37.19641
G1 X92.328 Y116.936 E37.41239
G1 X92.072 Y117.463 E37.63094
G1 X91.838 Y118.028 E37.85906
G1 X91.655 Y118.555 E38.06715
G1 X91.491 Y119.14 E38.29378
G1 X91.363 Y119.723 E38.51643
G1 X91.265 Y120.353 E38.75426
G1 X91.219 Y120.895 E38.95716
G1 X91.201 Y121.488 E39.17847
G1 X91.218 Y122.089 E39.40274
G1 X91.267 Y122.632 E39.60611
G1 X91.36 Y123.265 E39.84477
G1 X91.485 Y123.843 E40.06536
G1 X91.648 Y124.431 E40.29297
G1 X91.833 Y124.958 E40.50131
G1 X92.059 Y125.508 E40.72311
G1 X92.323 Y126.054 E40.94934
G1 X92.613 Y126.568 E41.16948
G1 X92.925 Y127.052 E41.38429
G1 X93.276 Y127.528 E41.6049
G1 X93.656 Y127.985 E41.8266
G1 X94.069 Y128.427 E42.05225
G1 X94.491 Y128.824 E42.26837
G1 X94.946 Y129.205 E42.48974
G1 X95.43 Y129.563 E42.7143
G1 X95.928 Y129.885 E42.93552
G1 X96.432 Y130.17 E43.15149
G1 X96.963 Y130.428 E43.37171
G1 X97.524 Y130.66 E43.59816
G1 X98.055 Y130.845 E43.80791
G1 X98.64 Y131.009 E44.03454
G1 X99.223 Y131.137 E44.25719
G1 X99.853 Y131.235 E44.49502
G1 X100.395 Y131.281 E44.69792
G1 X100.986 Y131.299 E44.91848
G1 X101.589 Y131.282 E45.1435
G0 F6000 X101.788 Y131.265
G1 F1500 E44.1435
G1 F600 Z1.3
G0 F6000 X98.342 Y130.155 Z1.3
;TYPE:FILL
G1 F600 Z0.3
G1 F1500 E45.29893
G1 F2400 X92.338 Y124.151 E48.46621
G1 X92.522 Y124.689 E48.67831
G1 X92.732 Y125.199 E48.88404
G1 X92.981 Y125.712 E49.09675
G1 X93.244 Y126.179 E49.29668
G1 X93.531 Y126.625 E49.49451
G1 X93.856 Y127.066 E49.69886
G1 X94.212 Y127.495 E49.90681
G1 X94.593 Y127.902 E50.11477
G1 X94.987 Y128.273 E50.31664
G1 X95.4 Y128.619 E50.51762
G1 X95.851 Y128.952 E50.72674
G1 X96.312 Y129.251 E50.9317
G1 X96.78 Y129.516 E51.13232
G1 X97.265 Y129.751 E51.33335
G1 X97.782 Y129.965 E51.54207
G1 X98.271 Y130.135 E51.73518
G1 X98.825 Y130.291 E51.94987
G1 X99.352 Y130.407 E52.15116
G1 X100.145 Y130.531 E52.45056
G1 X101.008 Y130.558 E52.77263
G1 X91.94 Y121.49 E57.55627
G1 X91.967 Y120.645 E57.87163
G1 X92.092 Y119.853 E58.17072
G1 X92.177 Y119.464 E58.31925
G1 X103.041 Y130.328 E64.05032
G1 X103.708 Y130.144 E64.30842
G1 X104.203 Y129.97 E64.50414
G1 X104.728 Y129.753 E64.71604
G1 X92.744 Y117.769 E71.03795
G1 X92.985 Y117.273 E71.24365
G1 X93.242 Y116.82 E71.43793
G1 X93.565 Y116.326 E71.6581
G1 X106.172 Y128.934 E78.30892
G1 X106.568 Y128.643 E78.49223
G1 X107.004 Y128.281 E78.70362
G1 X107.404 Y127.903 E78.90891
G1 X94.596 Y115.095 E85.6655
G1 X94.996 Y114.717 E85.87079
G1 X95.431 Y114.354 E86.08213
G1 X95.827 Y114.064 E86.26522
G1 X108.435 Y126.671 E92.91604
G1 X108.756 Y126.178 E93.13549
G1 X109.018 Y125.715 E93.33393
G1 X109.255 Y125.229 E93.53563
G1 X97.271 Y113.245 E99.85753
G1 X97.795 Y113.028 E100.06909
G1 X98.292 Y112.854 E100.26552
G1 X98.959 Y112.67 E100.52362
G1 X109.823 Y123.534 E106.25469
G1 X109.908 Y123.145 E106.40322
G1 X110.032 Y122.352 E106.70262
G1 X110.059 Y121.507 E107.01798
G1 X100.993 Y112.441 E111.80056
G1 X101.855 Y112.467 E112.12225
G1 X102.646 Y112.591 E112.42091
G1 X103.175 Y112.707 E112.62293
G1 X103.729 Y112.863 E112.83762
G1 X104.218 Y113.033 E113.03073
G1 X104.735 Y113.246 E113.23931
G1 X105.214 Y113.479 E113.438
G1 X105.682 Y113.744 E113.63862
G1 X106.14 Y114.04 E113.84204
G1 X106.589 Y114.372 E114.05033
G1 X107.021 Y114.731 E114.25986
G1 X107.398 Y115.087 E114.45328
G1 X107.782 Y115.495 E114.66227
G1 X108.137 Y115.922 E114.86941
G1 X108.457 Y116.357 E115.07085
G1 X108.755 Y116.816 E115.27499
G1 X109.016 Y117.28 E115.47357
G1 X109.262 Y117.784 E115.68277
G1 X109.472 Y118.295 E115.88885
G1 X109.66 Y118.845 E116.10567
G1 X103.658 Y112.843 E119.2719
G1 F1500 E118.2719
G1 F600 Z1.3
;MESH:NONMESH
G0 F6000 X101.565 Y130.882 Z1.3
;TIME_ELAPSED:16.596132
;LAYER:1
;MESH:Sajad.stl
G0 X101.565 Y130.882 Z1.6
;TYPE:WALL-INNER
G1 F600 Z0.6
G1 F1500 E119.42732
G1 F1800 X102.085 Y130.835 E119.62208
G1 X102.692 Y130.746 E119.85093
G1 X103.252 Y130.625 E120.06464
G1 X103.825 Y130.466 E120.28645
G1 X104.333 Y130.287 E120.48737
G1 X104.861 Y130.069 E120.70045
G1 X105.37 Y129.823 E120.91133
G1 X105.865 Y129.543 E121.12347
G1 X106.342 Y129.234 E121.33547
G1 X106.794 Y128.9 E121.54511
G1 X107.234 Y128.532 E121.75908
G1 X107.648 Y128.144 E121.97073
G1 X108.036 Y127.731 E122.1821
G1 X108.4 Y127.294 E122.39426
G1 X108.738 Y126.836 E122.60658
G1 X109.045 Y126.361 E122.81755
G1 X109.325 Y125.866 E123.02969
G1 X109.569 Y125.361 E123.2389
G1 X109.788 Y124.831 E123.45282
G1 X109.963 Y124.325 E123.65253
G1 X110.127 Y123.745 E123.87737
G1 X110.246 Y123.192 E124.08837
G1 X110.339 Y122.585 E124.31743
G1 X110.382 Y122.067 E124.51132
G1 X110.399 Y121.498 E124.72367
G1 X110.382 Y120.93 E124.93564
G1 X110.335 Y120.415 E125.12854
G1 X110.246 Y119.806 E125.35812
G1 X110.125 Y119.248 E125.5711
G1 X109.966 Y118.675 E125.79292
G1 X109.787 Y118.167 E125.99383
G1 X109.569 Y117.639 E126.20691
G1 X109.323 Y117.13 E126.41779
G1 X109.043 Y116.635 E126.62993
G1 X108.734 Y116.158 E126.84193
G1 X108.4 Y115.706 E127.05157
G1 X108.032 Y115.266 E127.26554
G1 X107.644 Y114.852 E127.47719
G1 X107.231 Y114.464 E127.68857
G1 X106.794 Y114.1 E127.90072
G1 X106.336 Y113.762 E128.11305
G1 X105.861 Y113.455 E128.32402
G1 X105.366 Y113.175 E128.53616
G1 X104.861 Y112.931 E128.74537
G1 X104.335 Y112.714 E128.95762
G1 X103.825 Y112.537 E129.15899
G1 X103.25 Y112.375 E129.38182
G1 X102.69 Y112.254 E129.59554
G1 X102.085 Y112.161 E129.82386
G1 X101.567 Y112.118 E130.01775
G1 X101 Y112.101 E130.22935
G1 X100.435 Y112.118 E130.4402
G1 X99.915 Y112.165 E130.63496
G1 X99.308 Y112.254 E130.86381
G1 X98.748 Y112.375 E131.07752
G1 X98.175 Y112.534 E131.29933
G1 X97.667 Y112.713 E131.50025
G1 X97.139 Y112.931 E131.71333
G1 X96.63 Y113.177 E131.92421
G1 X96.135 Y113.457 E132.13634
G1 X95.658 Y113.766 E132.34835
G1 X95.206 Y114.1 E132.55799
G1 X94.766 Y114.468 E132.77195
G1 X94.352 Y114.856 E132.9836
G1 X93.964 Y115.269 E133.19498
G1 X93.6 Y115.706 E133.40713
G1 X93.262 Y116.164 E133.61946
G1 X92.955 Y116.639 E133.83043
G1 X92.675 Y117.134 E134.04257
G1 X92.431 Y117.639 E134.25178
G1 X92.212 Y118.169 E134.4657
G1 X92.037 Y118.675 E134.66541
G1 X91.873 Y119.255 E134.89025
G1 X91.754 Y119.808 E135.10125
G1 X91.661 Y120.415 E135.33031
G1 X91.618 Y120.933 E135.5242
G1 X91.601 Y121.501 E135.73617
G1 X91.618 Y122.065 E135.94665
G1 X91.665 Y122.585 E136.14141
G1 X91.754 Y123.194 E136.37099
G1 X91.873 Y123.747 E136.58199
G1 X92.034 Y124.325 E136.80581
G1 X92.211 Y124.829 E137.00507
G1 X92.431 Y125.361 E137.21981
G1 X92.675 Y125.866 E137.42902
G1 X92.955 Y126.361 E137.64116
G1 X93.262 Y126.836 E137.85213
G1 X93.6 Y127.294 E138.06446
G1 X93.964 Y127.731 E138.27661
G1 X94.352 Y128.144 E138.48799
G1 X94.766 Y128.532 E138.69964
G1 X95.206 Y128.9 E138.9136
G1 X95.658 Y129.234 E139.12325
G1 X96.136 Y129.543 E139.33556
G1 X96.63 Y129.823 E139.54737
G1 X97.139 Y130.069 E139.75825
G1 X97.665 Y130.286 E139.9705
G1 X98.175 Y130.463 E140.17187
G1 X98.75 Y130.625 E140.39471
G1 X99.31 Y130.746 E140.60842
G1 X99.915 Y130.839 E140.83675
G1 X100.433 Y130.882 E141.03064
G1 X101 Y130.899 E141.24224
G1 X101.565 Y130.882 E141.45309
G0 F6000 X101.589 Y131.282
;TYPE:WALL-OUTER
G1 F1800 X102.132 Y131.233 E141.65646
G1 X102.764 Y131.14 E141.89475
G1 X103.348 Y131.013 E142.11768
G1 X103.945 Y130.848 E142.34872
G1 X104.476 Y130.661 E142.55872
G1 X105.025 Y130.434 E142.78032
G1 X105.556 Y130.177 E143.00038
G1 X106.072 Y129.885 E143.22154
G1 X106.57 Y129.563 E143.44275
G1 X107.041 Y129.215 E143.66119
G1 X107.5 Y128.832 E143.88419
G1 X107.931 Y128.427 E144.1048
G1 X108.336 Y127.996 E144.32541
G1 X108.715 Y127.541 E144.54631
G1 X109.067 Y127.064 E144.76744
G1 X109.387 Y126.568 E144.98762
G1 X109.679 Y126.052 E145.20878
G1 X109.934 Y125.525 E145.42716
G1 X110.162 Y124.973 E145.64994
G1 X110.345 Y124.445 E145.85839
G1 X110.515 Y123.842 E146.09209
G1 X110.64 Y123.264 E146.31268
G1 X110.737 Y122.632 E146.55119
G1 X110.782 Y122.089 E146.75443
G1 X110.799 Y121.498 E146.97498
G1 X110.782 Y120.906 E147.1959
G1 X110.733 Y120.368 E147.39741
G1 X110.64 Y119.734 E147.63644
G1 X110.513 Y119.152 E147.85864
G1 X110.348 Y118.555 E148.08968
G1 X110.161 Y118.024 E148.29968
G1 X109.934 Y117.475 E148.52128
G1 X109.677 Y116.944 E148.74134
G1 X109.385 Y116.428 E148.9625
G1 X109.063 Y115.93 E149.18371
G1 X108.715 Y115.459 E149.40216
G1 X108.332 Y115 E149.62515
G1 X107.927 Y114.569 E149.84576
G1 X107.496 Y114.164 E150.06638
G1 X107.041 Y113.785 E150.28727
G1 X106.564 Y113.433 E150.5084
G1 X106.068 Y113.113 E150.72858
G1 X105.552 Y112.821 E150.94974
G1 X105.025 Y112.566 E151.16813
G1 X104.477 Y112.34 E151.38924
G1 X103.945 Y112.155 E151.59934
G1 X103.347 Y111.987 E151.83105
G1 X102.763 Y111.86 E152.05398
G1 X102.132 Y111.763 E152.29212
G1 X101.589 Y111.718 E152.49536
G1 X101 Y111.701 E152.71516
G1 X100.411 Y111.718 E152.93496
G1 X99.868 Y111.767 E153.13834
G1 X99.236 Y111.86 E153.37662
G1 X98.652 Y111.987 E153.59956
G1 X98.055 Y112.152 E153.8306
G1 X97.524 Y112.339 E154.0406
G1 X96.975 Y112.566 E154.2622
G1 X96.444 Y112.823 E154.48225
G1 X95.928 Y113.115 E154.70341
G1 X95.43 Y113.437 E154.92463
G1 X94.959 Y113.785 E155.14307
G1 X94.5 Y114.168 E155.36606
G1 X94.069 Y114.573 E155.58668
G1 X93.664 Y115.004 E155.80729
G1 X93.285 Y115.459 E156.02818
G1 X92.933 Y115.936 E156.24932
G1 X92.613 Y116.432 E156.4695
G1 X92.321 Y116.948 E156.69066
G1 X92.066 Y117.475 E156.90904
G1 X91.838 Y118.027 E157.13182
G1 X91.655 Y118.555 E157.34027
G1 X91.485 Y119.158 E157.57397
G1 X91.36 Y119.736 E157.79456
G1 X91.263 Y120.368 E158.03307
G1 X91.218 Y120.911 E158.23631
G1 X91.201 Y121.501 E158.45648
G1 X91.218 Y122.089 E158.67591
G1 X91.267 Y122.632 E158.87928
G1 X91.36 Y123.265 E159.11794
G1 X91.485 Y123.843 E159.33853
G1 X91.652 Y124.445 E159.57157
G1 X91.837 Y124.972 E159.77991
G1 X92.066 Y125.525 E160.00318
G1 X92.321 Y126.052 E160.22156
G1 X92.613 Y126.568 E160.44272
G1 X92.933 Y127.064 E160.6629
G1 X93.285 Y127.541 E160.88403
G1 X93.664 Y127.996 E161.10493
G1 X94.069 Y128.427 E161.32554
G1 X94.5 Y128.832 E161.54615
G1 X94.959 Y129.215 E161.76915
G1 X95.43 Y129.563 E161.98759
G1 X95.928 Y129.885 E162.2088
G1 X96.444 Y130.177 E162.42996
G1 X96.975 Y130.434 E162.65002
G1 X97.523 Y130.66 E162.87113
G1 X98.055 Y130.845 E163.08124
G1 X98.653 Y131.013 E163.31294
G1 X99.237 Y131.14 E163.53587
