;FLAVOR:Marlin
;TIME:431
;Filament used: 4.03979m, 0m
;Layer height: 0.3
;MINX:91.201
;MINY:111.701
;MINZ:0.3
;MAXX:110.799
;MAXY:131.299
;MAXZ:7
;Generated with Cura_SteamEngine 5.0.1
T0
M140 S40
M105
M190 S40
M104 S200
M105
M109 S200
M82 ;absolute extrusion mode
M900 K0.020;
G28 ; home all axes
G1 Z5 F5000 ; lift nozzle
G1 X-45 Y70 F2500; go to glycerin roller;
G92 E0
G1 X-23 F5000; park to start
G92 E0; Extrude a small amount to clear nozzle
G1 E20 F4000
G4 P2000
G92 E0


G92 E0
G1 F1500 E-1
;LAYER_COUNT:20
;LAYER:0
M107
M204 S500
G1 F600 Z1.3
;MESH:Sajad.stl
G0 F6000 X101.565 Y130.882 Z1.3
;TYPE:WALL-INNER
G1 F600 Z0.3
G1 F1500 E0.15542
G1 F1800 X102.085 Y130.835 E0.35019
G1 X102.692 Y130.746 E0.57903
G1 X103.252 Y130.625 E0.79274
G1 X103.811 Y130.47 E1.00913
G1 X104.32 Y130.291 E1.21039
G1 X104.845 Y130.075 E1.42215
G1 X105.37 Y129.821 E1.6397
G1 X105.865 Y129.543 E1.85148
G1 X106.33 Y129.242 E2.0581
G1 X106.782 Y128.909 E2.26752
G1 X107.224 Y128.541 E2.48206
G1 X107.648 Y128.144 E2.69873
G1 X108.026 Y127.741 E2.90483
G1 X108.392 Y127.304 E3.11746
G1 X108.738 Y126.836 E3.33456
G1 X109.045 Y126.361 E3.54553
G1 X109.318 Y125.878 E3.75249
G1 X109.563 Y125.373 E3.96186
G1 X109.788 Y124.83 E4.18111
G1 X109.963 Y124.325 E4.38048
G1 X110.121 Y123.763 E4.59824
G1 X110.243 Y123.203 E4.81203
G1 X110.337 Y122.599 E5.04005
G1 X110.381 Y122.082 E5.2336
G1 X110.399 Y121.512 E5.44632
G1 X110.382 Y120.929 E5.66389
G1 X110.335 Y120.415 E5.85642
G1 X110.246 Y119.806 E6.086
G1 X110.125 Y119.248 E6.29898
G1 X109.97 Y118.689 E6.51537
G1 X109.792 Y118.18 E6.71651
G1 X109.574 Y117.653 E6.92925
G1 X109.322 Y117.13 E7.1458
G1 X109.043 Y116.635 E7.35775
G1 X108.742 Y116.17 E7.56438
G1 X108.409 Y115.718 E7.7738
G1 X108.041 Y115.276 E7.98834
G1 X107.644 Y114.852 E8.205
G1 X107.241 Y114.474 E8.41111
G1 X106.804 Y114.108 E8.62374
G1 X106.336 Y113.762 E8.84084
G1 X105.861 Y113.455 E9.05181
G1 X105.378 Y113.182 E9.25877
G1 X104.874 Y112.937 E9.46781
G1 X104.334 Y112.714 E9.68574
G1 X103.825 Y112.537 E9.88676
G1 X103.263 Y112.379 E10.10452
G1 X102.703 Y112.257 E10.31831
G1 X102.099 Y112.163 E10.54633
G1 X101.582 Y112.119 E10.73987
G1 X101.014 Y112.101 E10.95186
G1 X100.435 Y112.118 E11.16793
G1 X99.915 Y112.165 E11.36269
G1 X99.308 Y112.254 E11.59153
G1 X98.748 Y112.375 E11.80524
G1 X98.189 Y112.53 E12.02163
G1 X97.68 Y112.709 E12.22289
G1 X97.155 Y112.924 E12.43451
G1 X96.63 Y113.179 E12.65223
G1 X96.135 Y113.457 E12.864
G1 X95.67 Y113.758 E13.07062
G1 X95.218 Y114.091 E13.28004
G1 X94.776 Y114.459 E13.49458
G1 X94.352 Y114.856 E13.71125
G1 X93.974 Y115.259 E13.91736
G1 X93.608 Y115.696 E14.12998
G1 X93.262 Y116.164 E14.34709
G1 X92.955 Y116.639 E14.55806
G1 X92.682 Y117.122 E14.76501
G1 X92.437 Y117.627 E14.97439
G1 X92.212 Y118.17 E15.19364
G1 X92.037 Y118.675 E15.393
G1 X91.879 Y119.237 E15.61077
G1 X91.757 Y119.797 E15.82456
G1 X91.663 Y120.401 E16.05257
G1 X91.619 Y120.918 E16.24612
G1 X91.601 Y121.488 E16.45885
G1 X91.618 Y122.065 E16.67417
G1 X91.665 Y122.585 E16.86893
G1 X91.754 Y123.194 E17.09851
G1 X91.873 Y123.747 E17.30952
G1 X92.03 Y124.311 E17.5279
G1 X92.207 Y124.816 E17.72751
G1 X92.424 Y125.344 E17.94045
G1 X92.678 Y125.868 E18.15766
G1 X92.955 Y126.361 E18.3686
G1 X93.255 Y126.825 E18.57471
G1 X93.591 Y127.282 E18.78629
G1 X93.956 Y127.72 E18.99897
G1 X94.352 Y128.144 E19.21538
G1 X94.757 Y128.525 E19.4228
G1 X95.194 Y128.891 E19.63543
G1 X95.658 Y129.234 E19.85067
G1 X96.136 Y129.543 E20.06298
G1 X96.618 Y129.816 E20.26961
G1 X97.127 Y130.063 E20.48065
G1 X97.666 Y130.286 E20.69824
G1 X98.175 Y130.463 E20.89926
G1 X98.737 Y130.621 E21.11702
G1 X99.297 Y130.743 E21.33081
G1 X99.901 Y130.837 E21.55883
G1 X100.418 Y130.881 E21.75238
G1 X100.986 Y130.899 E21.96436
G1 X101.565 Y130.882 E22.18043
G0 F6000 X101.589 Y131.282
;TYPE:WALL-OUTER
G1 F1800 X102.132 Y131.233 E22.3838
G1 X102.764 Y131.14 E22.62209
G1 X103.348 Y131.013 E22.84502
G1 X103.931 Y130.852 E23.07064
G1 X104.462 Y130.665 E23.28063
G1 X105.008 Y130.441 E23.50077
G1 X105.556 Y130.176 E23.72784
G1 X106.072 Y129.885 E23.94881
G1 X106.558 Y129.571 E24.16465
G1 X107.029 Y129.224 E24.38287
G1 X107.489 Y128.841 E24.60615
G1 X107.931 Y128.427 E24.83205
G1 X108.326 Y128.007 E25.04712
G1 X108.706 Y127.552 E25.26825
G1 X109.067 Y127.064 E25.49468
G1 X109.387 Y126.568 E25.71486
G1 X109.672 Y126.064 E25.93084
G1 X109.928 Y125.537 E26.14939
G1 X110.162 Y124.972 E26.3775
G1 X110.345 Y124.445 E26.5856
G1 X110.509 Y123.86 E26.81223
G1 X110.637 Y123.277 E27.03488
G1 X110.735 Y122.647 E27.27271
G1 X110.781 Y122.105 E27.47561
G1 X110.799 Y121.512 E27.69691
G1 X110.782 Y120.905 E27.92342
G1 X110.733 Y120.368 E28.12457
G1 X110.64 Y119.734 E28.36359
G1 X110.513 Y119.152 E28.5858
G1 X110.352 Y118.569 E28.81141
G1 X110.166 Y118.038 E29.02128
G1 X109.94 Y117.489 E29.24274
G1 X109.676 Y116.944 E29.46863
G1 X109.385 Y116.428 E29.68961
G1 X109.071 Y115.942 E29.90544
G1 X108.724 Y115.471 E30.12367
G1 X108.341 Y115.011 E30.34695
G1 X107.927 Y114.569 E30.57285
G1 X107.507 Y114.174 E30.78792
G1 X107.052 Y113.794 E31.00905
G1 X106.564 Y113.433 E31.23548
G1 X106.068 Y113.113 E31.45566
G1 X105.564 Y112.828 E31.67164
G1 X105.038 Y112.572 E31.88985
G1 X104.476 Y112.34 E32.11665
G1 X103.945 Y112.155 E32.3264
G1 X103.36 Y111.991 E32.55303
G1 X102.777 Y111.863 E32.77568
G1 X102.147 Y111.765 E33.0135
G1 X101.605 Y111.719 E33.21641
G1 X101.014 Y111.701 E33.43696
G1 X100.411 Y111.718 E33.66198
G1 X99.868 Y111.767 E33.86536
G1 X99.236 Y111.86 E34.10364
G1 X98.652 Y111.987 E34.32658
G1 X98.069 Y112.148 E34.55219
G1 X97.538 Y112.335 E34.76219
G1 X96.992 Y112.559 E34.98233
G1 X96.444 Y112.824 E35.20939
G1 X95.928 Y113.115 E35.43037
G1 X95.442 Y113.429 E35.6462
G1 X94.971 Y113.776 E35.86442
G1 X94.511 Y114.159 E36.0877
G1 X94.069 Y114.573 E36.31361
G1 X93.674 Y114.993 E36.52868
G1 X93.294 Y115.448 E36.74981
G1 X92.933 Y115.936 E36.97623
G1 X92.613 Y116.432 E37.19641
G1 X92.328 Y116.936 E37.41239
G1 X92.072 Y117.463 E37.63094
G1 X91.838 Y118.028 E37.85906
G1 X91.655 Y118.555 E38.06715
G1 X91.491 Y119.14 E38.29378
G1 X91.363 Y119.723 E38.51643
G1 X91.265 Y120.353 E38.75426
G1 X91.219 Y120.895 E38.95716
G1 X91.201 Y121.488 E39.17847
G1 X91.218 Y122.089 E39.40274
G1 X91.267 Y122.632 E39.60611
G1 X91.36 Y123.265 E39.84477
G1 X91.485 Y123.843 E40.06536
G1 X91.648 Y124.431 E40.29297
G1 X91.833 Y124.958 E40.50131
G1 X92.059 Y125.508 E40.72311
G1 X92.323 Y126.054 E40.94934
G1 X92.613 Y126.568 E41.16948
G1 X92.925 Y127.052 E41.38429
G1 X93.276 Y127.528 E41.6049
G1 X93.656 Y127.985 E41.8266
G1 X94.069 Y128.427 E42.05225
G1 X94.491 Y128.824 E42.26837
G1 X94.946 Y129.205 E42.48974
G1 X95.43 Y129.563 E42.7143
G1 X95.928 Y129.885 E42.93552
G1 X96.432 Y130.17 E43.15149
G1 X96.963 Y130.428 E43.37171
G1 X97.524 Y130.66 E43.59816
G1 X98.055 Y130.845 E43.80791
G1 X98.64 Y131.009 E44.03454
G1 X99.223 Y131.137 E44.25719
G1 X99.853 Y131.235 E44.49502
G1 X100.395 Y131.281 E44.69792
G1 X100.986 Y131.299 E44.91848
G1 X101.589 Y131.282 E45.1435
G0 F6000 X101.788 Y131.265
G1 F1500 E44.1435
G1 F600 Z1.3
G0 F6000 X96.72 Y129.482 Z1.3
;TYPE:FILL
G1 F600 Z0.3
G1 F1500 E45.29893
G1 F2400 X93.019 Y125.78 E47.25157
G0 F6000 X93.244 Y126.179
G1 F2400 X93.531 Y126.625 E47.44941
G1 X93.856 Y127.066 E47.65376
G1 X94.212 Y127.495 E47.86171
G1 X94.593 Y127.902 E48.06967
G1 X94.987 Y128.273 E48.27154
G1 X95.4 Y128.619 E48.47251
G1 X95.851 Y128.952 E48.68163
G1 X96.312 Y129.251 E48.8866
G1 X96.78 Y129.516 E49.08721
G1 X97.265 Y129.751 E49.28825
G1 X97.782 Y129.965 E49.49697
G1 X98.334 Y130.152 E49.71437
G1 X92.341 Y124.159 E52.87585
G1 X92.203 Y123.659 E53.06933
G1 X92.041 Y122.917 E53.35263
G1 X99.564 Y130.439 E57.32097
G1 X100.145 Y130.531 E57.5404
G1 X100.614 Y130.546 E57.71543
G1 X91.929 Y121.86 E62.29728
G1 X91.957 Y120.946 E62.63838
G1 X101.576 Y130.565 E67.71269
G1 X102.398 Y130.444 E68.02261
G1 X92.041 Y120.086 E73.4865
G1 X92.21 Y119.312 E73.78201
G1 X103.185 Y130.287 E79.57165
G1 X103.926 Y130.085 E79.85814
G1 X92.427 Y118.586 E85.9242
G1 X92.688 Y117.904 E86.19659
G1 X104.6 Y129.815 E92.48025
G1 X105.234 Y129.506 E92.74334
G1 X92.99 Y117.263 E99.20214
G1 X93.332 Y116.661 E99.46041
G1 X105.829 Y129.158 E106.05294
G1 X106.389 Y128.774 E106.30622
G1 X93.724 Y116.109 E112.98738
G1 X94.142 Y115.585 E113.23741
G1 X106.919 Y128.362 E119.97765
G1 X107.404 Y127.903 E120.22674
G1 X94.596 Y115.095 E126.98333
G1 X95.081 Y114.637 E127.23216
G1 X107.857 Y127.413 E133.97188
G1 X108.275 Y126.888 E134.2222
G1 X95.61 Y114.223 E140.90336
G1 X96.17 Y113.839 E141.15664
G1 X108.667 Y126.336 E147.74917
G1 X109.008 Y125.734 E148.00726
G1 X96.766 Y113.492 E154.46527
G1 X97.399 Y113.181 E154.72835
G1 X109.311 Y125.094 E161.01254
G1 X109.573 Y124.412 E161.28506
G1 X98.075 Y112.914 E167.35059
G1 X98.814 Y112.71 E167.63656
G1 X109.789 Y123.685 E173.4262
G1 X109.959 Y122.912 E173.72143
G1 X99.6 Y112.553 E179.1861
G1 X100.423 Y112.432 E179.4964
G1 X110.042 Y122.051 E184.5707
G1 X110.07 Y121.136 E184.91217
G1 X101.386 Y112.452 E189.49324
G1 X101.855 Y112.467 E189.66827
G1 X102.435 Y112.558 E189.88727
G1 X109.957 Y120.08 E193.85534
G1 X109.796 Y119.335 E194.13966
G1 X109.657 Y118.837 E194.33252
G1 X103.666 Y112.845 E197.49321
G1 X104.218 Y113.033 E197.71073
G1 X104.735 Y113.246 E197.91931
G1 X105.214 Y113.479 E198.11801
G1 X105.682 Y113.744 E198.31862
G1 X106.14 Y114.04 E198.52204
G1 X106.589 Y114.372 E198.73034
G1 X107.021 Y114.731 E198.93986
G1 X107.398 Y115.087 E199.13328
G1 X107.782 Y115.495 E199.34228
G1 X108.137 Y115.922 E199.54941
G1 X108.457 Y116.357 E199.75085
G1 X108.755 Y116.816 E199.95499
G0 F6000 X108.982 Y117.218
G1 F2400 X105.28 Y113.516 E201.9079
G1 F1500 E200.9079
G1 F600 Z1.3
;MESH:NONMESH
G0 F6000 X101.565 Y130.882 Z1.3
;TIME_ELAPSED:24.406317
;LAYER:1
;MESH:Sajad.stl
G0 X101.565 Y130.882 Z1.6
;TYPE:WALL-INNER
G1 F600 Z0.6
G1 F1500 E202.06333
G1 F1800 X102.085 Y130.835 E202.25809
G1 X102.692 Y130.746 E202.48693
G1 X103.252 Y130.625 E202.70064
G1 X103.825 Y130.466 E202.92246
G1 X104.333 Y130.287 E203.12337
G1 X104.861 Y130.069 E203.33645
G1 X105.37 Y129.823 E203.54733
G1 X105.865 Y129.543 E203.75947
G1 X106.342 Y129.234 E203.97147
G1 X106.794 Y128.9 E204.18111
G1 X107.234 Y128.532 E204.39508
G1 X107.648 Y128.144 E204.60673
G1 X108.036 Y127.731 E204.81811
G1 X108.4 Y127.294 E205.03026
G1 X108.738 Y126.836 E205.24259
G1 X109.045 Y126.361 E205.45356
G1 X109.325 Y125.866 E205.6657
G1 X109.569 Y125.361 E205.87491
G1 X109.788 Y124.831 E206.08882
G1 X109.963 Y124.325 E206.28854
G1 X110.127 Y123.745 E206.51337
G1 X110.246 Y123.192 E206.72437
G1 X110.339 Y122.585 E206.95344
G1 X110.382 Y122.067 E207.14733
G1 X110.399 Y121.498 E207.35967
G1 X110.382 Y120.93 E207.57164
G1 X110.335 Y120.415 E207.76454
G1 X110.246 Y119.806 E207.99413
G1 X110.125 Y119.248 E208.20711
G1 X109.966 Y118.675 E208.42892
G1 X109.787 Y118.167 E208.62984
G1 X109.569 Y117.639 E208.84292
G1 X109.323 Y117.13 E209.0538
G1 X109.043 Y116.635 E209.26594
G1 X108.734 Y116.158 E209.47794
G1 X108.4 Y115.706 E209.68758
G1 X108.032 Y115.266 E209.90155
G1 X107.644 Y114.852 E210.1132
G1 X107.231 Y114.464 E210.32457
G1 X106.794 Y114.1 E210.53673
G1 X106.336 Y113.762 E210.74905
G1 X105.861 Y113.455 E210.96002
G1 X105.366 Y113.175 E211.17216
G1 X104.861 Y112.931 E211.38137
G1 X104.335 Y112.714 E211.59362
G1 X103.825 Y112.537 E211.79499
G1 X103.25 Y112.375 E212.01783
G1 X102.69 Y112.254 E212.23154
G1 X102.085 Y112.161 E212.45987
G1 X101.567 Y112.118 E212.65376
G1 X101 Y112.101 E212.86535
G1 X100.435 Y112.118 E213.07621
G1 X99.915 Y112.165 E213.27097
G1 X99.308 Y112.254 E213.49981
G1 X98.748 Y112.375 E213.71352
G1 X98.175 Y112.534 E213.93534
G1 X97.667 Y112.713 E214.13625
G1 X97.139 Y112.931 E214.34933
G1 X96.63 Y113.177 E214.56021
G1 X96.135 Y113.457 E214.77235
G1 X95.658 Y113.766 E214.98435
G1 X95.206 Y114.1 E215.19399
G1 X94.766 Y114.468 E215.40796
G1 X94.352 Y114.856 E215.61961
G1 X93.964 Y115.269 E215.83099
G1 X93.6 Y115.706 E216.04314
G1 X93.262 Y116.164 E216.25547
G1 X92.955 Y116.639 E216.46644
G1 X92.675 Y117.134 E216.67858
G1 X92.431 Y117.639 E216.88779
G1 X92.212 Y118.169 E217.1017
G1 X92.037 Y118.675 E217.30142
G1 X91.873 Y119.255 E217.52625
G1 X91.754 Y119.808 E217.73725
G1 X91.661 Y120.415 E217.96632
G1 X91.618 Y120.933 E218.16021
G1 X91.601 Y121.501 E218.37218
G1 X91.618 Y122.065 E218.58266
G1 X91.665 Y122.585 E218.77742
G1 X91.754 Y123.194 E219.007
G1 X91.873 Y123.747 E219.218
G1 X92.034 Y124.325 E219.44181
G1 X92.211 Y124.829 E219.64107
G1 X92.431 Y125.361 E219.85582
G1 X92.675 Y125.866 E220.06503
G1 X92.955 Y126.361 E220.27716
G1 X93.262 Y126.836 E220.48813
G1 X93.6 Y127.294 E220.70046
G1 X93.964 Y127.731 E220.91261
G1 X94.352 Y128.144 E221.12399
G1 X94.766 Y128.532 E221.33564
G1 X95.206 Y128.9 E221.54961
G1 X95.658 Y129.234 E221.75925
G1 X96.136 Y129.543 E221.97157
G1 X96.63 Y129.823 E222.18338
G1 X97.139 Y130.069 E222.39426
G1 X97.665 Y130.286 E222.60651
G1 X98.175 Y130.463 E222.80788
G1 X98.75 Y130.625 E223.03072
G1 X99.31 Y130.746 E223.24443
G1 X99.915 Y130.839 E223.47275
G1 X100.433 Y130.882 E223.66664
G1 X101 Y130.899 E223.87824
G1 X101.565 Y130.882 E224.08909
G0 F6000 X101.589 Y131.282
;TYPE:WALL-OUTER
G1 F1800 X102.132 Y131.233 E224.29246
G1 X102.764 Y131.14 E224.53075
G1 X103.348 Y131.013 E224.75369
G1 X103.945 Y130.848 E224.98473
G1 X104.476 Y130.661 E225.19472
G1 X105.025 Y130.434 E225.41633
G1 X105.556 Y130.177 E225.63638
G1 X106.072 Y129.885 E225.85754
G1 X106.57 Y129.563 E226.07875
G1 X107.041 Y129.215 E226.2972
G1 X107.5 Y128.832 E226.52019
G1 X107.931 Y128.427 E226.74081
G1 X108.336 Y127.996 E226.96142
G1 X108.715 Y127.541 E227.18231
G1 X109.067 Y127.064 E227.40344
G1 X109.387 Y126.568 E227.62362
G1 X109.679 Y126.052 E227.84478
G1 X109.934 Y125.525 E228.06317
G1 X110.162 Y124.973 E228.28595
G1 X110.345 Y124.445 E228.4944
G1 X110.515 Y123.842 E228.7281
G1 X110.64 Y123.264 E228.94869
G1 X110.737 Y122.632 E229.18719
G1 X110.782 Y122.089 E229.39044
G1 X110.799 Y121.498 E229.61098
G1 X110.782 Y120.906 E229.8319
G1 X110.733 Y120.368 E230.03342
G1 X110.64 Y119.734 E230.27244
G1 X110.513 Y119.152 E230.49465
G1 X110.348 Y118.555 E230.72569
G1 X110.161 Y118.024 E230.93569
G1 X109.934 Y117.475 E231.15729
G1 X109.677 Y116.944 E231.37734
G1 X109.385 Y116.428 E231.5985
G1 X109.063 Y115.93 E231.81972
G1 X108.715 Y115.459 E232.03816
G1 X108.332 Y115 E232.26115
G1 X107.927 Y114.569 E232.48177
G1 X107.496 Y114.164 E232.70238
G1 X107.041 Y113.785 E232.92327
G1 X106.564 Y113.433 E233.14441
G1 X106.068 Y113.113 E233.36459
G1 X105.552 Y112.821 E233.58575
G1 X105.025 Y112.566 E233.80413
G1 X104.477 Y112.34 E234.02525
G1 X103.945 Y112.155 E234.23535
G1 X103.347 Y111.987 E234.46705
G1 X102.763 Y111.86 E234.68999
G1 X102.132 Y111.763 E234.92813
G1 X101.589 Y111.718 E235.13137
G1 X101 Y111.701 E235.35117
G1 X100.411 Y111.718 E235.57097
G1 X99.868 Y111.767 E235.77434
G1 X99.236 Y111.86 E236.01263
G1 X98.652 Y111.987 E236.23556
G1 X98.055 Y112.152 E236.46661
G1 X97.524 Y112.339 E236.6766
G1 X96.975 Y112.566 E236.89821
G1 X96.444 Y112.823 E237.11826
G1 X95.928 Y113.115 E237.33942
G1 X95.43 Y113.437 E237.56063
G1 X94.959 Y113.785 E237.77908
G1 X94.5 Y114.168 E238.00207
G1 X94.069 Y114.573 E238.22268
G1 X93.664 Y115.004 E238.4433
G1 X93.285 Y115.459 E238.66419
G1 X92.933 Y115.936 E238.88532
G1 X92.613 Y116.432 E239.1055
G1 X92.321 Y116.948 E239.32666
G1 X92.066 Y117.475 E239.54505
G1 X91.838 Y118.027 E239.76783
G1 X91.655 Y118.555 E239.97628
G1 X91.485 Y119.158 E240.20997
G1 X91.36 Y119.736 E240.43056
G1 X91.263 Y120.368 E240.66907
G1 X91.218 Y120.911 E240.87232
G1 X91.201 Y121.501 E241.09249
G1 X91.218 Y122.089 E241.31192
G1 X91.267 Y122.632 E241.51529
G1 X91.36 Y123.265 E241.75394
G1 X91.485 Y123.843 E241.97453
G1 X91.652 Y124.445 E242.20757
G1 X91.837 Y124.972 E242.41591
G1 X92.066 Y125.525 E242.63918
G1 X92.321 Y126.052 E242.85757
G1 X92.613 Y126.568 E243.07873
G1 X92.933 Y127.064 E243.29891
G1 X93.285 Y127.541 E243.52004
G1 X93.664 Y127.996 E243.74093
G1 X94.069 Y128.427 E243.96154
G1 X94.5 Y128.832 E244.18216
G1 X94.959 Y129.215 E244.40515
G1 X95.43 Y129.563 E244.6236
