;FLAVOR:Marlin
;TIME:560
;Filament used: 5.48235m, 0m
;Layer height: 0.3
;MINX:91.201
;MINY:111.701
;MINZ:0.3
;MAXX:110.799
;MAXY:131.299
;MAXZ:7
;Generated with Cura_SteamEngine 5.0.1
T0
M140 S40
M105
M190 S40
M104 S200
M105
M109 S200
M82 ;absolute extrusion mode
M900 K0.020;
G28 ; home all axes
G1 Z5 F5000 ; lift nozzle
G1 X-45 Y70 F2500; go to glycerin roller;
G92 E0
G1 X-23 F5000; park to start
G92 E0; Extrude a small amount to clear nozzle
G1 E20 F4000
G4 P2000
G92 E0


G92 E0
G1 F1500 E-1
;LAYER_COUNT:20
;LAYER:0
M107
M204 S500
G1 F600 Z1.3
;MESH:Sajad.stl
G0 F6000 X101.565 Y130.882 Z1.3
;TYPE:WALL-INNER
G1 F600 Z0.3
G1 F1500 E0.15542
G1 F1800 X102.085 Y130.835 E0.35019
G1 X102.692 Y130.746 E0.57903
G1 X103.252 Y130.625 E0.79274
G1 X103.811 Y130.47 E1.00913
G1 X104.32 Y130.291 E1.21039
G1 X104.845 Y130.075 E1.42215
G1 X105.37 Y129.821 E1.6397
G1 X105.865 Y129.543 E1.85148
G1 X106.33 Y129.242 E2.0581
G1 X106.782 Y128.909 E2.26752
G1 X107.224 Y128.541 E2.48206
G1 X107.648 Y128.144 E2.69873
G1 X108.026 Y127.741 E2.90483
G1 X108.392 Y127.304 E3.11746
G1 X108.738 Y126.836 E3.33456
G1 X109.045 Y126.361 E3.54553
G1 X109.318 Y125.878 E3.75249
G1 X109.563 Y125.373 E3.96186
G1 X109.788 Y124.83 E4.18111
G1 X109.963 Y124.325 E4.38048
G1 X110.121 Y123.763 E4.59824
G1 X110.243 Y123.203 E4.81203
G1 X110.337 Y122.599 E5.04005
G1 X110.381 Y122.082 E5.2336
G1 X110.399 Y121.512 E5.44632
G1 X110.382 Y120.929 E5.66389
G1 X110.335 Y120.415 E5.85642
G1 X110.246 Y119.806 E6.086
G1 X110.125 Y119.248 E6.29898
G1 X109.97 Y118.689 E6.51537
G1 X109.792 Y118.18 E6.71651
G1 X109.574 Y117.653 E6.92925
G1 X109.322 Y117.13 E7.1458
G1 X109.043 Y116.635 E7.35775
G1 X108.742 Y116.17 E7.56438
G1 X108.409 Y115.718 E7.7738
G1 X108.041 Y115.276 E7.98834
G1 X107.644 Y114.852 E8.205
G1 X107.241 Y114.474 E8.41111
G1 X106.804 Y114.108 E8.62374
G1 X106.336 Y113.762 E8.84084
G1 X105.861 Y113.455 E9.05181
G1 X105.378 Y113.182 E9.25877
G1 X104.874 Y112.937 E9.46781
G1 X104.334 Y112.714 E9.68574
G1 X103.825 Y112.537 E9.88676
G1 X103.263 Y112.379 E10.10452
G1 X102.703 Y112.257 E10.31831
G1 X102.099 Y112.163 E10.54633
G1 X101.582 Y112.119 E10.73987
G1 X101.014 Y112.101 E10.95186
G1 X100.435 Y112.118 E11.16793
G1 X99.915 Y112.165 E11.36269
G1 X99.308 Y112.254 E11.59153
G1 X98.748 Y112.375 E11.80524
G1 X98.189 Y112.53 E12.02163
G1 X97.68 Y112.709 E12.22289
G1 X97.155 Y112.924 E12.43451
G1 X96.63 Y113.179 E12.65223
G1 X96.135 Y113.457 E12.864
G1 X95.67 Y113.758 E13.07062
G1 X95.218 Y114.091 E13.28004
G1 X94.776 Y114.459 E13.49458
G1 X94.352 Y114.856 E13.71125
G1 X93.974 Y115.259 E13.91736
G1 X93.608 Y115.696 E14.12998
G1 X93.262 Y116.164 E14.34709
G1 X92.955 Y116.639 E14.55806
G1 X92.682 Y117.122 E14.76501
G1 X92.437 Y117.627 E14.97439
G1 X92.212 Y118.17 E15.19364
G1 X92.037 Y118.675 E15.393
G1 X91.879 Y119.237 E15.61077
G1 X91.757 Y119.797 E15.82456
G1 X91.663 Y120.401 E16.05257
G1 X91.619 Y120.918 E16.24612
G1 X91.601 Y121.488 E16.45885
G1 X91.618 Y122.065 E16.67417
G1 X91.665 Y122.585 E16.86893
G1 X91.754 Y123.194 E17.09851
G1 X91.873 Y123.747 E17.30952
G1 X92.03 Y124.311 E17.5279
G1 X92.207 Y124.816 E17.72751
G1 X92.424 Y125.344 E17.94045
G1 X92.678 Y125.868 E18.15766
G1 X92.955 Y126.361 E18.3686
G1 X93.255 Y126.825 E18.57471
G1 X93.591 Y127.282 E18.78629
G1 X93.956 Y127.72 E18.99897
G1 X94.352 Y128.144 E19.21538
G1 X94.757 Y128.525 E19.4228
G1 X95.194 Y128.891 E19.63543
G1 X95.658 Y129.234 E19.85067
G1 X96.136 Y129.543 E20.06298
G1 X96.618 Y129.816 E20.26961
G1 X97.127 Y130.063 E20.48065
G1 X97.666 Y130.286 E20.69824
G1 X98.175 Y130.463 E20.89926
G1 X98.737 Y130.621 E21.11702
G1 X99.297 Y130.743 E21.33081
G1 X99.901 Y130.837 E21.55883
G1 X100.418 Y130.881 E21.75238
G1 X100.986 Y130.899 E21.96436
G1 X101.565 Y130.882 E22.18043
G0 F6000 X101.589 Y131.282
;TYPE:WALL-OUTER
G1 F1800 X102.132 Y131.233 E22.3838
G1 X102.764 Y131.14 E22.62209
G1 X103.348 Y131.013 E22.84502
G1 X103.931 Y130.852 E23.07064
G1 X104.462 Y130.665 E23.28063
G1 X105.008 Y130.441 E23.50077
G1 X105.556 Y130.176 E23.72784
G1 X106.072 Y129.885 E23.94881
G1 X106.558 Y129.571 E24.16465
G1 X107.029 Y129.224 E24.38287
G1 X107.489 Y128.841 E24.60615
G1 X107.931 Y128.427 E24.83205
G1 X108.326 Y128.007 E25.04712
G1 X108.706 Y127.552 E25.26825
G1 X109.067 Y127.064 E25.49468
G1 X109.387 Y126.568 E25.71486
G1 X109.672 Y126.064 E25.93084
G1 X109.928 Y125.537 E26.14939
G1 X110.162 Y124.972 E26.3775
G1 X110.345 Y124.445 E26.5856
G1 X110.509 Y123.86 E26.81223
G1 X110.637 Y123.277 E27.03488
G1 X110.735 Y122.647 E27.27271
G1 X110.781 Y122.105 E27.47561
G1 X110.799 Y121.512 E27.69691
G1 X110.782 Y120.905 E27.92342
G1 X110.733 Y120.368 E28.12457
G1 X110.64 Y119.734 E28.36359
G1 X110.513 Y119.152 E28.5858
G1 X110.352 Y118.569 E28.81141
G1 X110.166 Y118.038 E29.02128
G1 X109.94 Y117.489 E29.24274
G1 X109.676 Y116.944 E29.46863
G1 X109.385 Y116.428 E29.68961
G1 X109.071 Y115.942 E29.90544
G1 X108.724 Y115.471 E30.12367
G1 X108.341 Y115.011 E30.34695
G1 X107.927 Y114.569 E30.57285
G1 X107.507 Y114.174 E30.78792
G1 X107.052 Y113.794 E31.00905
G1 X106.564 Y113.433 E31.23548
G1 X106.068 Y113.113 E31.45566
G1 X105.564 Y112.828 E31.67164
G1 X105.038 Y112.572 E31.88985
G1 X104.476 Y112.34 E32.11665
G1 X103.945 Y112.155 E32.3264
G1 X103.36 Y111.991 E32.55303
G1 X102.777 Y111.863 E32.77568
G1 X102.147 Y111.765 E33.0135
G1 X101.605 Y111.719 E33.21641
G1 X101.014 Y111.701 E33.43696
G1 X100.411 Y111.718 E33.66198
G1 X99.868 Y111.767 E33.86536
G1 X99.236 Y111.86 E34.10364
G1 X98.652 Y111.987 E34.32658
G1 X98.069 Y112.148 E34.55219
G1 X97.538 Y112.335 E34.76219
G1 X96.992 Y112.559 E34.98233
G1 X96.444 Y112.824 E35.20939
G1 X95.928 Y113.115 E35.43037
G1 X95.442 Y113.429 E35.6462
G1 X94.971 Y113.776 E35.86442
G1 X94.511 Y114.159 E36.0877
G1 X94.069 Y114.573 E36.31361
G1 X93.674 Y114.993 E36.52868
G1 X93.294 Y115.448 E36.74981
G1 X92.933 Y115.936 E36.97623
G1 X92.613 Y116.432 E37.19641
G1 X92.328 Y116.936 E37.41239
G1 X92.072 Y117.463 E37.63094
G1 X91.838 Y118.028 E37.85906
G1 X91.655 Y118.555 E38.06715
G1 X91.491 Y119.14 E38.29378
G1 X91.363 Y119.723 E38.51643
G1 X91.265 Y120.353 E38.75426
G1 X91.219 Y120.895 E38.95716
G1 X91.201 Y121.488 E39.17847
G1 X91.218 Y122.089 E39.40274
G1 X91.267 Y122.632 E39.60611
G1 X91.36 Y123.265 E39.84477
G1 X91.485 Y123.843 E40.06536
G1 X91.648 Y124.431 E40.29297
G1 X91.833 Y124.958 E40.50131
G1 X92.059 Y125.508 E40.72311
G1 X92.323 Y126.054 E40.94934
G1 X92.613 Y126.568 E41.16948
G1 X92.925 Y127.052 E41.38429
G1 X93.276 Y127.528 E41.6049
G1 X93.656 Y127.985 E41.8266
G1 X94.069 Y128.427 E42.05225
G1 X94.491 Y128.824 E42.26837
G1 X94.946 Y129.205 E42.48974
G1 X95.43 Y129.563 E42.7143
G1 X95.928 Y129.885 E42.93552
G1 X96.432 Y130.17 E43.15149
G1 X96.963 Y130.428 E43.37171
G1 X97.524 Y130.66 E43.59816
G1 X98.055 Y130.845 E43.80791
G1 X98.64 Y131.009 E44.03454
G1 X99.223 Y131.137 E44.25719
G1 X99.853 Y131.235 E44.49502
G1 X100.395 Y131.281 E44.69792
G1 X100.986 Y131.299 E44.91848
G1 X101.589 Y131.282 E45.1435
G0 F6000 X101.788 Y131.265
G1 F1500 E44.1435
G1 F600 Z1.3
G0 F6000 X95.975 Y129.032 Z1.3
;TYPE:FILL
G1 F600 Z0.3
G1 F1500 E45.29893
G1 F2400 X93.463 Y126.521 E46.62381
G1 X93.531 Y126.625 E46.67017
G1 X93.856 Y127.066 E46.87451
G1 X94.212 Y127.495 E47.08246
G1 X94.593 Y127.902 E47.29042
G1 X94.987 Y128.273 E47.49229
G1 X95.4 Y128.619 E47.69327
G1 X95.851 Y128.952 E47.90239
G1 X96.312 Y129.251 E48.10735
G1 X96.78 Y129.516 E48.30797
G1 X97.376 Y129.805 E48.55505
G1 X92.705 Y125.134 E51.01914
G1 X92.522 Y124.689 E51.19862
G1 X92.334 Y124.136 E51.41649
G1 X98.357 Y130.159 E54.5938
G1 X99.2 Y130.373 E54.91823
G1 X92.11 Y123.284 E58.65815
G1 X92.002 Y122.547 E58.936
G1 X99.955 Y130.501 E63.1317
G1 X100.629 Y130.546 E63.38368
G1 X91.951 Y121.869 E67.96131
G1 X91.948 Y121.238 E68.19669
G1 X101.26 Y130.55 E73.10904
G1 X101.87 Y130.532 E73.33668
G1 X91.969 Y120.631 E78.55974
G1 X92.054 Y120.088 E78.76476
G1 X102.408 Y130.442 E84.2268
G1 X102.937 Y130.343 E84.42755
G1 X92.155 Y119.561 E90.11537
G1 X92.281 Y119.059 E90.30843
G1 X103.439 Y130.217 E96.1946
G1 X103.919 Y130.069 E96.38197
G1 X92.429 Y118.579 E102.44328
G1 X92.599 Y118.121 E102.62551
G1 X104.376 Y129.899 E108.83848
G1 X104.816 Y129.71 E109.01711
G1 X92.787 Y117.681 E115.36276
G1 X92.993 Y117.259 E115.53793
G1 X105.238 Y129.505 E121.99779
G1 X105.638 Y129.277 E122.16953
G1 X93.22 Y116.858 E128.72065
G1 X93.465 Y116.476 E128.88993
G1 X106.023 Y129.034 E135.51464
G1 X106.391 Y128.774 E135.68272
G1 X93.725 Y116.108 E142.3644
G1 X94 Y115.755 E142.53132
G1 X106.742 Y128.497 E149.2531
G1 X107.081 Y128.208 E149.41926
G1 X94.289 Y115.416 E156.16742
G1 X94.596 Y115.095 E156.3331
G1 X107.404 Y127.903 E163.08969
G1 X107.71 Y127.581 E163.25539
G1 X94.919 Y114.79 E170.00302
G1 X95.257 Y114.5 E170.16914
G1 X107.999 Y127.243 E176.89118
G1 X108.274 Y126.889 E177.05839
G1 X95.609 Y114.224 E183.73955
G1 X95.977 Y113.964 E183.90763
G1 X108.534 Y126.521 E190.53181
G1 X108.779 Y126.138 E190.70141
G1 X96.36 Y113.72 E197.25253
G1 X96.762 Y113.494 E197.42455
G1 X109.006 Y125.737 E203.88335
G1 X109.213 Y125.316 E204.05835
G1 X97.184 Y113.287 E210.404
G1 X97.623 Y113.098 E210.58229
G1 X109.401 Y124.877 E216.79579
G1 X109.571 Y124.418 E216.97837
G1 X98.08 Y112.928 E223.03994
G1 X98.56 Y112.78 E223.22731
G1 X109.718 Y123.938 E229.11348
G1 X109.844 Y123.436 E229.30654
G1 X99.062 Y112.654 E234.99436
G1 X99.591 Y112.555 E235.19511
G1 X109.945 Y122.91 E240.65741
G1 X110.03 Y122.366 E240.8628
G1 X100.129 Y112.465 E246.08587
G1 X100.74 Y112.448 E246.31387
G1 X110.051 Y121.759 E251.22569
G1 X110.048 Y121.128 E251.46107
G1 X101.372 Y112.452 E256.03791
G1 X102.044 Y112.497 E256.28914
G1 X109.997 Y120.449 E260.48432
G1 X109.887 Y119.712 E260.76228
G1 X102.8 Y112.625 E264.50088
G1 X103.642 Y112.839 E264.82494
G1 X109.664 Y118.861 E268.00172
G1 X109.472 Y118.295 E268.22467
G1 X109.295 Y117.864 E268.39847
G1 X104.622 Y113.191 E270.86361
G1 X105.214 Y113.479 E271.10919
G1 X105.682 Y113.744 E271.3098
G1 X106.14 Y114.04 E271.51322
G1 X106.589 Y114.372 E271.72152
G1 X107.021 Y114.731 E271.93104
G1 X107.398 Y115.087 E272.12446
G1 X107.782 Y115.495 E272.33346
G1 X108.137 Y115.922 E272.5406
G1 X108.457 Y116.357 E272.74204
G1 X108.533 Y116.474 E272.79408
G1 X106.025 Y113.966 E274.11712
G1 F1500 E273.11712
G1 F600 Z1.3
;MESH:NONMESH
G0 F6000 X101.565 Y130.882 Z1.3
;TIME_ELAPSED:31.369024
;LAYER:1
;MESH:Sajad.stl
G0 X101.565 Y130.882 Z1.6
;TYPE:WALL-INNER
G1 F600 Z0.6
G1 F1500 E274.27255
G1 F1800 X102.085 Y130.835 E274.46731
G1 X102.692 Y130.746 E274.69615
G1 X103.252 Y130.625 E274.90986
G1 X103.825 Y130.466 E275.13168
G1 X104.333 Y130.287 E275.33259
G1 X104.861 Y130.069 E275.54567
G1 X105.37 Y129.823 E275.75655
G1 X105.865 Y129.543 E275.96869
G1 X106.342 Y129.234 E276.18069
G1 X106.794 Y128.9 E276.39033
G1 X107.234 Y128.532 E276.6043
G1 X107.648 Y128.144 E276.81595
G1 X108.036 Y127.731 E277.02733
G1 X108.4 Y127.294 E277.23948
G1 X108.738 Y126.836 E277.45181
G1 X109.045 Y126.361 E277.66278
G1 X109.325 Y125.866 E277.87492
G1 X109.569 Y125.361 E278.08413
G1 X109.788 Y124.831 E278.29804
G1 X109.963 Y124.325 E278.49776
G1 X110.127 Y123.745 E278.72259
G1 X110.246 Y123.192 E278.93359
G1 X110.339 Y122.585 E279.16266
G1 X110.382 Y122.067 E279.35655
G1 X110.399 Y121.498 E279.56889
G1 X110.382 Y120.93 E279.78086
G1 X110.335 Y120.415 E279.97376
G1 X110.246 Y119.806 E280.20334
G1 X110.125 Y119.248 E280.41633
G1 X109.966 Y118.675 E280.63814
G1 X109.787 Y118.167 E280.83906
G1 X109.569 Y117.639 E281.05214
G1 X109.323 Y117.13 E281.26302
G1 X109.043 Y116.635 E281.47515
G1 X108.734 Y116.158 E281.68716
G1 X108.4 Y115.706 E281.8968
G1 X108.032 Y115.266 E282.11076
G1 X107.644 Y114.852 E282.32241
G1 X107.231 Y114.464 E282.53379
G1 X106.794 Y114.1 E282.74594
G1 X106.336 Y113.762 E282.95827
G1 X105.861 Y113.455 E283.16924
G1 X105.366 Y113.175 E283.38138
G1 X104.861 Y112.931 E283.59059
G1 X104.335 Y112.714 E283.80284
G1 X103.825 Y112.537 E284.00421
G1 X103.25 Y112.375 E284.22705
G1 X102.69 Y112.254 E284.44076
G1 X102.085 Y112.161 E284.66909
G1 X101.567 Y112.118 E284.86298
G1 X101 Y112.101 E285.07457
G1 X100.435 Y112.118 E285.28542
G1 X99.915 Y112.165 E285.48019
G1 X99.308 Y112.254 E285.70903
G1 X98.748 Y112.375 E285.92274
G1 X98.175 Y112.534 E286.14456
G1 X97.667 Y112.713 E286.34547
G1 X97.139 Y112.931 E286.55855
G1 X96.63 Y113.177 E286.76943
G1 X96.135 Y113.457 E286.98157
G1 X95.658 Y113.766 E287.19357
G1 X95.206 Y114.1 E287.40321
G1 X94.766 Y114.468 E287.61718
G1 X94.352 Y114.856 E287.82883
G1 X93.964 Y115.269 E288.04021
G1 X93.6 Y115.706 E288.25236
G1 X93.262 Y116.164 E288.46469
G1 X92.955 Y116.639 E288.67566
G1 X92.675 Y117.134 E288.8878
G1 X92.431 Y117.639 E289.09701
G1 X92.212 Y118.169 E289.31092
G1 X92.037 Y118.675 E289.51064
G1 X91.873 Y119.255 E289.73547
G1 X91.754 Y119.808 E289.94647
G1 X91.661 Y120.415 E290.17554
G1 X91.618 Y120.933 E290.36943
G1 X91.601 Y121.501 E290.5814
G1 X91.618 Y122.065 E290.79187
G1 X91.665 Y122.585 E290.98663
G1 X91.754 Y123.194 E291.21622
G1 X91.873 Y123.747 E291.42722
G1 X92.034 Y124.325 E291.65103
G1 X92.211 Y124.829 E291.85029
G1 X92.431 Y125.361 E292.06503
G1 X92.675 Y125.866 E292.27425
G1 X92.955 Y126.361 E292.48638
G1 X93.262 Y126.836 E292.69735
G1 X93.6 Y127.294 E292.90968
G1 X93.964 Y127.731 E293.12183
G1 X94.352 Y128.144 E293.33321
G1 X94.766 Y128.532 E293.54486
G1 X95.206 Y128.9 E293.75883
G1 X95.658 Y129.234 E293.96847
G1 X96.136 Y129.543 E294.18079
G1 X96.63 Y129.823 E294.3926
G1 X97.139 Y130.069 E294.60348
G1 X97.665 Y130.286 E294.81573
G1 X98.175 Y130.463 E295.0171
G1 X98.75 Y130.625 E295.23993
G1 X99.31 Y130.746 E295.45365
G1 X99.915 Y130.839 E295.68197
G1 X100.433 Y130.882 E295.87586
G1 X101 Y130.899 E296.08746
G1 X101.565 Y130.882 E296.29831
G0 F6000 X101.589 Y131.282
;TYPE:WALL-OUTER
G1 F1800 X102.132 Y131.233 E296.50168
G1 X102.764 Y131.14 E296.73997
G1 X103.348 Y131.013 E296.9629
G1 X103.945 Y130.848 E297.19395
G1 X104.476 Y130.661 E297.40394
G1 X105.025 Y130.434 E297.62555
G1 X105.556 Y130.177 E297.8456
G1 X106.072 Y129.885 E298.06676
G1 X106.57 Y129.563 E298.28797
G1 X107.041 Y129.215 E298.50642
G1 X107.5 Y128.832 E298.72941
G1 X107.931 Y128.427 E298.95002
G1 X108.336 Y127.996 E299.17064
G1 X108.715 Y127.541 E299.39153
G1 X109.067 Y127.064 E299.61266
G1 X109.387 Y126.568 E299.83284
G1 X109.679 Y126.052 E300.054
G1 X109.934 Y125.525 E300.27239
G1 X110.162 Y124.973 E300.49517
G1 X110.345 Y124.445 E300.70362
G1 X110.515 Y123.842 E300.93731
G1 X110.64 Y123.264 E301.1579
G1 X110.737 Y122.632 E301.39641
G1 X110.782 Y122.089 E301.59966
G1 X110.799 Y121.498 E301.8202
G1 X110.782 Y120.906 E302.04112
G1 X110.733 Y120.368 E302.24264
G1 X110.64 Y119.734 E302.48166
G1 X110.513 Y119.152 E302.70387
G1 X110.348 Y118.555 E302.93491
G1 X110.161 Y118.024 E303.14491
G1 X109.934 Y117.475 E303.36651
G1 X109.677 Y116.944 E303.58656
G1 X109.385 Y116.428 E303.80772
G1 X109.063 Y115.93 E304.02893
G1 X108.715 Y115.459 E304.24738
G1 X108.332 Y115 E304.47037
G1 X107.927 Y114.569 E304.69099
G1 X107.496 Y114.164 E304.9116
G1 X107.041 Y113.785 E305.13249
G1 X106.564 Y113.433 E305.35362
G1 X106.068 Y113.113 E305.57381
G1 X105.552 Y112.821 E305.79497
G1 X105.025 Y112.566 E306.01335
G1 X104.477 Y112.34 E306.23447
G1 X103.945 Y112.155 E306.44457
G1 X103.347 Y111.987 E306.67627
G1 X102.763 Y111.86 E306.8992
G1 X102.132 Y111.763 E307.13734
G1 X101.589 Y111.718 E307.34059
G1 X101 Y111.701 E307.56039
G1 X100.411 Y111.718 E307.78019
G1 X99.868 Y111.767 E307.98356
G1 X99.236 Y111.86 E308.22185
G1 X98.652 Y111.987 E308.44478
G1 X98.055 Y112.152 E308.67582
G1 X97.524 Y112.339 E308.88582
G1 X96.975 Y112.566 E309.10742
G1 X96.444 Y112.823 E309.32748
G1 X95.928 Y113.115 E309.54864
G1 X95.43 Y113.437 E309.76985
G1 X94.959 Y113.785 E309.9883
G1 X94.5 Y114.168 E310.21129
G1 X94.069 Y114.573 E310.4319
G1 X93.664 Y115.004 E310.65252
G1 X93.285 Y115.459 E310.87341
G1 X92.933 Y115.936 E311.09454
G1 X92.613 Y116.432 E311.31472
G1 X92.321 Y116.948 E311.53588
G1 X92.066 Y117.475 E311.75427
G1 X91.838 Y118.027 E311.97705
G1 X91.655 Y118.555 E312.18549
G1 X91.485 Y119.158 E312.41919
