;FLAVOR:Marlin
;TIME:490
;Filament used: 4.74861m, 0m
;Layer height: 0.3
;MINX:91.201
;MINY:111.701
;MINZ:0.3
;MAXX:110.799
;MAXY:131.299
;MAXZ:7
;Generated with Cura_SteamEngine 5.0.1
T0
M140 S40
M105
M190 S40
M104 S200
M105
M109 S200
M82 ;absolute extrusion mode
M900 K0.020;
G28 ; home all axes
G1 Z5 F5000 ; lift nozzle
G1 X-45 Y70 F2500; go to glycerin roller;
G92 E0
G1 X-23 F5000; park to start
G92 E0; Extrude a small amount to clear nozzle
G1 E20 F4000
G4 P2000
G92 E0


G92 E0
G1 F1500 E-1
;LAYER_COUNT:20
;LAYER:0
M107
M204 S500
G1 F600 Z1.3
;MESH:Sajad.stl
G0 F6000 X101.565 Y130.882 Z1.3
;TYPE:WALL-INNER
G1 F600 Z0.3
G1 F1500 E0.15542
G1 F1800 X102.085 Y130.835 E0.35019
G1 X102.692 Y130.746 E0.57903
G1 X103.252 Y130.625 E0.79274
G1 X103.811 Y130.47 E1.00913
G1 X104.32 Y130.291 E1.21039
G1 X104.845 Y130.075 E1.42215
G1 X105.37 Y129.821 E1.6397
G1 X105.865 Y129.543 E1.85148
G1 X106.33 Y129.242 E2.0581
G1 X106.782 Y128.909 E2.26752
G1 X107.224 Y128.541 E2.48206
G1 X107.648 Y128.144 E2.69873
G1 X108.026 Y127.741 E2.90483
G1 X108.392 Y127.304 E3.11746
G1 X108.738 Y126.836 E3.33456
G1 X109.045 Y126.361 E3.54553
G1 X109.318 Y125.878 E3.75249
G1 X109.563 Y125.373 E3.96186
G1 X109.788 Y124.83 E4.18111
G1 X109.963 Y124.325 E4.38048
G1 X110.121 Y123.763 E4.59824
G1 X110.243 Y123.203 E4.81203
G1 X110.337 Y122.599 E5.04005
G1 X110.381 Y122.082 E5.2336
G1 X110.399 Y121.512 E5.44632
G1 X110.382 Y120.929 E5.66389
G1 X110.335 Y120.415 E5.85642
G1 X110.246 Y119.806 E6.086
G1 X110.125 Y119.248 E6.29898
G1 X109.97 Y118.689 E6.51537
G1 X109.792 Y118.18 E6.71651
G1 X109.574 Y117.653 E6.92925
G1 X109.322 Y117.13 E7.1458
G1 X109.043 Y116.635 E7.35775
G1 X108.742 Y116.17 E7.56438
G1 X108.409 Y115.718 E7.7738
G1 X108.041 Y115.276 E7.98834
G1 X107.644 Y114.852 E8.205
G1 X107.241 Y114.474 E8.41111
G1 X106.804 Y114.108 E8.62374
G1 X106.336 Y113.762 E8.84084
G1 X105.861 Y113.455 E9.05181
G1 X105.378 Y113.182 E9.25877
G1 X104.874 Y112.937 E9.46781
G1 X104.334 Y112.714 E9.68574
G1 X103.825 Y112.537 E9.88676
G1 X103.263 Y112.379 E10.10452
G1 X102.703 Y112.257 E10.31831
G1 X102.099 Y112.163 E10.54633
G1 X101.582 Y112.119 E10.73987
G1 X101.014 Y112.101 E10.95186
G1 X100.435 Y112.118 E11.16793
G1 X99.915 Y112.165 E11.36269
G1 X99.308 Y112.254 E11.59153
G1 X98.748 Y112.375 E11.80524
G1 X98.189 Y112.53 E12.02163
G1 X97.68 Y112.709 E12.22289
G1 X97.155 Y112.924 E12.43451
G1 X96.63 Y113.179 E12.65223
G1 X96.135 Y113.457 E12.864
G1 X95.67 Y113.758 E13.07062
G1 X95.218 Y114.091 E13.28004
G1 X94.776 Y114.459 E13.49458
G1 X94.352 Y114.856 E13.71125
G1 X93.974 Y115.259 E13.91736
G1 X93.608 Y115.696 E14.12998
G1 X93.262 Y116.164 E14.34709
G1 X92.955 Y116.639 E14.55806
G1 X92.682 Y117.122 E14.76501
G1 X92.437 Y117.627 E14.97439
G1 X92.212 Y118.17 E15.19364
G1 X92.037 Y118.675 E15.393
G1 X91.879 Y119.237 E15.61077
G1 X91.757 Y119.797 E15.82456
G1 X91.663 Y120.401 E16.05257
G1 X91.619 Y120.918 E16.24612
G1 X91.601 Y121.488 E16.45885
G1 X91.618 Y122.065 E16.67417
G1 X91.665 Y122.585 E16.86893
G1 X91.754 Y123.194 E17.09851
G1 X91.873 Y123.747 E17.30952
G1 X92.03 Y124.311 E17.5279
G1 X92.207 Y124.816 E17.72751
G1 X92.424 Y125.344 E17.94045
G1 X92.678 Y125.868 E18.15766
G1 X92.955 Y126.361 E18.3686
G1 X93.255 Y126.825 E18.57471
G1 X93.591 Y127.282 E18.78629
G1 X93.956 Y127.72 E18.99897
G1 X94.352 Y128.144 E19.21538
G1 X94.757 Y128.525 E19.4228
G1 X95.194 Y128.891 E19.63543
G1 X95.658 Y129.234 E19.85067
G1 X96.136 Y129.543 E20.06298
G1 X96.618 Y129.816 E20.26961
G1 X97.127 Y130.063 E20.48065
G1 X97.666 Y130.286 E20.69824
G1 X98.175 Y130.463 E20.89926
G1 X98.737 Y130.621 E21.11702
G1 X99.297 Y130.743 E21.33081
G1 X99.901 Y130.837 E21.55883
G1 X100.418 Y130.881 E21.75238
G1 X100.986 Y130.899 E21.96436
G1 X101.565 Y130.882 E22.18043
G0 F6000 X101.589 Y131.282
;TYPE:WALL-OUTER
G1 F1800 X102.132 Y131.233 E22.3838
G1 X102.764 Y131.14 E22.62209
G1 X103.348 Y131.013 E22.84502
G1 X103.931 Y130.852 E23.07064
G1 X104.462 Y130.665 E23.28063
G1 X105.008 Y130.441 E23.50077
G1 X105.556 Y130.176 E23.72784
G1 X106.072 Y129.885 E23.94881
G1 X106.558 Y129.571 E24.16465
G1 X107.029 Y129.224 E24.38287
G1 X107.489 Y128.841 E24.60615
G1 X107.931 Y128.427 E24.83205
G1 X108.326 Y128.007 E25.04712
G1 X108.706 Y127.552 E25.26825
G1 X109.067 Y127.064 E25.49468
G1 X109.387 Y126.568 E25.71486
G1 X109.672 Y126.064 E25.93084
G1 X109.928 Y125.537 E26.14939
G1 X110.162 Y124.972 E26.3775
G1 X110.345 Y124.445 E26.5856
G1 X110.509 Y123.86 E26.81223
G1 X110.637 Y123.277 E27.03488
G1 X110.735 Y122.647 E27.27271
G1 X110.781 Y122.105 E27.47561
G1 X110.799 Y121.512 E27.69691
G1 X110.782 Y120.905 E27.92342
G1 X110.733 Y120.368 E28.12457
G1 X110.64 Y119.734 E28.36359
G1 X110.513 Y119.152 E28.5858
G1 X110.352 Y118.569 E28.81141
G1 X110.166 Y118.038 E29.02128
G1 X109.94 Y117.489 E29.24274
G1 X109.676 Y116.944 E29.46863
G1 X109.385 Y116.428 E29.68961
G1 X109.071 Y115.942 E29.90544
G1 X108.724 Y115.471 E30.12367
G1 X108.341 Y115.011 E30.34695
G1 X107.927 Y114.569 E30.57285
G1 X107.507 Y114.174 E30.78792
G1 X107.052 Y113.794 E31.00905
G1 X106.564 Y113.433 E31.23548
G1 X106.068 Y113.113 E31.45566
G1 X105.564 Y112.828 E31.67164
G1 X105.038 Y112.572 E31.88985
G1 X104.476 Y112.34 E32.11665
G1 X103.945 Y112.155 E32.3264
G1 X103.36 Y111.991 E32.55303
G1 X102.777 Y111.863 E32.77568
G1 X102.147 Y111.765 E33.0135
G1 X101.605 Y111.719 E33.21641
G1 X101.014 Y111.701 E33.43696
G1 X100.411 Y111.718 E33.66198
G1 X99.868 Y111.767 E33.86536
G1 X99.236 Y111.86 E34.10364
G1 X98.652 Y111.987 E34.32658
G1 X98.069 Y112.148 E34.55219
G1 X97.538 Y112.335 E34.76219
G1 X96.992 Y112.559 E34.98233
G1 X96.444 Y112.824 E35.20939
G1 X95.928 Y113.115 E35.43037
G1 X95.442 Y113.429 E35.6462
G1 X94.971 Y113.776 E35.86442
G1 X94.511 Y114.159 E36.0877
G1 X94.069 Y114.573 E36.31361
G1 X93.674 Y114.993 E36.52868
G1 X93.294 Y115.448 E36.74981
G1 X92.933 Y115.936 E36.97623
G1 X92.613 Y116.432 E37.19641
G1 X92.328 Y116.936 E37.41239
G1 X92.072 Y117.463 E37.63094
G1 X91.838 Y118.028 E37.85906
G1 X91.655 Y118.555 E38.06715
G1 X91.491 Y119.14 E38.29378
G1 X91.363 Y119.723 E38.51643
G1 X91.265 Y120.353 E38.75426
G1 X91.219 Y120.895 E38.95716
G1 X91.201 Y121.488 E39.17847
G1 X91.218 Y122.089 E39.40274
G1 X91.267 Y122.632 E39.60611
G1 X91.36 Y123.265 E39.84477
G1 X91.485 Y123.843 E40.06536
G1 X91.648 Y124.431 E40.29297
G1 X91.833 Y124.958 E40.50131
G1 X92.059 Y125.508 E40.72311
G1 X92.323 Y126.054 E40.94934
G1 X92.613 Y126.568 E41.16948
G1 X92.925 Y127.052 E41.38429
G1 X93.276 Y127.528 E41.6049
G1 X93.656 Y127.985 E41.8266
G1 X94.069 Y128.427 E42.05225
G1 X94.491 Y128.824 E42.26837
G1 X94.946 Y129.205 E42.48974
G1 X95.43 Y129.563 E42.7143
G1 X95.928 Y129.885 E42.93552
G1 X96.432 Y130.17 E43.15149
G1 X96.963 Y130.428 E43.37171
G1 X97.524 Y130.66 E43.59816
G1 X98.055 Y130.845 E43.80791
G1 X98.64 Y131.009 E44.03454
G1 X99.223 Y131.137 E44.25719
G1 X99.853 Y131.235 E44.49502
G1 X100.395 Y131.281 E44.69792
G1 X100.986 Y131.299 E44.91848
G1 X101.589 Y131.282 E45.1435
G0 F6000 X101.788 Y131.265
G1 F1500 E44.1435
G1 F600 Z1.3
G0 F6000 X92.981 Y125.712 Z1.3
;TYPE:FILL
G1 F600 Z0.3
G1 F1500 E45.29893
G1 F2400 X93.244 Y126.179 E45.49885
G1 X93.531 Y126.625 E45.69669
G1 X93.856 Y127.066 E45.90103
G1 X94.212 Y127.495 E46.10898
G1 X94.593 Y127.902 E46.31694
G1 X94.987 Y128.273 E46.51881
G1 X95.4 Y128.619 E46.71979
G1 X95.851 Y128.952 E46.92891
G1 X96.312 Y129.251 E47.13387
G1 X96.78 Y129.516 E47.33449
G1 X97.122 Y129.681 E47.47613
G1 X92.796 Y125.355 E49.75823
G1 X92.522 Y124.689 E50.02686
G1 X92.336 Y124.141 E50.24273
G1 X98.352 Y130.157 E53.41634
G1 X98.825 Y130.291 E53.59972
G1 X99.355 Y130.407 E53.8021
G1 X92.09 Y123.141 E57.63487
G1 X91.962 Y122.26 E57.96695
G1 X100.235 Y130.534 E62.33146
G1 X101.013 Y130.557 E62.6218
G1 X91.94 Y121.485 E67.4078
G1 X91.964 Y120.754 E67.68063
G1 X101.749 Y130.54 E72.84276
G1 X102.406 Y130.442 E73.09055
G1 X92.054 Y120.091 E78.55127
G1 X92.177 Y119.46 E78.79107
G1 X103.038 Y130.321 E84.52056
G1 X103.634 Y130.164 E84.75047
G1 X92.336 Y118.865 E90.71076
G1 X92.525 Y118.301 E90.93264
G1 X104.197 Y129.972 E97.08969
G1 X104.73 Y129.751 E97.30493
G1 X92.745 Y117.767 E103.6271
G1 X92.993 Y117.26 E103.83763
G1 X105.237 Y129.505 E110.29696
G1 X105.717 Y129.231 E110.50313
G1 X93.267 Y116.781 E117.07087
G1 X93.565 Y116.326 E117.27375
G1 X106.173 Y128.933 E123.92458
G1 X106.605 Y128.612 E124.12534
G1 X93.886 Y115.892 E130.83524
G1 X94.229 Y115.481 E131.03493
G1 X107.016 Y128.269 E137.78071
G1 X107.404 Y127.903 E137.97967
G1 X94.596 Y115.095 E144.73626
G1 X94.984 Y114.729 E144.93523
G1 X107.771 Y127.516 E151.68074
G1 X108.113 Y127.105 E151.88019
G1 X95.394 Y114.385 E158.59009
G1 X95.827 Y114.064 E158.79115
G1 X108.434 Y126.672 E165.44198
G1 X108.732 Y126.216 E165.64517
G1 X96.283 Y113.767 E172.21238
G1 X96.763 Y113.493 E172.41855
G1 X109.006 Y125.737 E178.87735
G1 X109.255 Y125.231 E179.08772
G1 X97.269 Y113.245 E185.41068
G1 X97.803 Y113.026 E185.62597
G1 X109.474 Y124.697 E191.78277
G1 X109.663 Y124.132 E192.005
G1 X98.365 Y112.834 E197.96502
G1 X98.961 Y112.676 E198.19502
G1 X109.822 Y123.537 E203.92452
G1 X109.945 Y122.907 E204.16396
G1 X99.593 Y112.555 E209.62494
G1 X100.25 Y112.457 E209.87272
G1 X110.035 Y122.243 E215.03486
G1 X110.059 Y121.512 E215.30768
G1 X100.988 Y112.441 E220.0929
G1 X101.764 Y112.464 E220.38249
G1 X110.036 Y120.736 E224.74621
G1 X109.909 Y119.855 E225.07824
G1 X102.645 Y112.591 E228.91021
G1 X103.175 Y112.707 E229.11259
G1 X103.648 Y112.84 E229.29587
G1 X109.662 Y118.854 E232.46843
G1 X109.472 Y118.295 E232.68866
G1 X109.204 Y117.643 E232.95162
G1 X104.876 Y113.315 E235.23476
G1 X105.214 Y113.479 E235.3749
G1 X105.682 Y113.744 E235.57552
G1 X106.14 Y114.04 E235.77893
G1 X106.589 Y114.372 E235.98723
G1 X107.021 Y114.731 E236.19676
G1 X107.398 Y115.087 E236.39018
G1 X107.782 Y115.495 E236.59917
G1 X108.137 Y115.922 E236.80631
G1 X108.457 Y116.357 E237.00775
G1 X108.755 Y116.816 E237.21188
G1 X109.016 Y117.28 E237.41047
G1 F1500 E236.41047
G1 F600 Z1.3
;MESH:NONMESH
G0 F6000 X101.565 Y130.882 Z1.3
;TIME_ELAPSED:27.781961
;LAYER:1
;MESH:Sajad.stl
G0 X101.565 Y130.882 Z1.6
;TYPE:WALL-INNER
G1 F600 Z0.6
G1 F1500 E237.56589
G1 F1800 X102.085 Y130.835 E237.76065
G1 X102.692 Y130.746 E237.9895
G1 X103.252 Y130.625 E238.20321
G1 X103.825 Y130.466 E238.42503
G1 X104.333 Y130.287 E238.62594
G1 X104.861 Y130.069 E238.83902
G1 X105.37 Y129.823 E239.0499
G1 X105.865 Y129.543 E239.26204
G1 X106.342 Y129.234 E239.47404
G1 X106.794 Y128.9 E239.68368
G1 X107.234 Y128.532 E239.89765
G1 X107.648 Y128.144 E240.1093
G1 X108.036 Y127.731 E240.32068
G1 X108.4 Y127.294 E240.53283
G1 X108.738 Y126.836 E240.74516
G1 X109.045 Y126.361 E240.95613
G1 X109.325 Y125.866 E241.16826
G1 X109.569 Y125.361 E241.37747
G1 X109.788 Y124.831 E241.59139
G1 X109.963 Y124.325 E241.7911
G1 X110.127 Y123.745 E242.01594
G1 X110.246 Y123.192 E242.22694
G1 X110.339 Y122.585 E242.456
G1 X110.382 Y122.067 E242.64989
G1 X110.399 Y121.498 E242.86224
G1 X110.382 Y120.93 E243.07421
G1 X110.335 Y120.415 E243.26711
G1 X110.246 Y119.806 E243.49669
G1 X110.125 Y119.248 E243.70967
G1 X109.966 Y118.675 E243.93149
G1 X109.787 Y118.167 E244.1324
G1 X109.569 Y117.639 E244.34548
G1 X109.323 Y117.13 E244.55636
G1 X109.043 Y116.635 E244.7685
G1 X108.734 Y116.158 E244.9805
G1 X108.4 Y115.706 E245.19015
G1 X108.032 Y115.266 E245.40411
G1 X107.644 Y114.852 E245.61576
G1 X107.231 Y114.464 E245.82714
G1 X106.794 Y114.1 E246.03929
G1 X106.336 Y113.762 E246.25162
G1 X105.861 Y113.455 E246.46259
G1 X105.366 Y113.175 E246.67473
G1 X104.861 Y112.931 E246.88394
G1 X104.335 Y112.714 E247.09619
G1 X103.825 Y112.537 E247.29756
G1 X103.25 Y112.375 E247.5204
G1 X102.69 Y112.254 E247.73411
G1 X102.085 Y112.161 E247.96243
G1 X101.567 Y112.118 E248.15632
G1 X101 Y112.101 E248.36792
G1 X100.435 Y112.118 E248.57877
G1 X99.915 Y112.165 E248.77353
G1 X99.308 Y112.254 E249.00238
G1 X98.748 Y112.375 E249.21609
G1 X98.175 Y112.534 E249.4379
G1 X97.667 Y112.713 E249.63882
G1 X97.139 Y112.931 E249.8519
G1 X96.63 Y113.177 E250.06278
G1 X96.135 Y113.457 E250.27492
G1 X95.658 Y113.766 E250.48692
G1 X95.206 Y114.1 E250.69656
G1 X94.766 Y114.468 E250.91053
G1 X94.352 Y114.856 E251.12218
G1 X93.964 Y115.269 E251.33355
G1 X93.6 Y115.706 E251.54571
G1 X93.262 Y116.164 E251.75803
G1 X92.955 Y116.639 E251.969
G1 X92.675 Y117.134 E252.18114
G1 X92.431 Y117.639 E252.39035
G1 X92.212 Y118.169 E252.60427
G1 X92.037 Y118.675 E252.80398
G1 X91.873 Y119.255 E253.02882
G1 X91.754 Y119.808 E253.23982
G1 X91.661 Y120.415 E253.46888
G1 X91.618 Y120.933 E253.66277
G1 X91.601 Y121.501 E253.87474
G1 X91.618 Y122.065 E254.08522
G1 X91.665 Y122.585 E254.27998
G1 X91.754 Y123.194 E254.50956
G1 X91.873 Y123.747 E254.72057
G1 X92.034 Y124.325 E254.94438
G1 X92.211 Y124.829 E255.14364
G1 X92.431 Y125.361 E255.35838
G1 X92.675 Y125.866 E255.56759
G1 X92.955 Y126.361 E255.77973
G1 X93.262 Y126.836 E255.9907
G1 X93.6 Y127.294 E256.20303
G1 X93.964 Y127.731 E256.41518
G1 X94.352 Y128.144 E256.62656
G1 X94.766 Y128.532 E256.83821
G1 X95.206 Y128.9 E257.05218
G1 X95.658 Y129.234 E257.26182
G1 X96.136 Y129.543 E257.47413
G1 X96.63 Y129.823 E257.68595
G1 X97.139 Y130.069 E257.89682
G1 X97.665 Y130.286 E258.10907
G1 X98.175 Y130.463 E258.31045
G1 X98.75 Y130.625 E258.53328
G1 X99.31 Y130.746 E258.74699
G1 X99.915 Y130.839 E258.97532
G1 X100.433 Y130.882 E259.16921
G1 X101 Y130.899 E259.38081
G1 X101.565 Y130.882 E259.59166
G0 F6000 X101.589 Y131.282
;TYPE:WALL-OUTER
G1 F1800 X102.132 Y131.233 E259.79503
G1 X102.764 Y131.14 E260.03332
G1 X103.348 Y131.013 E260.25625
G1 X103.945 Y130.848 E260.48729
G1 X104.476 Y130.661 E260.69729
G1 X105.025 Y130.434 E260.91889
G1 X105.556 Y130.177 E261.13895
G1 X106.072 Y129.885 E261.36011
G1 X106.57 Y129.563 E261.58132
G1 X107.041 Y129.215 E261.79976
G1 X107.5 Y128.832 E262.02276
G1 X107.931 Y128.427 E262.24337
G1 X108.336 Y127.996 E262.46398
G1 X108.715 Y127.541 E262.68488
G1 X109.067 Y127.064 E262.90601
G1 X109.387 Y126.568 E263.12619
G1 X109.679 Y126.052 E263.34735
G1 X109.934 Y125.525 E263.56573
G1 X110.162 Y124.973 E263.78851
G1 X110.345 Y124.445 E263.99696
G1 X110.515 Y123.842 E264.23066
G1 X110.64 Y123.264 E264.45125
G1 X110.737 Y122.632 E264.68976
G1 X110.782 Y122.089 E264.893
G1 X110.799 Y121.498 E265.11355
G1 X110.782 Y120.906 E265.33447
G1 X110.733 Y120.368 E265.53598
G1 X110.64 Y119.734 E265.77501
G1 X110.513 Y119.152 E265.99721
G1 X110.348 Y118.555 E266.22826
G1 X110.161 Y118.024 E266.43825
G1 X109.934 Y117.475 E266.65986
G1 X109.677 Y116.944 E266.87991
G1 X109.385 Y116.428 E267.10107
G1 X109.063 Y115.93 E267.32228
G1 X108.715 Y115.459 E267.54073
G1 X108.332 Y115 E267.76372
G1 X107.927 Y114.569 E267.98433
G1 X107.496 Y114.164 E268.20495
G1 X107.041 Y113.785 E268.42584
G1 X106.564 Y113.433 E268.64697
G1 X106.068 Y113.113 E268.86715
G1 X105.552 Y112.821 E269.08831
G1 X105.025 Y112.566 E269.3067
G1 X104.477 Y112.34 E269.52781
G1 X103.945 Y112.155 E269.73792
G1 X103.347 Y111.987 E269.96962
G1 X102.763 Y111.86 E270.19255
G1 X102.132 Y111.763 E270.43069
G1 X101.589 Y111.718 E270.63394
G1 X101 Y111.701 E270.85374
G1 X100.411 Y111.718 E271.07354
G1 X99.868 Y111.767 E271.27691
G1 X99.236 Y111.86 E271.5152
G1 X98.652 Y111.987 E271.73813
G1 X98.055 Y112.152 E271.96917
G1 X97.524 Y112.339 E272.17917
G1 X96.975 Y112.566 E272.40077
G1 X96.444 Y112.823 E272.62082
G1 X95.928 Y113.115 E272.84198
G1 X95.43 Y113.437 E273.0632
G1 X94.959 Y113.785 E273.28164
G1 X94.5 Y114.168 E273.50464
G1 X94.069 Y114.573 E273.72525
G1 X93.664 Y115.004 E273.94586
G1 X93.285 Y115.459 E274.16675
G1 X92.933 Y115.936 E274.38789
G1 X92.613 Y116.432 E274.60807
G1 X92.321 Y116.948 E274.82923
G1 X92.066 Y117.475 E275.04761
G1 X91.838 Y118.027 E275.27039
G1 X91.655 Y118.555 E275.47884
G1 X91.485 Y119.158 E275.71254
G1 X91.36 Y119.736 E275.93313
G1 X91.263 Y120.368 E276.17164
G1 X91.218 Y120.911 E276.37488
G1 X91.201 Y121.501 E276.59505
G1 X91.218 Y122.089 E276.81448
G1 X91.267 Y122.632 E277.01785
G1 X91.36 Y123.265 E277.25651
G1 X91.485 Y123.843 E277.4771
G1 X91.652 Y124.445 E277.71014
G1 X91.837 Y124.972 E277.91848
